pipelines/.agents/skills/broll-ingest/luts/buildloop-FINAL-soft.cube
# buildloop-FINAL-soft — 55% strength v4 for harsh-light scenes
LUT_3D_SIZE 5
0.002131 0.015067 0.028927
0.199585 0.018373 0.032233
0.471900 0.024323 0.037341
0.737793 0.026341 0.036979
0.923889 0.025208 0.034522
0.013460 0.227863 0.038168
0.215887 0.230813 0.036643
0.508187 0.232429 0.026138
0.797716 0.229555 0.011108
0.987359 0.228036 0.005580
0.014142 0.524865 0.001528
0.235330 0.524335 0.000000
0.532539 0.523563 0.000000
0.808150 0.522879 0.000000
0.990919 0.522585 0.000000
0.013419 0.798762 0.000000
0.234817 0.797032 0.002708
0.531792 0.793251 0.025258
0.794407 0.792931 0.053030
0.967702 0.794053 0.064782
0.026406 0.974029 0.017042
0.250713 0.970012 0.033772
0.542046 0.967065 0.065282
0.798985 0.969746 0.084730
0.972028 0.972028 0.087748
0.003349 0.016285 0.231222
0.200803 0.019591 0.234529
0.474079 0.025278 0.239143
0.743716 0.025911 0.241317
0.931308 0.024146 0.240881
0.013892 0.229003 0.240616
0.217636 0.231588 0.241322
0.512250 0.232054 0.236632
0.801627 0.228728 0.227125
0.989715 0.227473 0.223542
0.014796 0.524652 0.220739
0.235296 0.524183 0.219592
0.532386 0.523410 0.218818
0.807998 0.522727 0.218135
0.990453 0.522457 0.218170
0.013677 0.798363 0.218590
0.236145 0.796207 0.223784
0.532764 0.792842 0.242918
0.794426 0.793419 0.264974
0.967556 0.794906 0.273943
0.030483 0.972551 0.236169
0.254425 0.968959 0.249792
0.544204 0.967249 0.274317
0.800228 0.970891 0.287687
0.973246 0.973246 0.290043
0.005448 0.018384 0.498472
0.203039 0.021658 0.501627
0.479230 0.026283 0.507671
0.754574 0.024395 0.517920
0.944513 0.021635 0.521451
0.013889 0.230714 0.512190
0.220400 0.232419 0.518640
0.518700 0.230984 0.524311
0.806256 0.227572 0.521568
0.991551 0.226984 0.519361
0.015255 0.524369 0.517766
0.235036 0.523921 0.517189
0.532124 0.523148 0.516416
0.807492 0.522476 0.515899
0.988413 0.522525 0.516464
0.015686 0.797207 0.516861
0.239448 0.794788 0.520085
0.535011 0.792576 0.530696
0.795103 0.794713 0.542876
0.968119 0.796728 0.547699
0.038447 0.970271 0.526969
0.261266 0.967656 0.534499
0.547938 0.968150 0.547895
0.802327 0.972989 0.554937
0.975345 0.975345 0.557292
0.007303 0.020239 0.747716
0.205359 0.023404 0.750362
0.484787 0.026394 0.762696
0.764648 0.022304 0.782212
0.956004 0.018850 0.789316
0.013094 0.231816 0.771120
0.222753 0.232573 0.783598
0.523577 0.229756 0.797160
0.808087 0.227081 0.796070
0.992390 0.226681 0.794516
0.015194 0.524137 0.793699
0.234804 0.523689 0.793251
0.531892 0.522916 0.792478
0.806235 0.522466 0.791774
0.985677 0.523027 0.791043
0.019024 0.795953 0.790796
0.243376 0.793713 0.790064
0.537554 0.792843 0.791636
0.791705 0.795824 0.772239
0.956221 0.799979 0.770691
0.046220 0.968682 0.790730
0.267526 0.967111 0.792841
0.550957 0.969496 0.798687
0.804909 0.970462 0.771281
0.967698 0.975378 0.774227
0.008102 0.021032 0.919150
0.206450 0.024135 0.921506
0.487362 0.026202 0.938475
0.769009 0.021216 0.962187
0.960748 0.017540 0.970678
0.012542 0.232148 0.948725
0.223726 0.232471 0.963846
0.525387 0.229203 0.979950
0.808606 0.226929 0.978554
0.992537 0.226578 0.977352
0.015094 0.524037 0.976726
0.234704 0.523588 0.976277
0.531792 0.522816 0.975505
0.805477 0.522575 0.974082
0.984328 0.523397 0.972304
0.020886 0.795404 0.971644
0.245338 0.793339 0.968764
0.538782 0.793110 0.966360
0.792618 0.797122 0.934729
0.956795 0.801590 0.931114
0.049708 0.968149 0.966596
0.270209 0.967060 0.966557
0.552034 0.970208 0.970208
0.806546 0.972095 0.930171
0.969274 0.977080 0.933172
