pipelines/.agents/skills/broll-ingest/luts/buildloop-FINAL-slog3-soft.cube
# buildloop-FINAL-slog3-soft — full conversion + 55% creative
LUT_3D_SIZE 33
0.002131 0.015067 0.028927
0.002131 0.015067 0.028927
0.005177 0.015067 0.028927
0.024055 0.015189 0.029049
0.049870 0.015583 0.029443
0.075174 0.015997 0.029857
0.102457 0.016474 0.030334
0.136102 0.017100 0.030960
0.175600 0.017880 0.031740
0.222261 0.018851 0.032711
0.277349 0.020048 0.033908
0.341850 0.021465 0.035234
0.420208 0.023198 0.036601
0.511448 0.025067 0.037751
0.609797 0.026210 0.038011
0.710295 0.026417 0.037298
0.807364 0.025986 0.036050
0.895302 0.025393 0.034861
0.923889 0.025208 0.034522
0.923889 0.025208 0.034522
0.923889 0.025208 0.034522
0.923889 0.025208 0.034522
0.923889 0.025208 0.034522
0.923889 0.025208 0.034522
0.923889 0.025208 0.034522
0.923889 0.025208 0.034522
0.923889 0.025208 0.034522
0.923889 0.025208 0.034522
0.923889 0.025208 0.034522
0.923889 0.025208 0.034522
0.923889 0.025208 0.034522
0.923889 0.025208 0.034522
0.923889 0.025208 0.034522
0.002131 0.015067 0.028927
0.002131 0.015067 0.028927
0.002131 0.015067 0.028927
0.014590 0.015067 0.028927
0.039349 0.015419 0.029279
0.065538 0.015836 0.029696
0.094084 0.016325 0.030185
0.128766 0.016960 0.030820
0.169098 0.017749 0.031609
0.216472 0.018728 0.032588
0.272213 0.019935 0.033795
0.337345 0.021367 0.035148
0.415944 0.023103 0.036534
0.507924 0.025007 0.037722
0.606998 0.026192 0.038018
0.708200 0.026421 0.037320
0.805872 0.025995 0.036071
0.894479 0.025398 0.034871
0.923889 0.025208 0.034522
0.923889 0.025208 0.034522
0.923889 0.025208 0.034522
0.923889 0.025208 0.034522
0.923889 0.025208 0.034522
0.923889 0.025208 0.034522
0.923889 0.025208 0.034522
0.923889 0.025208 0.034522
0.923889 0.025208 0.034522
0.923889 0.025208 0.034522
0.923889 0.025208 0.034522
0.923889 0.025208 0.034522
0.923889 0.025208 0.034522
0.923889 0.025208 0.034522
0.923889 0.025208 0.034522
0.002131 0.015067 0.028927
0.002131 0.015067 0.028927
0.002131 0.015067 0.028927
0.008281 0.015067 0.028927
0.029046 0.015263 0.029123
0.055305 0.015669 0.029529
0.085377 0.016172 0.030032
0.121238 0.016819 0.030679
0.162478 0.017616 0.031476
0.210604 0.018604 0.032464
0.267021 0.019820 0.033680
0.332799 0.021268 0.035060
0.411643 0.023007 0.036464
0.504375 0.024945 0.037691
0.604178 0.026172 0.038024
0.706092 0.026424 0.037343
0.804371 0.026005 0.036092
0.893645 0.025404 0.034882
0.923889 0.025208 0.034522
0.923889 0.025208 0.034522
0.923889 0.025208 0.034522
0.923889 0.025208 0.034522
0.923889 0.025208 0.034522
0.923889 0.025208 0.034522
0.923889 0.025208 0.034522
0.923889 0.025208 0.034522
0.923889 0.025208 0.034522
0.923889 0.025208 0.034522
0.923889 0.025208 0.034522
0.923889 0.025208 0.034522
0.923889 0.025208 0.034522
0.923889 0.025208 0.034522
0.923889 0.025208 0.034522
0.002501 0.023589 0.029297
0.002353 0.020220 0.029149
0.002208 0.016874 0.029004
0.002131 0.015067 0.028927
0.018954 0.015116 0.028976
0.044498 0.015498 0.029358
0.076277 0.016016 0.029876
0.113494 0.016675 0.030535
0.155731 0.017482 0.031342
0.204655 0.018479 0.032339
0.261772 0.019705 0.033565
0.328210 0.021167 0.034971
0.407304 0.022910 0.036393
0.500798 0.024882 0.037658
0.601337 0.026151 0.038030
0.703969 0.026428 0.037365
0.802862 0.026014 0.036114
0.892799 0.025409 0.034892
0.923889 0.025208 0.034522
0.923889 0.025208 0.034522
0.923889 0.025208 0.034522
0.923889 0.025208 0.034522
0.923889 0.025208 0.034522
0.923889 0.025208 0.034522
0.923889 0.025208 0.034522
0.923889 0.025208 0.034522
0.923889 0.025208 0.034522
0.923889 0.025208 0.034522
0.923889 0.025208 0.034522
0.923889 0.025208 0.034522
0.923889 0.025208 0.034522
0.923889 0.025208 0.034522
0.923889 0.025208 0.034522
0.003329 0.041771 0.030125
0.003165 0.038271 0.029961
0.003005 0.034796 0.029801
0.002847 0.031347 0.029643
0.011947 0.027922 0.029489
0.034499 0.024794 0.029610
0.066929 0.021091 0.029941
0.105510 0.016529 0.030389
0.148846 0.017347 0.031207
0.198620 0.018353 0.032213
0.256464 0.019589 0.033449
0.323579 0.021066 0.034880
0.402926 0.022812 0.036320
0.497195 0.024817 0.037624
0.598476 0.026129 0.038034
0.701832 0.026430 0.037387
0.801344 0.026023 0.036134
0.891940 0.025416 0.034903
0.923889 0.025208 0.034522
0.923889 0.025208 0.034522
0.923889 0.025208 0.034522
0.923889 0.025208 0.034522
0.923889 0.025208 0.034522
0.923889 0.025208 0.034522
0.923889 0.025208 0.034522
0.923889 0.025208 0.034522
0.923889 0.025208 0.034522
0.923889 0.025208 0.034522
0.923889 0.025208 0.034522
0.923889 0.025208 0.034522
0.923889 0.025208 0.034522
0.923889 0.025208 0.034522
0.923889 0.025208 0.034522
0.004242 0.060670 0.031038
0.004062 0.057031 0.030858
0.003885 0.053418 0.030681
0.003711 0.049833 0.030507
0.006486 0.046273 0.030337
0.025136 0.042861 0.030290
0.057586 0.038979 0.030587
0.098008 0.033588 0.031000
0.142216 0.026475 0.031473
0.192496 0.018226 0.032086
0.251096 0.019472 0.033332
0.318903 0.020964 0.034786
0.398511 0.022712 0.036246
0.493564 0.024750 0.037588
0.595594 0.026107 0.038039
0.699681 0.026433 0.037409
0.799818 0.026033 0.036156
0.891069 0.025422 0.034914
0.923889 0.025208 0.034522
0.923889 0.025208 0.034522
0.923889 0.025208 0.034522
0.923889 0.025208 0.034522
0.923889 0.025208 0.034522
0.923889 0.025208 0.034522
0.923889 0.025208 0.034522
0.923889 0.025208 0.034522
0.923889 0.025208 0.034522
0.923889 0.025208 0.034522
0.923889 0.025208 0.034522
0.923889 0.025208 0.034522
0.923889 0.025208 0.034522
0.923889 0.025208 0.034522
0.923889 0.025208 0.034522
0.005504 0.085206 0.032300
0.005315 0.081618 0.032111
0.005123 0.077949 0.031919
0.004918 0.074006 0.031714
0.004726 0.070266 0.031522
0.015310 0.066555 0.031334
0.045273 0.062360 0.031512
0.088323 0.056688 0.031910
0.134239 0.049198 0.032353
0.185646 0.039400 0.032873
0.244610 0.026682 0.033503
0.312990 0.020834 0.034667
0.392931 0.022586 0.036150
0.488984 0.024664 0.037540
0.591959 0.026077 0.038042
0.696968 0.026436 0.037437
0.797896 0.026045 0.036182
0.889961 0.025429 0.034928
0.923889 0.025208 0.034522
0.923889 0.025208 0.034522
0.923889 0.025208 0.034522
0.923889 0.025208 0.034522
0.923889 0.025208 0.034522
0.923889 0.025208 0.034522
0.923889 0.025208 0.034522
0.923889 0.025208 0.034522
0.923889 0.025208 0.034522
0.923889 0.025208 0.034522
0.923889 0.025208 0.034522
0.923889 0.025208 0.034522
0.923889 0.025208 0.034522
0.923889 0.025208 0.034522
0.923889 0.025208 0.034522
0.007171 0.115497 0.033967
0.006998 0.112433 0.033794
0.006823 0.109327 0.033619
0.006646 0.106174 0.033442
0.006469 0.102974 0.033265
0.006289 0.099722 0.033085
0.028952 0.095712 0.032995
0.073889 0.090447 0.033383
0.122795 0.083077 0.033819
0.176062 0.072461 0.034256
0.236431 0.058766 0.034749
0.305584 0.041143 0.035295
0.385000 0.022406 0.036011
0.482485 0.024537 0.037468
0.586804 0.026033 0.038045
0.693124 0.026439 0.037475
0.795177 0.026061 0.036220
0.888371 0.025440 0.034948
0.923889 0.025208 0.034522
0.923889 0.025208 0.034522
0.923889 0.025208 0.034522
0.923889 0.025208 0.034522
0.923889 0.025208 0.034522
0.923889 0.025208 0.034522
0.923889 0.025208 0.034522
0.923889 0.025208 0.034522
0.923889 0.025208 0.034522
0.923889 0.025208 0.034522
0.923889 0.025208 0.034522
0.923889 0.025208 0.034522
0.923889 0.025208 0.034522
0.923889 0.025208 0.034522
0.923889 0.025208 0.034522
0.009209 0.150246 0.035820
0.009048 0.147579 0.035691
0.008887 0.144886 0.035558
0.008725 0.142168 0.035422
0.008562 0.139422 0.035281
0.008397 0.136647 0.035137
0.012889 0.133132 0.034942
0.052026 0.128566 0.035066
0.106649 0.122666 0.035508
0.163206 0.114387 0.035933
0.225903 0.102640 0.036349
0.296895 0.085430 0.036723
0.376795 0.060583 0.037019
0.474114 0.029818 0.037483
0.579870 0.025969 0.038044
0.687959 0.026442 0.037524
0.791532 0.026082 0.036271
0.886199 0.025454 0.034976
0.923889 0.025208 0.034522
0.923889 0.025208 0.034522
0.923889 0.025208 0.034522
0.923889 0.025208 0.034522
0.923889 0.025208 0.034522
0.923889 0.025208 0.034522
0.923889 0.025208 0.034522
0.923889 0.025208 0.034522
0.923889 0.025208 0.034522
0.923889 0.025208 0.034522
0.923889 0.025208 0.034522
0.923889 0.025208 0.034522
0.923889 0.025208 0.034522
0.923889 0.025208 0.034522
0.923889 0.025208 0.034522
0.011706 0.190683 0.037502
0.011562 0.188330 0.037421
0.011413 0.185962 0.037336
0.011263 0.183579 0.037247
0.011112 0.181180 0.037156
0.010961 0.178764 0.037063
0.010771 0.175716 0.036943
0.023639 0.171383 0.036683
0.082776 0.166415 0.037029
0.145105 0.159579 0.037391
0.211459 0.150046 0.037700
0.285577 0.136565 0.037922
0.368696 0.116953 0.038028
0.468102 0.086970 0.038037
0.572834 0.043453 0.038015
0.680988 0.026442 0.037588
0.786625 0.026111 0.036339
0.883200 0.025474 0.035014
0.923889 0.025208 0.034522
0.923889 0.025208 0.034522
0.923889 0.025208 0.034522
0.923889 0.025208 0.034522
0.923889 0.025208 0.034522
0.923889 0.025208 0.034522
0.923889 0.025208 0.034522
0.923889 0.025208 0.034522
0.923889 0.025208 0.034522
0.923889 0.025208 0.034522
0.923889 0.025208 0.034522
0.923889 0.025208 0.034522
0.923889 0.025208 0.034522
0.923889 0.025208 0.034522
0.923889 0.025208 0.034522
0.013752 0.238546 0.038113
0.013703 0.236426 0.038134
0.013649 0.234298 0.038150
0.013591 0.232160 0.038161
0.013527 0.230014 0.038167
0.013460 0.227859 0.038168
0.013370 0.225149 0.038163
0.013231 0.221323 0.038143
0.044796 0.216477 0.038018
0.118174 0.210741 0.038036
0.190927 0.202678 0.037906
0.270010 0.191337 0.037595
0.358199 0.175211 0.037107
0.462104 0.151932 0.036384
0.573647 0.116877 0.035935
0.678315 0.060143 0.036647
0.779984 0.026148 0.036429
0.878993 0.025504 0.035069
0.923889 0.025208 0.034522
0.923889 0.025208 0.034522
0.923889 0.025208 0.034522
0.923889 0.025208 0.034522
0.923889 0.025208 0.034522
0.923889 0.025208 0.034522
0.923889 0.025208 0.034522
0.923889 0.025208 0.034522
0.923889 0.025208 0.034522
0.923889 0.025208 0.034522
0.923889 0.025208 0.034522
0.923889 0.025208 0.034522
0.923889 0.025208 0.034522
0.923889 0.025208 0.034522
0.923889 0.025208 0.034522
0.013408 0.295985 0.035614
0.013473 0.294061 0.035760
0.013535 0.292132 0.035901
0.013593 0.290197 0.036039
0.013647 0.288256 0.036173
0.013698 0.286309 0.036303
0.013757 0.283864 0.036460
0.013829 0.280419 0.036670
0.013906 0.275825 0.036928
0.072372 0.270417 0.036533
0.158956 0.263493 0.035562
0.246130 0.253608 0.034321
0.341729 0.239573 0.032746
0.451586 0.219613 0.030769
0.573539 0.190949 0.028969
0.689223 0.149153 0.029324
0.785565 0.081832 0.033111
0.872972 0.025545 0.035147
0.923889 0.025208 0.034522
0.923889 0.025208 0.034522
0.923889 0.025208 0.034522
0.923889 0.025208 0.034522
0.923889 0.025208 0.034522
0.923889 0.025208 0.034522
0.923889 0.025208 0.034522
0.923889 0.025208 0.034522
0.923889 0.025208 0.034522
0.923889 0.025208 0.034522
0.923889 0.025208 0.034522
0.923889 0.025208 0.034522
0.923889 0.025208 0.034522
0.923889 0.025208 0.034522
0.923889 0.025208 0.034522
0.011877 0.364969 0.027190
0.011887 0.363236 0.027476
0.011897 0.361498 0.027759
0.011906 0.359755 0.028040
0.011914 0.358007 0.028318
0.011922 0.356254 0.028595
0.011931 0.354054 0.028935
0.011942 0.350955 0.029407
0.011954 0.346825 0.030017
0.011963 0.341311 0.030799
0.104194 0.335093 0.028934
0.207383 0.326393 0.026065
0.314259 0.313908 0.022831
0.431646 0.296195 0.019440
0.566494 0.271149 0.015930
0.695728 0.236035 0.014986
0.807199 0.186106 0.018281
0.890683 0.108913 0.027266
0.923889 0.025208 0.034522
0.923889 0.025208 0.034522
0.923889 0.025208 0.034522
0.923889 0.025208 0.034522
0.923889 0.025208 0.034522
0.923889 0.025208 0.034522
0.923889 0.025208 0.034522
0.923889 0.025208 0.034522
0.923889 0.025208 0.034522
0.923889 0.025208 0.034522
0.923889 0.025208 0.034522
0.923889 0.025208 0.034522
0.923889 0.025208 0.034522
0.923889 0.025208 0.034522
0.923889 0.025208 0.034522
0.011402 0.448627 0.011234
0.011395 0.446964 0.011557
0.011391 0.445297 0.011883
0.011387 0.443623 0.012213
0.011384 0.441943 0.012546
0.011383 0.440259 0.012882
0.011384 0.438142 0.013306
0.011388 0.435160 0.013909
0.011399 0.431179 0.014720
0.011422 0.425860 0.015811
0.011463 0.418871 0.017239
0.141320 0.411172 0.013340
0.266783 0.400102 0.009259
0.396188 0.384511 0.005806
0.541415 0.362873 0.003148
0.683756 0.333084 0.002207
0.810645 0.291302 0.002701
0.916506 0.231120 0.006683
0.962679 0.140035 0.020633
0.923889 0.025208 0.034522
0.923889 0.025208 0.034522
0.923889 0.025208 0.034522
0.923889 0.025208 0.034522
0.923889 0.025208 0.034522
0.923889 0.025208 0.034522
0.923889 0.025208 0.034522
0.923889 0.025208 0.034522
0.923889 0.025208 0.034522
0.923889 0.025208 0.034522
0.923889 0.025208 0.034522
0.923889 0.025208 0.034522
0.923889 0.025208 0.034522
0.923889 0.025208 0.034522
0.014941 0.546651 0.000472
0.014907 0.545324 0.000523
0.014871 0.543993 0.000575
0.014833 0.542658 0.000629
0.014793 0.541320 0.000685
0.014750 0.539978 0.000743
0.014695 0.538294 0.000819
0.014611 0.535921 0.000931
0.014490 0.532759 0.001090
0.014312 0.528537 0.001316
0.014045 0.522887 0.001647
0.017860 0.515288 0.002091
0.187463 0.504542 0.000672
0.336010 0.490160 0.000000
0.489859 0.470572 0.000000
0.647524 0.443577 0.000000
0.787846 0.407275 0.000000
0.907072 0.358958 0.000000
0.991086 0.287553 0.000954
0.975183 0.177271 0.013869
0.923889 0.025208 0.034522
0.923889 0.025208 0.034522
0.923889 0.025208 0.034522
0.923889 0.025208 0.034522
0.923889 0.025208 0.034522
0.923889 0.025208 0.034522
0.923889 0.025208 0.034522
0.923889 0.025208 0.034522
0.923889 0.025208 0.034522
0.923889 0.025208 0.034522
0.923889 0.025208 0.034522
0.923889 0.025208 0.034522
0.923889 0.025208 0.034522
0.014725 0.649633 0.000000
0.014733 0.648603 0.000000
0.014742 0.647571 0.000000
0.014752 0.646537 0.000000
0.014760 0.645498 0.000000
0.014769 0.644458 0.000000
0.014781 0.643151 0.000000
0.014797 0.641310 0.000000
0.014818 0.638857 0.000000
0.014846 0.635582 0.000000
0.014884 0.631196 0.000000
0.014936 0.625305 0.000000
0.031320 0.617330 0.000000
0.235983 0.606115 0.000000
0.409503 0.590913 0.000000
0.589939 0.570002 0.000000
0.750346 0.540942 0.000000
0.883036 0.499667 0.000000
0.982397 0.439304 0.000000
0.992502 0.354981 0.000000
0.986341 0.222128 0.006384
0.923889 0.025208 0.034522
0.923889 0.025208 0.034522
0.923889 0.025208 0.034522
0.923889 0.025208 0.034522
0.923889 0.025208 0.034522
0.923889 0.025208 0.034522
0.923889 0.025208 0.034522
0.923889 0.025208 0.034522
0.923889 0.025208 0.034522
0.923889 0.025208 0.034522
0.923889 0.025208 0.034522
0.923889 0.025208 0.034522
0.013886 0.752249 0.000000
0.013892 0.751497 0.000000
0.013898 0.750743 0.000000
0.013903 0.749986 0.000000
0.013910 0.749228 0.000000
0.013915 0.748468 0.000000
0.013923 0.747514 0.000000
0.013933 0.746171 0.000000
0.013947 0.744382 0.000000
0.013965 0.741996 0.000000
0.013990 0.738804 0.000000
0.014024 0.734522 0.000000
0.014069 0.728755 0.000000
0.047031 0.720891 0.000000
0.292443 0.709697 0.000000
0.499892 0.694038 0.000958
0.690396 0.672820 0.007820
0.842077 0.643819 0.010308
0.961723 0.601364 0.005519
0.990563 0.536606 0.000000
0.991800 0.434393 0.000000
0.991533 0.277120 0.001464
0.923889 0.025208 0.034522
0.923889 0.025208 0.034522
0.923889 0.025208 0.034522
0.923889 0.025208 0.034522
0.923889 0.025208 0.034522
0.923889 0.025208 0.034522
0.923889 0.025208 0.034522
0.923889 0.025208 0.034522
0.923889 0.025208 0.034522
0.923889 0.025208 0.034522
0.923889 0.025208 0.034522
0.014900 0.848487 0.000877
0.014869 0.847976 0.000829
0.014839 0.847463 0.000780
0.014809 0.846949 0.000733
0.014780 0.846434 0.000685
0.014750 0.845918 0.000637
0.014714 0.845270 0.000579
0.014663 0.844359 0.000496
0.014597 0.843146 0.000388
0.014511 0.841528 0.000247
0.014401 0.839366 0.000065
0.014262 0.836469 0.000000
0.014090 0.832572 0.000000
0.013886 0.827303 0.000000
0.069956 0.819739 0.000000
0.362992 0.806360 0.012405
0.600518 0.790587 0.032016
0.783847 0.771833 0.045475
0.920986 0.745254 0.047352
0.972620 0.704549 0.036170
0.979971 0.640026 0.015707
0.990743 0.531256 0.000000
0.992598 0.342744 0.000000
0.923889 0.025208 0.034522
0.923889 0.025208 0.034522
0.923889 0.025208 0.034522
0.923889 0.025208 0.034522
0.923889 0.025208 0.034522
0.923889 0.025208 0.034522
0.923889 0.025208 0.034522
0.923889 0.025208 0.034522
0.923889 0.025208 0.034522
0.923889 0.025208 0.034522
0.022456 0.934355 0.011751
0.022423 0.934030 0.011706
0.022390 0.933704 0.011661
0.022356 0.933377 0.011615
0.022323 0.933047 0.011569
0.022289 0.932716 0.011524
0.022247 0.932299 0.011465
0.022186 0.931709 0.011383
0.022106 0.930918 0.011273
0.021998 0.929855 0.011126
0.021852 0.928417 0.010926
0.021654 0.926463 0.010653
0.021387 0.923837 0.010288
0.021031 0.920312 0.009797
0.020554 0.915559 0.009136
0.107634 0.907793 0.012525
0.448837 0.893445 0.041145
0.702453 0.880768 0.066950
0.874031 0.864933 0.076487
0.967795 0.840361 0.075815
0.967603 0.802307 0.067010
0.969709 0.741661 0.048675
0.980671 0.634527 0.014181
0.991945 0.418838 0.000000
0.923889 0.025208 0.034522
0.923889 0.025208 0.034522
0.923889 0.025208 0.034522
0.923889 0.025208 0.034522
0.923889 0.025208 0.034522
0.923889 0.025208 0.034522
0.923889 0.025208 0.034522
0.923889 0.025208 0.034522
0.923889 0.025208 0.034522
0.026406 0.974029 0.017042
0.026406 0.974029 0.017042
0.026406 0.974029 0.017042
0.026406 0.974029 0.017042
0.026406 0.974029 0.017042
0.026406 0.974029 0.017042
0.026406 0.974029 0.017042
0.026406 0.974029 0.017042
0.026406 0.974029 0.017042
0.026406 0.974029 0.017042
0.026406 0.974029 0.017042
0.026406 0.974029 0.017042
0.026406 0.974029 0.017042
0.026406 0.974029 0.017042
0.026406 0.974029 0.017042
0.026406 0.974029 0.017042
0.148949 0.971657 0.024886
0.547027 0.962179 0.065151
0.799551 0.957683 0.083988
0.954407 0.948361 0.086855
0.970596 0.928542 0.086254
0.969320 0.893140 0.083641
0.967737 0.836811 0.075103
0.970046 0.736426 0.046935
0.991045 0.514180 0.000000
0.923889 0.025208 0.034522
0.923889 0.025208 0.034522
0.923889 0.025208 0.034522
0.923889 0.025208 0.034522
0.923889 0.025208 0.034522
0.923889 0.025208 0.034522
0.923889 0.025208 0.034522
0.923889 0.025208 0.034522
0.026406 0.974029 0.017042
0.026406 0.974029 0.017042
0.026406 0.974029 0.017042
0.026406 0.974029 0.017042
0.026406 0.974029 0.017042
0.026406 0.974029 0.017042
0.026406 0.974029 0.017042
0.026406 0.974029 0.017042
0.026406 0.974029 0.017042
0.026406 0.974029 0.017042
0.026406 0.974029 0.017042
0.026406 0.974029 0.017042
0.026406 0.974029 0.017042
0.026406 0.974029 0.017042
0.026406 0.974029 0.017042
0.026406 0.974029 0.017042
0.026406 0.974029 0.017042
0.189070 0.971152 0.028186
0.644195 0.967629 0.075298
0.888462 0.971090 0.086810
0.972028 0.972028 0.087748
0.972028 0.972028 0.087748
0.971833 0.965510 0.087553
0.970481 0.925338 0.086093
0.967670 0.831951 0.074090
0.982925 0.616798 0.009615
0.923889 0.025208 0.034522
0.923889 0.025208 0.034522
0.923889 0.025208 0.034522
0.923889 0.025208 0.034522
0.923889 0.025208 0.034522
0.923889 0.025208 0.034522
0.923889 0.025208 0.034522
0.026406 0.974029 0.017042
0.026406 0.974029 0.017042
0.026406 0.974029 0.017042
0.026406 0.974029 0.017042
0.026406 0.974029 0.017042
0.026406 0.974029 0.017042
0.026406 0.974029 0.017042
0.026406 0.974029 0.017042
0.026406 0.974029 0.017042
0.026406 0.974029 0.017042
0.026406 0.974029 0.017042
0.026406 0.974029 0.017042
0.026406 0.974029 0.017042
0.026406 0.974029 0.017042
0.026406 0.974029 0.017042
0.026406 0.974029 0.017042
0.026406 0.974029 0.017042
0.026406 0.974029 0.017042
0.235971 0.970279 0.032380
0.740604 0.968845 0.082094
0.961867 0.971935 0.087655
0.972028 0.972028 0.087748
0.972028 0.972028 0.087748
0.972028 0.972028 0.087748
0.972028 0.972028 0.087748
0.970318 0.920804 0.085841
0.971309 0.719447 0.041218
0.923889 0.025208 0.034522
0.923889 0.025208 0.034522
0.923889 0.025208 0.034522
0.923889 0.025208 0.034522
0.923889 0.025208 0.034522
0.923889 0.025208 0.034522
0.026406 0.974029 0.017042
0.026406 0.974029 0.017042
0.026406 0.974029 0.017042
0.026406 0.974029 0.017042
0.026406 0.974029 0.017042
0.026406 0.974029 0.017042
0.026406 0.974029 0.017042
0.026406 0.974029 0.017042
0.026406 0.974029 0.017042
0.026406 0.974029 0.017042
0.026406 0.974029 0.017042
0.026406 0.974029 0.017042
0.026406 0.974029 0.017042
0.026406 0.974029 0.017042
0.026406 0.974029 0.017042
0.026406 0.974029 0.017042
0.026406 0.974029 0.017042
0.026406 0.974029 0.017042
0.026406 0.974029 0.017042
0.291014 0.969315 0.037741
0.832745 0.970274 0.085768
0.972028 0.972028 0.087748
0.972028 0.972028 0.087748
0.972028 0.972028 0.087748
0.972028 0.972028 0.087748
0.972028 0.972028 0.087748
0.972028 0.972028 0.087748
0.967557 0.816176 0.070509
0.923889 0.025208 0.034522
0.923889 0.025208 0.034522
0.923889 0.025208 0.034522
0.923889 0.025208 0.034522
0.923889 0.025208 0.034522
0.026406 0.974029 0.017042
0.026406 0.974029 0.017042
0.026406 0.974029 0.017042
0.026406 0.974029 0.017042
0.026406 0.974029 0.017042
0.026406 0.974029 0.017042
0.026406 0.974029 0.017042
0.026406 0.974029 0.017042
0.026406 0.974029 0.017042
0.026406 0.974029 0.017042
0.026406 0.974029 0.017042
0.026406 0.974029 0.017042
0.026406 0.974029 0.017042
0.026406 0.974029 0.017042
0.026406 0.974029 0.017042
0.026406 0.974029 0.017042
0.026406 0.974029 0.017042
0.026406 0.974029 0.017042
0.026406 0.974029 0.017042
0.026406 0.974029 0.017042
0.355206 0.968346 0.044449
0.919276 0.971482 0.087202
0.972028 0.972028 0.087748
0.972028 0.972028 0.087748
0.972028 0.972028 0.087748
0.972028 0.972028 0.087748
0.972028 0.972028 0.087748
0.972028 0.972028 0.087748
0.969784 0.906064 0.084816
0.923889 0.025208 0.034522
0.923889 0.025208 0.034522
0.923889 0.025208 0.034522
0.923889 0.025208 0.034522
0.026406 0.974029 0.017042
0.026406 0.974029 0.017042
0.026406 0.974029 0.017042
0.026406 0.974029 0.017042
0.026406 0.974029 0.017042
0.026406 0.974029 0.017042
0.026406 0.974029 0.017042
0.026406 0.974029 0.017042
0.026406 0.974029 0.017042
0.026406 0.974029 0.017042
0.026406 0.974029 0.017042
0.026406 0.974029 0.017042
0.026406 0.974029 0.017042
0.026406 0.974029 0.017042
0.026406 0.974029 0.017042
0.026406 0.974029 0.017042
0.026406 0.974029 0.017042
0.026406 0.974029 0.017042
0.026406 0.974029 0.017042
0.026406 0.974029 0.017042
0.026406 0.974029 0.017042
0.428736 0.967530 0.052463
0.972028 0.972028 0.087748
0.972028 0.972028 0.087748
0.972028 0.972028 0.087748
0.972028 0.972028 0.087748
0.972028 0.972028 0.087748
0.972028 0.972028 0.087748
0.972028 0.972028 0.087748
0.972028 0.972028 0.087748
0.923889 0.025208 0.034522
0.923889 0.025208 0.034522
0.923889 0.025208 0.034522
0.026406 0.974029 0.017042
0.026406 0.974029 0.017042
0.026406 0.974029 0.017042
0.026406 0.974029 0.017042
0.026406 0.974029 0.017042
0.026406 0.974029 0.017042
0.026406 0.974029 0.017042
0.026406 0.974029 0.017042
0.026406 0.974029 0.017042
0.026406 0.974029 0.017042
0.026406 0.974029 0.017042
0.026406 0.974029 0.017042
0.026406 0.974029 0.017042
0.026406 0.974029 0.017042
0.026406 0.974029 0.017042
0.026406 0.974029 0.017042
0.026406 0.974029 0.017042
0.026406 0.974029 0.017042
0.026406 0.974029 0.017042
0.026406 0.974029 0.017042
0.026406 0.974029 0.017042
0.026406 0.974029 0.017042
0.518034 0.967068 0.062643
0.972028 0.972028 0.087748
0.972028 0.972028 0.087748
0.972028 0.972028 0.087748
0.972028 0.972028 0.087748
0.972028 0.972028 0.087748
0.972028 0.972028 0.087748
0.972028 0.972028 0.087748
0.972028 0.972028 0.087748
0.923889 0.025208 0.034522
0.923889 0.025208 0.034522
0.026406 0.974029 0.017042
0.026406 0.974029 0.017042
0.026406 0.974029 0.017042
0.026406 0.974029 0.017042
0.026406 0.974029 0.017042
0.026406 0.974029 0.017042
0.026406 0.974029 0.017042
0.026406 0.974029 0.017042
0.026406 0.974029 0.017042
0.026406 0.974029 0.017042
0.026406 0.974029 0.017042
0.026406 0.974029 0.017042
0.026406 0.974029 0.017042
0.026406 0.974029 0.017042
0.026406 0.974029 0.017042
0.026406 0.974029 0.017042
0.026406 0.974029 0.017042
0.026406 0.974029 0.017042
0.026406 0.974029 0.017042
0.026406 0.974029 0.017042
0.026406 0.974029 0.017042
0.026406 0.974029 0.017042
0.026406 0.974029 0.017042
0.614193 0.967372 0.072606
0.972028 0.972028 0.087748
0.972028 0.972028 0.087748
0.972028 0.972028 0.087748
0.972028 0.972028 0.087748
