pipelines/.agents/skills/broll-ingest/luts/buildloop-FINAL-slog3-soft.cube
# buildloop-FINAL-slog3-soft — full conversion + 55% creative
LUT_3D_SIZE 9
0.002131 0.015067 0.028927
0.049870 0.015583 0.029443
0.175600 0.017880 0.031740
0.420208 0.023198 0.036601
0.807364 0.025986 0.036050
0.923889 0.025208 0.034522
0.923889 0.025208 0.034522
0.923889 0.025208 0.034522
0.923889 0.025208 0.034522
0.003329 0.041771 0.030125
0.011947 0.027922 0.029489
0.148846 0.017347 0.031207
0.402926 0.022812 0.036320
0.801344 0.026023 0.036134
0.923889 0.025208 0.034522
0.923889 0.025208 0.034522
0.923889 0.025208 0.034522
0.923889 0.025208 0.034522
0.009209 0.150246 0.035820
0.008562 0.139422 0.035281
0.106649 0.122666 0.035508
0.376795 0.060583 0.037019
0.791532 0.026082 0.036271
0.923889 0.025208 0.034522
0.923889 0.025208 0.034522
0.923889 0.025208 0.034522
0.923889 0.025208 0.034522
0.011877 0.364969 0.027190
0.011914 0.358007 0.028318
0.011954 0.346825 0.030017
0.314259 0.313908 0.022831
0.807199 0.186106 0.018281
0.923889 0.025208 0.034522
0.923889 0.025208 0.034522
0.923889 0.025208 0.034522
0.923889 0.025208 0.034522
0.013886 0.752249 0.000000
0.013910 0.749228 0.000000
0.013947 0.744382 0.000000
0.014069 0.728755 0.000000
0.690396 0.672820 0.007820
0.991800 0.434393 0.000000
0.923889 0.025208 0.034522
0.923889 0.025208 0.034522
0.923889 0.025208 0.034522
0.026406 0.974029 0.017042
0.026406 0.974029 0.017042
0.026406 0.974029 0.017042
0.026406 0.974029 0.017042
0.026406 0.974029 0.017042
0.972028 0.972028 0.087748
0.967670 0.831951 0.074090
0.923889 0.025208 0.034522
0.923889 0.025208 0.034522
0.026406 0.974029 0.017042
0.026406 0.974029 0.017042
0.026406 0.974029 0.017042
0.026406 0.974029 0.017042
0.026406 0.974029 0.017042
0.026406 0.974029 0.017042
0.972028 0.972028 0.087748
0.972028 0.972028 0.087748
0.923889 0.025208 0.034522
0.026406 0.974029 0.017042
0.026406 0.974029 0.017042
0.026406 0.974029 0.017042
0.026406 0.974029 0.017042
0.026406 0.974029 0.017042
0.026406 0.974029 0.017042
0.026406 0.974029 0.017042
0.972028 0.972028 0.087748
0.972028 0.972028 0.087748
0.026406 0.974029 0.017042
0.026406 0.974029 0.017042
0.026406 0.974029 0.017042
0.026406 0.974029 0.017042
0.026406 0.974029 0.017042
0.026406 0.974029 0.017042
0.026406 0.974029 0.017042
0.026406 0.974029 0.017042
0.972028 0.972028 0.087748
0.002209 0.015145 0.045736
0.050915 0.015675 0.046124
0.176262 0.017968 0.048194
0.420691 0.023274 0.052325
0.807831 0.025956 0.049734
0.924079 0.025184 0.041622
0.923889 0.025208 0.034522
0.923889 0.025208 0.034522
0.923889 0.025208 0.034522
0.003527 0.044580 0.045298
0.012709 0.030652 0.044512
0.149546 0.017427 0.045899
0.403408 0.022881 0.050291
0.801769 0.025999 0.048051
0.924032 0.025190 0.039875
0.923889 0.025208 0.034522
0.923889 0.025208 0.034522
0.923889 0.025208 0.034522
0.009388 0.152356 0.048172
0.008744 0.141614 0.047507
0.107624 0.125023 0.047516
0.377436 0.063434 0.048294
0.791890 0.026065 0.045404
0.923958 0.025199 0.037121
0.923889 0.025208 0.034522
0.923889 0.025208 0.034522
0.923889 0.025208 0.034522
0.011867 0.366328 0.030754
0.011906 0.359381 0.031742
0.011950 0.348222 0.033222
0.314956 0.315351 0.025274
0.807944 0.187894 0.018526
0.923889 0.025208 0.034522
0.923889 0.025208 0.034522
0.923889 0.025208 0.034522
0.923889 0.025208 0.034522
0.013881 0.752833 0.000000
0.013905 0.749818 0.000000
0.013942 0.744982 0.000000
0.014064 0.729386 0.000000
0.690603 0.673550 0.007996
0.991787 0.435682 0.000000
0.923889 0.025208 0.034522
0.923889 0.025208 0.034522
0.923889 0.025208 0.034522
0.026406 0.974029 0.017042
0.026406 0.974029 0.017042
0.026406 0.974029 0.017042
0.026406 0.974029 0.017042
0.026406 0.974029 0.017042
0.972028 0.972028 0.087748
0.967675 0.832368 0.074178
0.923889 0.025208 0.034522
0.923889 0.025208 0.034522
0.026406 0.974029 0.017042
0.026406 0.974029 0.017042
0.026406 0.974029 0.017042
0.026406 0.974029 0.017042
0.026406 0.974029 0.017042
0.026406 0.974029 0.017042
0.972028 0.972028 0.087748
0.972028 0.972028 0.087748
0.923889 0.025208 0.034522
0.026406 0.974029 0.017042
0.026406 0.974029 0.017042
0.026406 0.974029 0.017042
0.026406 0.974029 0.017042
0.026406 0.974029 0.017042
0.026406 0.974029 0.017042
0.026406 0.974029 0.017042
0.972028 0.972028 0.087748
0.972028 0.972028 0.087748
0.026406 0.974029 0.017042
0.026406 0.974029 0.017042
0.026406 0.974029 0.017042
0.026406 0.974029 0.017042
0.026406 0.974029 0.017042
0.026406 0.974029 0.017042
0.026406 0.974029 0.017042
0.026406 0.974029 0.017042
0.972028 0.972028 0.087748
0.002733 0.015669 0.139994
0.052974 0.016223 0.140433
0.177711 0.018511 0.142538
0.422004 0.023769 0.146589
0.810851 0.025678 0.145565
0.927207 0.024766 0.138901
0.926545 0.024858 0.120442
0.924437 0.025139 0.054446
0.923889 0.025208 0.034522
0.004259 0.049474 0.140082
0.014334 0.035420 0.139305
0.151066 0.017970 0.140558
0.404724 0.023381 0.144884
0.804765 0.025731 0.144132
0.927151 0.024774 0.137371
0.926486 0.024867 0.118773
0.924385 0.025145 0.052651
0.923889 0.025208 0.034522
0.010101 0.156071 0.143223
0.009462 0.145460 0.142634
0.109711 0.129118 0.142658
0.379138 0.068362 0.143402
0.794847 0.025816 0.141847
0.927062 0.024786 0.134928
0.926394 0.024879 0.116102
0.924306 0.025155 0.049823
0.923889 0.025208 0.034522
0.011801 0.368858 0.129723
0.011850 0.361948 0.130528
0.011914 0.350850 0.131726
0.316901 0.317687 0.125013
0.811433 0.190276 0.119146
0.926782 0.024825 0.127134
0.926099 0.024919 0.107512
0.924065 0.025186 0.041110
0.923889 0.025208 0.034522
0.013826 0.753707 0.079254
0.013849 0.750701 0.079127
0.013886 0.745880 0.078928
0.014009 0.730334 0.078309
0.690659 0.674646 0.086278
0.991727 0.437675 0.069098
0.925157 0.025045 0.078548
0.923889 0.025208 0.034522
0.923889 0.025208 0.034522
0.026406 0.974029 0.017042
0.026406 0.974029 0.017042
0.026406 0.974029 0.017042
0.026406 0.974029 0.017042
0.026406 0.974029 0.017042
0.972028 0.972028 0.087748
0.967683 0.833026 0.074318
0.923889 0.025208 0.034522
0.923889 0.025208 0.034522
0.026406 0.974029 0.017042
0.026406 0.974029 0.017042
0.026406 0.974029 0.017042
0.026406 0.974029 0.017042
0.026406 0.974029 0.017042
0.026406 0.974029 0.017042
0.972028 0.972028 0.087748
0.972028 0.972028 0.087748
0.923889 0.025208 0.034522
0.026406 0.974029 0.017042
0.026406 0.974029 0.017042
0.026406 0.974029 0.017042
0.026406 0.974029 0.017042
0.026406 0.974029 0.017042
0.026406 0.974029 0.017042
0.026406 0.974029 0.017042
0.972028 0.972028 0.087748
0.972028 0.972028 0.087748
0.026406 0.974029 0.017042
0.026406 0.974029 0.017042
0.026406 0.974029 0.017042
0.026406 0.974029 0.017042
0.026406 0.974029 0.017042
0.026406 0.974029 0.017042
0.026406 0.974029 0.017042
0.026406 0.974029 0.017042
0.972028 0.972028 0.087748
0.004047 0.016983 0.324838
0.059233 0.017618 0.325403
0.181895 0.019884 0.327558
0.425924 0.024940 0.331309
0.818816 0.024704 0.336049
0.935436 0.023443 0.332855
0.934934 0.023532 0.321972
0.933339 0.023809 0.286901
0.927899 0.024667 0.157408
0.006257 0.064680 0.326174
0.019220 0.050224 0.325399
0.155964 0.030559 0.326637
0.408562 0.024606 0.330146
0.812700 0.024782 0.335102
0.935393 0.023450 0.331927
0.934891 0.023539 0.321024
0.933293 0.023817 0.285886
0.927845 0.024675 0.155987
0.011974 0.167102 0.329436
0.011376 0.156858 0.328978
0.116028 0.141229 0.329053
0.385078 0.083384 0.330428
0.802731 0.024908 0.333595
0.935325 0.023462 0.330454
0.934822 0.023552 0.319520
0.933221 0.023829 0.284275
0.927759 0.024687 0.153723
0.011586 0.376214 0.328818
0.011644 0.369423 0.329184
0.011736 0.358509 0.329682
0.322284 0.324660 0.326154
0.819943 0.197852 0.322652
0.935112 0.023500 0.325834
0.934606 0.023590 0.314803
0.932994 0.023868 0.279218
0.927489 0.024726 0.146534
0.013562 0.756393 0.299115
0.013604 0.753416 0.299042
0.013665 0.748641 0.298930
0.013813 0.733248 0.298625
0.690762 0.678124 0.308301
0.991495 0.443798 0.293845
0.933930 0.023708 0.299980
0.932286 0.023986 0.263286
0.926631 0.024847 0.122887
0.031205 0.972313 0.266668
0.031203 0.972314 0.266579
0.031199 0.972315 0.266438
0.031189 0.972318 0.265998
0.031156 0.972328 0.264640
0.973407 0.973407 0.312242
0.968253 0.836111 0.291490
0.930011 0.024350 0.210310
0.923966 0.025198 0.037417
0.026960 0.973813 0.055708
0.026957 0.973815 0.055549
0.026953 0.973816 0.055299
0.026942 0.973821 0.054518
0.026905 0.973835 0.052118
0.026795 0.973877 0.044794
0.972052 0.972052 0.093236
0.972028 0.972028 0.087748
0.923889 0.025208 0.034522
0.026406 0.974029 0.017042
0.026406 0.974029 0.017042
0.026406 0.974029 0.017042
0.026406 0.974029 0.017042
0.026406 0.974029 0.017042
0.026406 0.974029 0.017042
0.026406 0.974029 0.017042
0.972028 0.972028 0.087748
0.972028 0.972028 0.087748
0.026406 0.974029 0.017042
0.026406 0.974029 0.017042
0.026406 0.974029 0.017042
0.026406 0.974029 0.017042
0.026406 0.974029 0.017042
0.026406 0.974029 0.017042
0.026406 0.974029 0.017042
0.026406 0.974029 0.017042
0.972028 0.972028 0.087748
0.007366 0.034508 0.660814
0.075795 0.021856 0.661032
0.193636 0.022645 0.662759
0.437911 0.026340 0.669746
0.836429 0.021628 0.691302
0.952302 0.019807 0.692571
0.952075 0.019864 0.687122
0.951340 0.020046 0.669749
0.948704 0.020683 0.610192
0.011114 0.109138 0.663384
0.038627 0.096166 0.662949
0.171038 0.075222 0.663599
0.420274 0.026235 0.668330
0.830288 0.021744 0.690630
0.952283 0.019812 0.692105
0.952055 0.019869 0.686649
0.951318 0.020052 0.669252
0.948677 0.020689 0.609608
0.014010 0.197836 0.672243
0.013981 0.188452 0.670598
0.133044 0.174204 0.672739
0.404012 0.122678 0.680023
0.820270 0.021936 0.689544
0.952252 0.019820 0.691367
0.952024 0.019877 0.685898
0.951285 0.020060 0.668462
0.948634 0.020699 0.608681
0.011480 0.396318 0.698823
0.011425 0.389851 0.698676
0.011386 0.379447 0.698284
0.335176 0.345003 0.698078
0.831862 0.222917 0.695913
0.952156 0.019844 0.689053
0.951925 0.019902 0.683546
0.951179 0.020087 0.665988
0.948502 0.020731 0.605776
0.014735 0.764024 0.684922
0.014552 0.761209 0.684889
0.014286 0.756686 0.684841
0.013660 0.742034 0.684699
0.692273 0.689421 0.683608
0.990900 0.462408 0.682331
0.951614 0.019979 0.676192
0.950844 0.020169 0.658249
0.948083 0.020829 0.596684
0.042713 0.969328 0.666115
0.042712 0.969328 0.666075
0.042710 0.969329 0.666012
0.042704 0.969330 0.665813
0.042686 0.969334 0.665201
0.973396 0.975566 0.679393
0.967716 0.845143 0.669500
0.949746 0.020435 0.633290
0.946712 0.021145 0.567318
0.040237 0.969854 0.584950
0.040236 0.969854 0.584899
0.040233 0.969855 0.584819
0.040225 0.969857 0.584570
0.040202 0.969862 0.583802
0.040128 0.969878 0.581422
0.975702 0.975702 0.601056
0.975522 0.975522 0.578862
0.941617 0.022250 0.462557
0.029402 0.972919 0.187681
0.029400 0.972920 0.187574
0.029396 0.972921 0.187405
0.029385 0.972925 0.186875
0.029350 0.972937 0.185239
0.029242 0.972975 0.180145
0.028906 0.973094 0.163953
0.972466 0.972466 0.171901
0.972028 0.972028 0.087748
0.026406 0.974029 0.017042
0.026406 0.974029 0.017042
0.026406 0.974029 0.017042
0.026406 0.974029 0.017042
0.026406 0.974029 0.017042
0.026406 0.974029 0.017042
0.026406 0.974029 0.017042
0.026406 0.974029 0.017042
0.972028 0.972028 0.087748
0.027253 0.154481 0.929023
0.123059 0.144664 0.932160
0.229999 0.127685 0.936202
0.465517 0.062070 0.943239
0.850899 0.019439 0.966697
0.960748 0.017540 0.970678
0.960748 0.017540 0.970678
0.960748 0.017540 0.970678
0.960748 0.017540 0.970678
0.013598 0.205709 0.941181
0.090882 0.196971 0.943319
0.209884 0.182515 0.948875
0.459827 0.130382 0.958464
0.844897 0.019562 0.966413
0.960748 0.017540 0.970678
0.960748 0.017540 0.970678
0.960748 0.017540 0.970678
0.960748 0.017540 0.970678
0.011907 0.276002 0.961497
0.026395 0.268109 0.960046
0.171368 0.255504 0.965894
0.444414 0.211696 0.974530
0.838802 0.033761 0.968290
0.960748 0.017540 0.970678
0.960748 0.017540 0.970678
0.960748 0.017540 0.970678
0.960748 0.017540 0.970678
0.014628 0.454890 0.978249
0.014369 0.448470 0.978584
0.013864 0.438157 0.979207
0.361220 0.405303 0.977172
0.840811 0.298193 0.976764
0.960748 0.017540 0.970678
0.960748 0.017540 0.970678
0.960748 0.017540 0.970678
0.960748 0.017540 0.970678
0.019743 0.787369 0.972046
0.019397 0.784836 0.972173
0.018859 0.780772 0.972376
0.017266 0.767653 0.973023
0.703325 0.721639 0.957486
0.984991 0.517960 0.972622
0.960748 0.017540 0.970678
0.960748 0.017540 0.970678
0.960748 0.017540 0.970678
0.049708 0.968149 0.966596
0.049708 0.968149 0.966596
0.049708 0.968149 0.966596
0.049708 0.968149 0.966596
0.049708 0.968149 0.966596
0.969274 0.977080 0.933172
0.961028 0.866313 0.928847
0.960748 0.017540 0.970678
0.960748 0.017540 0.970678
0.049708 0.968149 0.966596
0.049708 0.968149 0.966596
0.049708 0.968149 0.966596
0.049708 0.968149 0.966596
0.049708 0.968149 0.966596
0.049708 0.968149 0.966596
0.969274 0.977080 0.933172
0.969274 0.977080 0.933172
0.960748 0.017540 0.970678
0.049491 0.968179 0.950824
0.049491 0.968179 0.950815
0.049491 0.968179 0.950801
0.049490 0.968179 0.950756
0.049488 0.968179 0.950618
0.049482 0.968180 0.950188
0.049463 0.968183 0.948841
0.969129 0.976929 0.912456
0.969011 0.976805 0.897338
0.035648 0.970991 0.434857
0.035646 0.970991 0.434787
0.035642 0.970992 0.434675
0.035632 0.970995 0.434326
0.035600 0.971003 0.433249
0.035500 0.971031 0.429916
0.035221 0.971107 0.420157
0.034395 0.971340 0.390121
0.973567 0.973567 0.333888
0.159763 0.380143 0.980808
0.232202 0.373222 0.980186
0.327965 0.362162 0.979123
0.559695 0.326524 0.977557
0.904291 0.200387 0.978757
0.960748 0.017540 0.970678
0.960748 0.017540 0.970678
0.960748 0.017540 0.970678
0.960748 0.017540 0.970678
0.127734 0.413848 0.979290
0.206288 0.407374 0.978527
0.306534 0.397050 0.977773
0.543933 0.363803 0.976937
0.899979 0.247486 0.977243
0.960748 0.017540 0.970678
0.960748 0.017540 0.970678
0.960748 0.017540 0.970678
0.960748 0.017540 0.970678
0.064334 0.468006 0.977441
0.159787 0.461530 0.977122
0.269168 0.451169 0.976866
0.517155 0.417890 0.976521
0.890988 0.313972 0.976536
0.960748 0.017540 0.970678
0.960748 0.017540 0.970678
0.960748 0.017540 0.970678
0.960748 0.017540 0.970678
0.014337 0.607823 0.975969
0.014378 0.603214 0.976010
0.125206 0.595606 0.975872
0.423792 0.570883 0.975371
0.859783 0.486424 0.975020
0.986635 0.125500 0.980969
0.960748 0.017540 0.970678
0.960748 0.017540 0.970678
0.960748 0.017540 0.970678
0.029957 0.849556 0.969180
0.029603 0.847600 0.969257
0.029040 0.844473 0.969383
0.027257 0.834447 0.969802
0.737205 0.800718 0.943812
0.968350 0.656805 0.963734
0.960748 0.017540 0.970678
0.960748 0.017540 0.970678
0.960748 0.017540 0.970678
0.049708 0.968149 0.966596
0.049708 0.968149 0.966596
0.049708 0.968149 0.966596
0.049708 0.968149 0.966596
0.049708 0.968149 0.966596
0.969274 0.977080 0.933172
0.964846 0.914716 0.930003
0.960748 0.017540 0.970678
0.960748 0.017540 0.970678
0.049708 0.968149 0.966596
0.049708 0.968149 0.966596
0.049708 0.968149 0.966596
0.049708 0.968149 0.966596
0.049708 0.968149 0.966596
0.049708 0.968149 0.966596
0.969274 0.977080 0.933172
0.969274 0.977080 0.933172
0.960748 0.017540 0.970678
0.049708 0.968149 0.966596
0.049708 0.968149 0.966596
0.049708 0.968149 0.966596
0.049708 0.968149 0.966596
0.049708 0.968149 0.966596
0.049708 0.968149 0.966596
0.049708 0.968149 0.966596
0.969274 0.977080 0.933172
0.969274 0.977080 0.933172
0.049708 0.968149 0.966596
0.049708 0.968149 0.966596
0.049708 0.968149 0.966596
0.049708 0.968149 0.966596
0.049708 0.968149 0.966596
0.049708 0.968149 0.966596
0.049708 0.968149 0.966596
0.049708 0.968149 0.966596
0.969274 0.977080 0.933172
0.412363 0.771356 0.967444
0.459168 0.768697 0.967045
0.528041 0.764679 0.966608
0.687177 0.752343 0.957667
0.924603 0.709004 0.953269
0.988304 0.487570 0.974219
0.960748 0.017540 0.970678
0.960748 0.017540 0.970678
0.960748 0.017540 0.970678
0.394817 0.785016 0.967236
0.441339 0.782473 0.966887
0.512798 0.778660 0.966499
0.677670 0.767045 0.958744
0.919131 0.726991 0.948579
0.984857 0.519065 0.972558
0.960748 0.017540 0.970678
0.960748 0.017540 0.970678
0.960748 0.017540 0.970678
0.365499 0.805274 0.967008
0.414491 0.802888 0.966695
0.487488 0.799344 0.966407
0.661853 0.788820 0.961240
0.910936 0.753187 0.941552
0.978990 0.565240 0.969844
0.960748 0.017540 0.970678
0.960748 0.017540 0.970678
0.960748 0.017540 0.970678
0.258334 0.859822 0.966784
0.319412 0.857690 0.966494
0.402224 0.854681 0.966362
0.605252 0.847006 0.967567
0.890584 0.820387 0.930406
0.965132 0.682674 0.959328
0.960748 0.017540 0.970678
0.960748 0.017540 0.970678
0.960748 0.017540 0.970678
0.049132 0.963840 0.966630
0.049042 0.963182 0.966635
0.048898 0.962121 0.966645
0.354199 0.957683 0.967017
0.821452 0.950203 0.929517
0.962743 0.888109 0.929138
0.992011 0.324752 0.976303
0.960748 0.017540 0.970678
0.960748 0.017540 0.970678
0.049708 0.968149 0.966596
0.049708 0.968149 0.966596
0.049708 0.968149 0.966596
0.049708 0.968149 0.966596
0.086957 0.967874 0.966491
0.969274 0.977080 0.933172
0.969274 0.977080 0.933172
0.960748 0.017540 0.970678
0.960748 0.017540 0.970678
0.049708 0.968149 0.966596
0.049708 0.968149 0.966596
0.049708 0.968149 0.966596
0.049708 0.968149 0.966596
0.049708 0.968149 0.966596
0.049708 0.968149 0.966596
0.969274 0.977080 0.933172
0.969274 0.977080 0.933172
0.960748 0.017540 0.970678
0.049708 0.968149 0.966596
0.049708 0.968149 0.966596
0.049708 0.968149 0.966596
0.049708 0.968149 0.966596
0.049708 0.968149 0.966596
0.049708 0.968149 0.966596
0.049708 0.968149 0.966596
0.969274 0.977080 0.933172
0.969274 0.977080 0.933172
0.049708 0.968149 0.966596
0.049708 0.968149 0.966596
0.049708 0.968149 0.966596
0.049708 0.968149 0.966596
0.049708 0.968149 0.966596
0.049708 0.968149 0.966596
0.049708 0.968149 0.966596
0.049708 0.968149 0.966596
0.969274 0.977080 0.933172
0.806011 0.972075 0.930193
0.821779 0.972675 0.930149
0.844886 0.973549 0.930632
0.905775 0.975545 0.932009
0.969274 0.977080 0.933172
0.969274 0.977080 0.933172
0.963127 0.892947 0.929257
0.960748 0.017540 0.970678
0.960748 0.017540 0.970678
0.799377 0.971851 0.930612
0.815572 0.972431 0.930034
0.839225 0.973340 0.930510
0.901339 0.975417 0.931912
0.969274 0.977080 0.933172
0.969274 0.977080 0.933172
0.963829 0.901788 0.929521
0.960748 0.017540 0.970678
0.960748 0.017540 0.970678
0.788455 0.971529 0.931824
0.805415 0.972055 0.930221
0.829996 0.972992 0.930316
0.894154 0.975203 0.931749
0.969274 0.977080 0.933172
0.969274 0.977080 0.933172
0.964882 0.915169 0.930022
0.960748 0.017540 0.970678
0.960748 0.017540 0.970678
0.750176 0.970928 0.940281
0.770395 0.971140 0.935110
0.798817 0.971833 0.930659
0.870334 0.974442 0.931202
0.969274 0.977080 0.933172
0.969274 0.977080 0.933172
0.967496 0.950073 0.931764
0.960748 0.017540 0.970678
0.960748 0.017540 0.970678
0.575040 0.970729 0.970729
0.609097 0.971525 0.971525
0.659144 0.971825 0.967147
0.778165 0.971284 0.933517
0.956957 0.976826 0.932979
0.969274 0.977080 0.933172
0.969274 0.977080 0.933172
0.960748 0.017540 0.970678
0.960748 0.017540 0.970678
0.049708 0.968149 0.966596
0.049708 0.968149 0.966596
0.049708 0.968149 0.966596
0.049708 0.968149 0.966596
0.697325 0.971285 0.956883
0.969274 0.977080 0.933172
0.969274 0.977080 0.933172
0.962985 0.699796 0.955473
0.960748 0.017540 0.970678
0.049708 0.968149 0.966596
0.049708 0.968149 0.966596
0.049708 0.968149 0.966596
0.049708 0.968149 0.966596
0.049708 0.968149 0.966596
0.217910 0.967138 0.966396
0.969274 0.977080 0.933172
0.969274 0.977080 0.933172
0.960748 0.017540 0.970678
0.049708 0.968149 0.966596
0.049708 0.968149 0.966596
0.049708 0.968149 0.966596
0.049708 0.968149 0.966596
0.049708 0.968149 0.966596
0.049708 0.968149 0.966596
0.049708 0.968149 0.966596
0.969274 0.977080 0.933172
0.969274 0.977080 0.933172
0.049708 0.968149 0.966596
0.049708 0.968149 0.966596
0.049708 0.968149 0.966596
0.049708 0.968149 0.966596
0.049708 0.968149 0.966596
0.049708 0.968149 0.966596
0.049708 0.968149 0.966596
0.049708 0.968149 0.966596
0.969274 0.977080 0.933172
