pipelines/.agents/skills/broll-ingest/luts/buildloop-FINAL-soft.cube
# buildloop-FINAL-soft — 55% strength v4 for harsh-light scenes
LUT_3D_SIZE 33
0.002131 0.015067 0.028927
0.016585 0.015082 0.028942
0.039256 0.015417 0.029277
0.063012 0.015794 0.029654
0.087916 0.016216 0.030076
0.114017 0.016685 0.030545
0.141339 0.017201 0.031061
0.169875 0.017764 0.031624
0.199585 0.018373 0.032233
0.230384 0.019025 0.032885
0.262150 0.019714 0.033574
0.294721 0.020432 0.034286
0.327941 0.021162 0.034966
0.361582 0.021892 0.035597
0.397469 0.022689 0.036228
0.434886 0.023523 0.036826
0.471900 0.024323 0.037341
0.508463 0.025016 0.037727
0.544448 0.025564 0.037958
0.579630 0.025967 0.038044
0.613810 0.026236 0.038000
0.646819 0.026387 0.037847
0.678532 0.026441 0.037610
0.708869 0.026419 0.037313
0.737793 0.026341 0.036979
0.765306 0.026224 0.036627
0.791445 0.026083 0.036272
0.816274 0.025929 0.035925
0.839873 0.025772 0.035596
0.862334 0.025618 0.035289
0.883757 0.025471 0.035007
0.904242 0.025334 0.034751
0.923889 0.025208 0.034522
0.003126 0.037431 0.029922
0.017580 0.037446 0.029938
0.040252 0.037781 0.030273
0.064007 0.038159 0.030650
0.088912 0.038580 0.031072
0.115013 0.039049 0.031540
0.142335 0.039565 0.032056
0.170871 0.040129 0.032619
0.200580 0.040738 0.033228
0.231380 0.041389 0.033880
0.263167 0.042072 0.034545
0.295806 0.042775 0.035182
0.329099 0.043488 0.035782
0.362810 0.044201 0.036336
0.398772 0.044981 0.036887
0.436277 0.045793 0.037401
0.473629 0.046503 0.037778
0.510650 0.047076 0.037991
0.547090 0.047504 0.038043
0.582714 0.047791 0.037948
0.617309 0.047952 0.037728
0.650702 0.048005 0.037408
0.682763 0.047971 0.037015
0.713410 0.047870 0.036577
0.742606 0.047723 0.036115
0.770356 0.047546 0.035648
0.796700 0.047353 0.035193
0.821704 0.047157 0.034759
0.845452 0.046962 0.034354
0.868048 0.046776 0.033975
0.889592 0.046603 0.033626
0.910186 0.046444 0.033311
0.929929 0.046299 0.033027
0.004253 0.060895 0.031049
0.018707 0.060910 0.031065
0.041379 0.061245 0.031400
0.065135 0.061622 0.031777
0.090039 0.062044 0.032199
0.116140 0.062513 0.032667
0.143462 0.063029 0.033183
0.171998 0.063592 0.033747
0.201717 0.064199 0.034345
0.232568 0.064838 0.034940
0.264434 0.065504 0.035518
0.297152 0.066187 0.036070
0.330521 0.066882 0.036586
0.364306 0.067578 0.037059
0.400388 0.068328 0.037513
0.438279 0.069040 0.037855
0.476111 0.069625 0.038025
0.513623 0.070070 0.038021
0.550549 0.070373 0.037854
0.586638 0.070542 0.037543
0.621669 0.070593 0.037115
0.655460 0.070545 0.036601
0.687878 0.070422 0.036031
0.718839 0.070242 0.035432
0.748309 0.070028 0.034828
0.776297 0.069793 0.034235
0.802861 0.069552 0.033657
0.828067 0.069313 0.033106
0.851998 0.069084 0.032591
0.874752 0.068868 0.032118
0.896428 0.068670 0.031689
0.917134 0.068491 0.031304
0.936969 0.068329 0.030962
0.005523 0.085542 0.032319
0.019977 0.085557 0.032333
0.042648 0.085892 0.032668
0.066403 0.086269 0.033046
0.091308 0.086691 0.033468
0.117409 0.087160 0.033936
0.144745 0.087673 0.034436
0.173329 0.088225 0.034947
0.203126 0.088813 0.035461
0.234058 0.089433 0.035967
0.266005 0.090079 0.036456
0.298803 0.090744 0.036919
0.332255 0.091420 0.037348
0.366230 0.092068 0.037696
0.402713 0.092715 0.037948
0.441092 0.093303 0.038045
0.479438 0.093758 0.037956
0.517468 0.094073 0.037688
0.554901 0.094250 0.037258
0.591471 0.094300 0.036695
0.626945 0.094241 0.036031
0.661135 0.094096 0.035299
0.693906 0.093886 0.034533
0.725191 0.093632 0.033748
0.754970 0.093354 0.032959
0.783245 0.093066 0.032189
0.810055 0.092779 0.031456
0.835467 0.092503 0.030773
0.859570 0.092244 0.030146
0.882465 0.092004 0.029577
0.904260 0.091785 0.029067
0.925063 0.091589 0.028614
0.944980 0.091413 0.028213
0.006942 0.111444 0.033738
0.021396 0.111459 0.033753
0.044069 0.111793 0.034087
0.067838 0.112167 0.034448
0.092776 0.112582 0.034834
0.118935 0.113036 0.035239
0.146345 0.113532 0.035658
0.175007 0.114065 0.036084
0.204883 0.114635 0.036509
0.235896 0.115236 0.036926
0.267927 0.115863 0.037325
0.300870 0.116494 0.037664
0.334600 0.117101 0.037907
0.368939 0.117660 0.038031
0.405869 0.118198 0.038015
0.444768 0.118659 0.037808
0.483652 0.118982 0.037406
0.522218 0.119167 0.036826
0.560165 0.119219 0.036096
0.597214 0.119153 0.035251
0.633123 0.118990 0.034327
0.667735 0.118753 0.033337
0.700918 0.118464 0.032309
0.732578 0.118144 0.031281
0.762672 0.117810 0.030281
0.791208 0.117477 0.029333
0.818233 0.117154 0.028449
0.843819 0.116849 0.027639
0.868063 0.116566 0.026905
0.891072 0.116309 0.026248
0.912958 0.116077 0.025664
0.933834 0.115870 0.025149
0.953809 0.115687 0.024698
0.008515 0.138635 0.035241
0.023075 0.138643 0.035217
0.045800 0.138966 0.035493
0.069629 0.139326 0.035790
0.094631 0.139725 0.036104
0.120859 0.140164 0.036434
0.148342 0.140642 0.036772
0.177080 0.141157 0.037114
0.207039 0.141708 0.037447
0.238173 0.142283 0.037728
0.270411 0.142864 0.037934
0.303640 0.143429 0.038037
0.337714 0.143957 0.038018
0.372446 0.144425 0.037860
0.409853 0.144851 0.037516
0.449293 0.145184 0.036946
0.488725 0.145379 0.036184
0.527825 0.145437 0.035257
0.566277 0.145371 0.034199
0.603840 0.145199 0.033015
0.640266 0.144942 0.031744
0.675343 0.144624 0.030436
0.708918 0.144268 0.029134
0.740899 0.143895 0.027872
0.771253 0.143519 0.026678
0.799994 0.143154 0.025569
0.827177 0.142809 0.024555
0.852884 0.142488 0.023638
0.877219 0.142195 0.022818
0.900294 0.141931 0.022093
0.922227 0.141696 0.021454
0.943137 0.141489 0.020896
0.963134 0.141306 0.020409
0.010235 0.167081 0.036585
0.025202 0.167093 0.036523
0.047980 0.167403 0.036742
0.071866 0.167749 0.036975
0.096930 0.168134 0.037222
0.123219 0.168560 0.037470
0.150765 0.169027 0.037695
0.179589 0.169529 0.037881
0.209686 0.170057 0.038004
0.241020 0.170593 0.038045
0.273518 0.171120 0.037978
0.307069 0.171617 0.037782
0.341518 0.172062 0.037442
0.376667 0.172437 0.036949
0.414568 0.172752 0.036225
0.454554 0.172961 0.035252
0.494531 0.173032 0.034097
0.534215 0.172975 0.032754
0.573276 0.172803 0.031263
0.611393 0.172538 0.029681
0.648291 0.172203 0.028065
0.683755 0.171823 0.026467
0.717635 0.171421 0.024926
0.749848 0.171014 0.023474
0.780369 0.170618 0.022130
0.809225 0.170242 0.020906
0.836479 0.169893 0.019806
0.862225 0.169575 0.018826
0.886572 0.169290 0.017963
0.909642 0.169036 0.017207
0.931558 0.168812 0.016549
0.952443 0.168616 0.015979
0.972413 0.168446 0.015487
0.012063 0.196776 0.037692
0.027774 0.196807 0.037604
0.050563 0.197120 0.037737
0.074457 0.197473 0.037860
0.099533 0.197865 0.037962
0.125858 0.198296 0.038028
0.153481 0.198758 0.038043
0.182433 0.199244 0.037987
0.212713 0.199741 0.037838
0.244289 0.200233 0.037576
0.277089 0.200700 0.037179
0.310995 0.201124 0.036633
0.345843 0.201485 0.035928
0.381423 0.201768 0.035063
0.419829 0.201974 0.033927
0.460435 0.202066 0.032470
0.501086 0.202027 0.030805
0.541400 0.201868 0.028989
0.581009 0.201608 0.027086
0.619578 0.201272 0.025160
0.656829 0.200884 0.023268
0.692549 0.200470 0.021456
0.726598 0.200049 0.019759
0.758906 0.199639 0.018201
0.789458 0.199250 0.016794
0.818295 0.198892 0.015539
0.845495 0.198567 0.014433
0.871160 0.198277 0.013467
0.895413 0.198022 0.012630
0.918380 0.197798 0.011907
0.940191 0.197605 0.011288
0.960972 0.197438 0.010757
0.980842 0.197295 0.010305
0.013460 0.227863 0.038168
0.030262 0.227936 0.038045
0.053048 0.228263 0.038026
0.076960 0.228625 0.037973
0.102084 0.229022 0.037872
0.128494 0.229448 0.037707
0.156246 0.229895 0.037460
0.185375 0.230355 0.037112
0.215887 0.230813 0.036643
0.247749 0.231252 0.036035
0.280885 0.231655 0.035273
0.315171 0.232002 0.034348
0.350473 0.232278 0.033230
0.386589 0.232470 0.031913
0.425649 0.232576 0.030249
0.466931 0.232563 0.028266
0.508187 0.232429 0.026138
0.549013 0.232188 0.023935
0.589024 0.231868 0.021728
0.627879 0.231491 0.019581
0.665302 0.231085 0.017546
0.701089 0.230674 0.015663
0.735114 0.230273 0.013957
0.767321 0.229898 0.012439
0.797716 0.229555 0.011108
0.826356 0.229250 0.009958
0.853332 0.228983 0.008972
0.878763 0.228753 0.008136
0.902778 0.228556 0.007430
0.925513 0.228390 0.006837
0.947104 0.228251 0.006341
0.967679 0.228134 0.005926
0.987359 0.228036 0.005580
0.014010 0.260414 0.037611
0.032259 0.260549 0.037420
0.055089 0.260880 0.037217
0.079072 0.261240 0.036953
0.104297 0.261629 0.036614
0.130847 0.262038 0.036183
0.158782 0.262459 0.035643
0.188141 0.262881 0.034977
0.218933 0.263289 0.034164
0.251160 0.263668 0.033167
0.284754 0.263999 0.031968
0.319585 0.264268 0.030564
0.355465 0.264460 0.028965
0.392149 0.264565 0.027196
0.431798 0.264578 0.025086
0.473636 0.264475 0.022698
0.515343 0.264268 0.020260
0.556493 0.263977 0.017850
0.596691 0.263631 0.015538
0.635596 0.263257 0.013384
0.672940 0.262878 0.011432
0.708536 0.262516 0.009706
0.742277 0.262184 0.008215
0.774131 0.261891 0.006954
0.804127 0.261640 0.005907
0.832341 0.261432 0.005053
0.858883 0.261263 0.004366
0.883885 0.261130 0.003821
0.907487 0.261026 0.003394
0.929832 0.260948 0.003061
0.951061 0.260890 0.002805
0.971316 0.260845 0.002602
0.990731 0.260808 0.002432
0.013462 0.294407 0.035734
0.033498 0.294616 0.035417
0.056424 0.294938 0.035013
0.080531 0.295283 0.034525
0.105924 0.295649 0.033931
0.132702 0.296027 0.033203
0.160936 0.296409 0.032321
0.190674 0.296780 0.031268
0.221925 0.297129 0.030027
0.254655 0.297437 0.028591
0.288776 0.297691 0.026960
0.324140 0.297875 0.025150
0.360537 0.297981 0.023186
0.397699 0.298005 0.021107
0.437800 0.297937 0.018736
0.480007 0.297767 0.016182
0.521937 0.297517 0.013703
0.563148 0.297216 0.011380
0.603241 0.296891 0.009276
0.641884 0.296569 0.007441
0.678827 0.296272 0.005897
0.713908 0.296014 0.004650
0.747047 0.295806 0.003685
0.778241 0.295650 0.002976
0.807574 0.295537 0.002468
0.835236 0.295444 0.002053
0.861342 0.295365 0.001710
0.886010 0.295298 0.001429
0.909367 0.295242 0.001199
0.931540 0.295195 0.001011
0.952654 0.295156 0.000859
0.972827 0.295123 0.000735
0.992170 0.295096 0.000634
0.011958 0.329744 0.032308
0.033974 0.330020 0.031765
0.057113 0.330318 0.031120
0.081485 0.330634 0.030355
0.107192 0.330962 0.029454
0.134326 0.331293 0.028400
0.162960 0.331618 0.027180
0.193133 0.331923 0.025782
0.224850 0.332195 0.024204
0.258061 0.332419 0.022452
0.292663 0.332585 0.020544
0.328482 0.332681 0.018510
0.365286 0.332704 0.016396
0.402780 0.332654 0.014255
0.443133 0.332523 0.011936
0.485447 0.332314 0.009583
0.527295 0.332062 0.007464
0.568229 0.331796 0.005649
0.607856 0.331544 0.004189
0.645861 0.331332 0.003108
0.682058 0.331169 0.002362
0.716483 0.331032 0.001763
0.749113 0.330917 0.001277
0.779958 0.330821 0.000893
0.809069 0.330740 0.000596
0.836533 0.330675 0.000371
0.862453 0.330622 0.000205
0.886954 0.330578 0.000083
0.910171 0.330540 0.000000
0.932228 0.330507 0.000000
0.953245 0.330477 0.000000
0.973339 0.330452 0.000000
0.992616 0.330430 0.000000
0.011869 0.366287 0.026971
0.034118 0.366529 0.026239
0.057524 0.366785 0.025391
0.082197 0.367051 0.024411
0.108243 0.367320 0.023287
0.135750 0.367583 0.022011
0.164785 0.367829 0.020578
0.195382 0.368048 0.018989
0.227529 0.368227 0.017258
0.261161 0.368356 0.015408
0.296150 0.368425 0.013476
0.332299 0.368431 0.011512
0.369346 0.368375 0.009576
0.406971 0.368263 0.007739
0.447311 0.368093 0.005907
0.489405 0.367879 0.004260
0.530806 0.367665 0.003028
0.571119 0.367478 0.002171
0.610147 0.367315 0.001472
0.647670 0.367178 0.000916
0.683533 0.367063 0.000496
0.717641 0.366971 0.000199
0.749976 0.366895 0.000000
0.780577 0.366826 0.000000
0.809493 0.366764 0.000000
0.836799 0.366708 0.000000
0.862596 0.366659 0.000000
0.886998 0.366616 0.000000
0.910135 0.366578 0.000000
0.932129 0.366545 0.000000
0.953098 0.366516 0.000000
0.973154 0.366490 0.000000
0.992402 0.366469 0.000000
0.011576 0.403570 0.020203
0.034078 0.403758 0.019368
0.057766 0.403952 0.018418
0.082753 0.404146 0.017345
0.109139 0.404334 0.016145
0.137008 0.404506 0.014820
0.166420 0.404655 0.013377
0.197392 0.404769 0.011837
0.229898 0.404840 0.010229
0.263848 0.404861 0.008597
0.299088 0.404828 0.006998
0.335394 0.404743 0.005499
0.372474 0.404615 0.004179
0.409984 0.404456 0.003112
0.450015 0.404271 0.002247
0.491655 0.404091 0.001469
0.532597 0.403935 0.000841
0.572514 0.403804 0.000373
0.611136 0.403697 0.000059
0.648307 0.403601 0.000000
0.683887 0.403510 0.000000
0.717775 0.403427 0.000000
0.749940 0.403352 0.000000
0.780419 0.403283 0.000000
0.809252 0.403221 0.000000
0.836509 0.403166 0.000000
0.862282 0.403117 0.000000
0.886679 0.403074 0.000000
0.909816 0.403036 0.000000
0.931810 0.403002 0.000000
0.952779 0.402974 0.000000
0.972835 0.402948 0.000000
0.992084 0.402927 0.000000
0.011387 0.443534 0.012231
0.034171 0.443641 0.011433
0.058168 0.443743 0.010550
0.083486 0.443835 0.009581
0.110222 0.443909 0.008538
0.138447 0.443959 0.007438
0.168207 0.443976 0.006308
0.199502 0.443955 0.005189
0.232278 0.443889 0.004133
0.266420 0.443779 0.003207
0.301736 0.443630 0.002468
0.337945 0.443480 0.001807
0.374775 0.443339 0.001214
0.411933 0.443210 0.000711
0.451529 0.443085 0.000283
0.492682 0.442970 0.000000
0.533197 0.442860 0.000000
0.572762 0.442753 0.000000
0.611118 0.442652 0.000000
0.648111 0.442556 0.000000
0.683582 0.442466 0.000000
0.717424 0.442383 0.000000
0.749586 0.442308 0.000000
0.780065 0.442239 0.000000
0.808898 0.442177 0.000000
0.836155 0.442122 0.000000
0.861929 0.442073 0.000000
0.886326 0.442029 0.000000
0.909462 0.441991 0.000000
0.931456 0.441958 0.000000
0.952425 0.441929 0.000000
0.972481 0.441904 0.000000
0.991730 0.441882 0.000000
0.012044 0.484875 0.005107
0.035112 0.484871 0.004579
0.059410 0.484850 0.004030
0.085041 0.484805 0.003479
0.112089 0.484732 0.002955
0.140600 0.484630 0.002474
0.170542 0.484521 0.001992
0.201889 0.484410 0.001514
0.234572 0.484298 0.001058
0.268474 0.484190 0.000646
0.303426 0.484088 0.000301
0.339217 0.483996 0.000037
0.375645 0.483903 0.000000
0.412436 0.483807 0.000000
0.451680 0.483702 0.000000
0.492566 0.483590 0.000000
0.532909 0.483480 0.000000
0.572392 0.483373 0.000000
0.610741 0.483272 0.000000
0.647733 0.483175 0.000000
0.683204 0.483086 0.000000
0.717046 0.483003 0.000000
0.749208 0.482927 0.000000
0.779687 0.482859 0.000000
0.808520 0.482797 0.000000
0.835778 0.482741 0.000000
0.861551 0.482693 0.000000
0.885948 0.482650 0.000000
0.909084 0.482612 0.000000
0.931078 0.482578 0.000000
0.952048 0.482550 0.000000
0.972103 0.482524 0.000000
0.991352 0.482503 0.000000
0.014142 0.524865 0.001528
0.037261 0.524810 0.001297
0.061560 0.524750 0.001055
0.087122 0.524686 0.000807
0.114014 0.524619 0.000562
0.142277 0.524551 0.000331
0.171926 0.524483 0.000128
0.202960 0.524412 0.000000
0.235330 0.524335 0.000000
0.268929 0.524254 0.000000
0.303600 0.524168 0.000000
0.339165 0.524077 0.000000
0.375424 0.523984 0.000000
0.412106 0.523890 0.000000
0.451310 0.523785 0.000000
0.492195 0.523673 0.000000
0.532539 0.523563 0.000000
0.572022 0.523456 0.000000
0.610371 0.523354 0.000000
0.647363 0.523258 0.000000
0.682834 0.523169 0.000000
0.716676 0.523086 0.000000
0.748838 0.523010 0.000000
0.779317 0.522942 0.000000
0.808150 0.522879 0.000000
0.835407 0.522824 0.000000
0.861181 0.522775 0.000000
0.885578 0.522732 0.000000
0.908710 0.522694 0.000000
0.930694 0.522661 0.000000
0.951648 0.522632 0.000000
0.971688 0.522607 0.000000
0.990919 0.522585 0.000000
0.015210 0.564016 0.000000
0.038176 0.563979 0.000000
0.062311 0.563937 0.000000
0.087698 0.563889 0.000000
0.114407 0.563836 0.000000
0.142487 0.563778 0.000000
0.171963 0.563713 0.000000
0.202846 0.563643 0.000000
0.235093 0.563567 0.000000
0.268606 0.563486 0.000000
0.303242 0.563399 0.000000
0.338807 0.563309 0.000000
0.375066 0.563216 0.000000
0.411748 0.563121 0.000000
0.450952 0.563016 0.000000
0.491838 0.562904 0.000000
0.532181 0.562794 0.000000
0.571663 0.562687 0.000000
0.610013 0.562586 0.000000
0.647005 0.562490 0.000000
0.682476 0.562400 0.000000
0.716318 0.562317 0.000000
0.748461 0.562242 0.000000
0.778895 0.562173 0.000000
0.807663 0.562112 0.000000
0.834806 0.562060 0.000000
0.860418 0.562018 0.000000
0.884621 0.561987 0.000000
0.907545 0.561964 0.000000
0.929320 0.561949 0.000000
0.950071 0.561939 0.000000
0.969917 0.561935 0.000000
0.988967 0.561932 0.000000
0.015140 0.602124 0.000000
0.038038 0.602087 0.000000
0.062106 0.602045 0.000000
0.087433 0.601998 0.000000
0.114095 0.601945 0.000000
0.142149 0.601887 0.000000
0.171620 0.601822 0.000000
0.202504 0.601751 0.000000
0.234751 0.601675 0.000000
0.268264 0.601594 0.000000
0.302900 0.601508 0.000000
0.338466 0.601418 0.000000
0.374724 0.601325 0.000000
0.411406 0.601230 0.000000
0.450610 0.601125 0.000000
0.491496 0.601013 0.000000
0.531838 0.600903 0.000000
0.571321 0.600796 0.000000
0.609653 0.600695 0.000000
0.646575 0.600599 0.000000
0.681918 0.600506 0.000000
0.715538 0.600415 0.000000
0.747383 0.600336 0.000000
0.777466 0.600273 0.000000
0.805843 0.600227 0.000436
0.832605 0.600198 0.001241
0.857866 0.600183 0.002044
0.881751 0.600179 0.002820
0.904389 0.600184 0.003552
0.925909 0.600195 0.004231
0.946436 0.600211 0.004850
0.966086 0.600228 0.005408
0.984965 0.600246 0.005906
0.014818 0.638889 0.000000
0.037715 0.638852 0.000000
0.061783 0.638810 0.000000
0.087110 0.638763 0.000000
0.113772 0.638710 0.000000
0.141826 0.638652 0.000000
0.171298 0.638588 0.000000
0.202181 0.638517 0.000000
0.234428 0.638441 0.000000
0.267941 0.638359 0.000000
0.302577 0.638273 0.000000
0.338143 0.638183 0.000000
0.374401 0.638090 0.000000
0.411083 0.637996 0.000000
0.450288 0.637890 0.000000
0.491153 0.637778 0.000000
0.531408 0.637669 0.000000
0.570748 0.637542 0.000000
0.608870 0.637394 0.000000
0.645517 0.637247 0.000000
0.680514 0.637117 0.000916
0.713765 0.637012 0.002259
0.745237 0.636935 0.003689
0.774957 0.636886 0.005146
0.802990 0.636861 0.006582
0.829435 0.636856 0.007960
0.854407 0.636868 0.009256
0.878032 0.636891 0.010454
0.900440 0.636921 0.011547
0.921757 0.636956 0.012532
0.942107 0.636993 0.013412
0.961602 0.637030 0.014193
0.980347 0.637066 0.014880
0.014516 0.674148 0.000000
0.037414 0.674111 0.000000
0.061481 0.674069 0.000000
0.086808 0.674022 0.000000
0.113471 0.673969 0.000000
0.141524 0.673910 0.000000
0.170996 0.673846 0.000000
0.201880 0.673776 0.000000
0.234126 0.673700 0.000000
0.267640 0.673618 0.000000
0.302276 0.673532 0.000000
0.337841 0.673442 0.000000
0.374084 0.673349 0.000000
0.410701 0.673255 0.000000
0.449803 0.673131 0.000000
0.490578 0.672937 0.000000
0.530740 0.672711 0.000000
0.569913 0.672479 0.001130
0.607793 0.672263 0.002860
0.644149 0.672079 0.004806
0.678829 0.671934 0.006883
0.711752 0.671831 0.009010
0.742904 0.671768 0.011123
0.772319 0.671740 0.013168
0.800070 0.671740 0.015106
0.826257 0.671763 0.016911
0.850998 0.671801 0.018568
0.874419 0.671850 0.020071
0.896646 0.671905 0.021421
0.917808 0.671962 0.022622
0.938021 0.672019 0.023684
0.957400 0.672075 0.024616
0.976044 0.672126 0.025431
0.014237 0.707794 0.000000
0.037135 0.707758 0.000000
0.061203 0.707716 0.000000
0.086530 0.707668 0.000000
0.113192 0.707616 0.000000
0.141245 0.707557 0.000000
0.170717 0.707492 0.000000
0.201601 0.707422 0.000000
0.233848 0.707346 0.000000
0.267342 0.707265 0.000000
0.301916 0.707179 0.000000
0.337407 0.707072 0.000000
0.373654 0.706900 0.000000
0.410344 0.706674 0.000000
0.449522 0.706385 0.000407
0.490273 0.706054 0.002146
0.530314 0.705730 0.004260
0.569295 0.705435 0.006670
0.606931 0.705185 0.009284
0.643015 0.704988 0.012011
0.677410 0.704848 0.014768
0.710052 0.704762 0.017480
0.740934 0.704722 0.020088
0.770098 0.704722 0.022549
0.797621 0.704752 0.024834
0.823604 0.704803 0.026927
0.848166 0.704871 0.028821
0.871430 0.704946 0.030518
0.893523 0.705025 0.032026
0.914568 0.705104 0.033358
0.934682 0.705181 0.034525
0.953975 0.705253 0.035544
0.972548 0.705319 0.036430
0.013983 0.739777 0.000000
0.036880 0.739741 0.000000
0.060948 0.739698 0.000000
0.086275 0.739652 0.000000
0.112937 0.739599 0.000000
0.140985 0.739540 0.000000
0.170429 0.739476 0.000000
0.201254 0.739406 0.000000
0.233452 0.739309 0.000000
0.267006 0.739147 0.000000
0.301751 0.738919 0.000000
0.337460 0.738635 0.000000
0.373854 0.738307 0.001203
0.410617 0.737952 0.002819
0.449794 0.737549 0.004962
0.490460 0.737132 0.007624
0.530346 0.736752 0.010584
0.569123 0.736429 0.013749
0.606525 0.736171 0.017026
0.642358 0.735985 0.020324
0.676503 0.735865 0.023561
0.708905 0.735807 0.026672
0.739563 0.735800 0.029605
0.768524 0.735833 0.032328
0.795867 0.735897 0.034820
0.821693 0.735981 0.037074
0.846119 0.736078 0.039092
0.869268 0.736180 0.040884
0.891263 0.736283 0.042463
0.912226 0.736383 0.043847
0.932271 0.736479 0.045054
0.951506 0.736567 0.046102
0.970032 0.736648 0.047009
0.013747 0.770094 0.000000
0.036633 0.770057 0.000000
0.060677 0.770015 0.000000
0.085966 0.769968 0.000000
0.112580 0.769912 0.000000
0.140640 0.769816 0.000000
0.170197 0.769668 0.000000
0.201242 0.769463 0.000000
0.233717 0.769197 0.000000
0.267506 0.768875 0.000643
0.302433 0.768502 0.001989
0.338266 0.768091 0.003663
0.374723 0.767656 0.005664
0.411490 0.767216 0.007973
0.450609 0.766745 0.010837
0.491150 0.766280 0.014210
0.530864 0.765879 0.017803
0.569436 0.765554 0.021518
0.606616 0.765312 0.025260
0.642224 0.765152 0.028940
0.676151 0.765067 0.032484
0.708349 0.765046 0.035831
0.738824 0.765079 0.038942
0.767624 0.765151 0.041791
0.794827 0.765251 0.044368
0.820535 0.765370 0.046675
0.844862 0.765497 0.048721
0.867929 0.765627 0.050522
0.889857 0.765754 0.052099
0.910766 0.765876 0.053471
0.930766 0.765989 0.054661
0.949966 0.766093 0.055688
0.968463 0.766188 0.056572
0.013419 0.798762 0.000000
0.036350 0.798690 0.000000
0.060495 0.798588 0.000000
0.085952 0.798450 0.000000
0.112805 0.798269 0.000000
0.141113 0.798039 0.000000
0.170904 0.797758 0.000368
0.202161 0.797421 0.001400
0.234817 0.797032 0.002708
0.268749 0.796596 0.004319
0.303775 0.796122 0.006250
0.339659 0.795626 0.008505
0.376118 0.795123 0.011069
0.412841 0.794633 0.013912
0.451864 0.794128 0.017321
0.492258 0.793648 0.021216
0.531792 0.793251 0.025258
0.570164 0.792947 0.029345
0.607139 0.792737 0.033383
0.642545 0.792617 0.037288
0.676284 0.792575 0.040989
0.708312 0.792600 0.044438
0.738637 0.792677 0.047603
0.767310 0.792792 0.050467
0.794407 0.792931 0.053030
0.820029 0.793084 0.055301
0.844287 0.793243 0.057297
0.867299 0.793401 0.059039
0.889185 0.793552 0.060552
0.910061 0.793694 0.061860
0.930038 0.793826 0.062986
0.949220 0.793945 0.063953
0.967702 0.794053 0.064782
0.013825 0.825516 0.000000
0.036925 0.825359 0.000000
0.061246 0.825168 0.000000
0.086883 0.824934 0.000504
0.113913 0.824656 0.001279
0.142392 0.824328 0.002253
0.172339 0.823948 0.003458
0.203732 0.823518 0.004928
0.236496 0.823041 0.006689
0.270504 0.822527 0.008761
0.305568 0.821988 0.011152
0.341452 0.821438 0.013857
0.377872 0.820898 0.016849
0.414519 0.820386 0.020091
0.453423 0.819872 0.023895
0.493657 0.819402 0.028153
0.533011 0.819030 0.032489
0.571193 0.818761 0.036802
0.607979 0.818595 0.040998
0.643208 0.818523 0.044998
0.676784 0.818532 0.048739
0.708670 0.818607 0.052182
0.738875 0.818731 0.055302
0.767449 0.818890 0.058094
0.794468 0.819070 0.060564
0.820028 0.819259 0.062731
0.844241 0.819449 0.064616
0.867220 0.819634 0.066247
0.889083 0.819809 0.067650
0.909944 0.819972 0.068853
0.929912 0.820120 0.069881
0.949089 0.820255 0.070759
0.967570 0.820375 0.071505
0.015018 0.850457 0.001066
0.038239 0.850237 0.001650
0.062685 0.849978 0.002367
0.088446 0.849675 0.003245
0.115598 0.849325 0.004313
0.144189 0.848925 0.005601
0.174235 0.848476 0.007140
0.205707 0.847980 0.008958
0.238527 0.847444 0.011076
0.272562 0.846880 0.013509
0.307623 0.846301 0.016254
0.343470 0.845724 0.019298
0.379824 0.845169 0.022607
0.416376 0.844654 0.026134
0.455149 0.844151 0.030210
0.495220 0.843707 0.034702
0.534399 0.843373 0.039210
0.572403 0.843151 0.043632
0.609018 0.843037 0.047876
0.644089 0.843019 0.051871
0.677527 0.843083 0.055562
0.709295 0.843210 0.058915
0.739404 0.843383 0.061917
0.767902 0.843587 0.064572
0.794864 0.843806 0.066893
0.820385 0.844031 0.068905
0.844571 0.844252 0.070636
