pipelines/.agents/skills/broll-ingest/luts/buildloop-FINAL.cube
# buildloop-cinema v4 — 2383-style toe/shoulder + teal shadows + lime neutral-highlights
LUT_3D_SIZE 9
0.003874 0.027394 0.052594
0.057575 0.029484 0.054684
0.158336 0.033406 0.058606
0.289438 0.038476 0.063574
0.448909 0.044223 0.067893
0.604654 0.047701 0.069090
0.727805 0.047893 0.067235
0.811132 0.046858 0.064720
0.861616 0.045833 0.062767
0.012621 0.100352 0.061341
0.066411 0.102421 0.063334
0.167970 0.106155 0.066380
0.301546 0.110638 0.068921
0.470277 0.114059 0.068010
0.639769 0.114073 0.062413
0.773040 0.111928 0.055056
0.862388 0.109666 0.048918
0.916016 0.108067 0.044906
0.024473 0.209750 0.069396
0.083335 0.211858 0.068858
0.187977 0.215115 0.066624
0.330405 0.217778 0.060419
0.514886 0.218052 0.047524
0.698277 0.215610 0.031902
0.836756 0.212828 0.020197
0.925505 0.211011 0.013509
0.977017 0.210066 0.010146
0.021580 0.359159 0.049038
0.094532 0.361036 0.042340
0.209143 0.362686 0.031379
0.364720 0.362954 0.017411
0.556010 0.361664 0.005505
0.731424 0.360570 0.000901
0.858169 0.360025 0.000000
0.938881 0.359687 0.000000
0.986186 0.359489 0.000000
0.025712 0.545210 0.002778
0.105025 0.544762 0.001021
0.223327 0.544246 0.000000
0.375771 0.543608 0.000000
0.559161 0.542841 0.000000
0.730152 0.542125 0.000000
0.855727 0.541599 0.000000
0.936291 0.541262 0.000000
0.983490 0.541064 0.000000
0.026393 0.714360 0.000000
0.104038 0.714035 0.000000
0.221139 0.713545 0.000000
0.373335 0.712908 0.000000
0.555890 0.711747 0.000000
0.722870 0.710335 0.012514
0.841036 0.709982 0.027465
0.914357 0.710282 0.038947
0.956444 0.710684 0.046238
0.024398 0.838659 0.000000
0.102827 0.837761 0.000000
0.222395 0.835513 0.004924
0.377033 0.832042 0.020126
0.557803 0.828639 0.045923
0.718244 0.827409 0.074526
0.830740 0.828056 0.096418
0.900791 0.829185 0.110095
0.941277 0.830096 0.117785
0.033888 0.912948 0.011716
0.115491 0.910264 0.020334
0.237192 0.906305 0.036087
0.391053 0.902055 0.060239
0.567787 0.899285 0.091990
0.723784 0.899575 0.120557
0.833985 0.901553 0.138431
0.903505 0.903504 0.147521
0.944109 0.904851 0.151751
0.048010 0.952780 0.030985
0.130070 0.949641 0.042412
0.251296 0.945477 0.061404
0.403100 0.941655 0.087761
0.576447 0.940119 0.118695
0.729784 0.941913 0.142486
0.839064 0.944993 0.154055
0.908436 0.947557 0.157957
0.949141 0.949141 0.159541
0.004757 0.028277 0.117688
0.058458 0.030367 0.119778
0.159219 0.034289 0.123699
0.290444 0.039330 0.128533
0.450335 0.044968 0.132570
0.607673 0.047920 0.134204
0.732017 0.047655 0.133325
0.816045 0.046324 0.131659
0.866924 0.045131 0.130252
0.013504 0.101235 0.126435
0.067404 0.103278 0.128307
0.169137 0.106971 0.131163
0.303204 0.111304 0.133652
0.473057 0.114279 0.133779
0.643712 0.113772 0.129984
0.777867 0.111258 0.124156
0.867601 0.108797 0.119107
0.921366 0.107102 0.115758
0.024855 0.210593 0.134321
0.084321 0.212660 0.134171
0.189273 0.215720 0.132940
0.332417 0.218022 0.128443
0.517869 0.217826 0.117946
0.701621 0.215066 0.104764
0.839771 0.212218 0.094798
0.927957 0.210468 0.089134
0.978989 0.209608 0.086323
0.021494 0.359867 0.119207
0.094858 0.361530 0.113603
0.210012 0.362871 0.104319
0.365949 0.362834 0.092432
0.556791 0.361465 0.082553
0.731685 0.360445 0.078460
0.858154 0.359914 0.077256
0.938770 0.359577 0.076884
0.986076 0.359378 0.076686
0.026248 0.545047 0.080075
0.105310 0.544633 0.078557
0.223341 0.544135 0.077357
0.375660 0.543498 0.076648
0.559050 0.542730 0.075880
0.730042 0.542014 0.075165
0.855617 0.541489 0.074639
0.936136 0.541152 0.074341
0.983264 0.540955 0.074280
0.026282 0.714250 0.075692
0.103927 0.713925 0.075367
0.221028 0.713434 0.074877
0.373159 0.712797 0.074310
0.555671 0.711507 0.078302
0.722263 0.710192 0.091242
0.840005 0.710029 0.105437
0.913039 0.710485 0.116189
0.954963 0.710986 0.122976
0.024437 0.838426 0.074657
0.103316 0.837328 0.076902
0.223261 0.834924 0.083853
0.377979 0.831465 0.098507
0.558453 0.828305 0.122683
0.718468 0.827432 0.149089
0.830693 0.828365 0.169091
0.900636 0.829671 0.181483
0.941094 0.830677 0.188404
0.035830 0.912045 0.090474
0.117578 0.909349 0.098704
0.239286 0.905475 0.113519
0.392887 0.901478 0.135939
0.569112 0.899143 0.165061
0.724669 0.899872 0.190888
0.834709 0.902139 0.206709
0.904239 0.904239 0.214518
0.944850 0.905654 0.218057
0.050868 0.951691 0.108744
0.132907 0.948632 0.119418
0.253935 0.944670 0.137015
0.405286 0.941216 0.161204
0.577999 0.940196 0.189220
0.730894 0.942449 0.210224
0.839970 0.945792 0.219919
0.909319 0.948440 0.223051
0.950024 0.950024 0.224635
0.006089 0.029609 0.215859
0.059790 0.031699 0.217949
0.160551 0.035620 0.221871
0.292038 0.040600 0.226416
0.452871 0.045960 0.230260
0.612528 0.048073 0.233256
0.738574 0.047110 0.234212
0.823592 0.045341 0.233986
0.875105 0.043901 0.233420
0.014834 0.102552 0.224545
0.068980 0.104553 0.226211
0.170962 0.108187 0.228792
0.305855 0.112212 0.231773
0.477360 0.114465 0.234091
0.649765 0.113165 0.233292
0.785122 0.110117 0.229896
0.875330 0.107383 0.226505
0.929232 0.105565 0.224143
0.025259 0.211824 0.232938
0.085711 0.213800 0.233626
0.191157 0.216524 0.234222
0.335460 0.218259 0.232490
0.522273 0.217371 0.225694
0.706392 0.214194 0.216027
0.843868 0.211323 0.208409
0.931072 0.209733 0.204045
0.981300 0.209042 0.201895
0.021344 0.360797 0.226574
0.095331 0.362139 0.222589
0.211276 0.363032 0.215691
0.367673 0.362590 0.206585
0.557824 0.361186 0.198911
0.731921 0.360275 0.195577
0.858033 0.359747 0.194646
0.938604 0.359410 0.194309
0.985909 0.359212 0.194111
0.026902 0.544822 0.196798
0.105572 0.544461 0.195651
0.223266 0.543969 0.194712
0.375494 0.543331 0.194072
0.558884 0.542564 0.193305
0.729875 0.541848 0.192589
0.855451 0.541322 0.192063
0.935831 0.540986 0.191870
0.982641 0.540830 0.192128
0.026116 0.714083 0.193117
0.103761 0.713758 0.192792
0.220862 0.713268 0.192302
0.372836 0.712626 0.191884
0.555386 0.711145 0.196961
0.721387 0.710040 0.209165
0.838505 0.710193 0.221918
0.911127 0.710894 0.231423
0.952823 0.711548 0.237380
0.024868 0.837932 0.192891
0.104365 0.836584 0.195517
0.224809 0.834012 0.202335
0.379581 0.830638 0.215731
0.559570 0.827895 0.237123
0.718940 0.827579 0.260073
0.830774 0.828943 0.277226
0.900576 0.830506 0.287727
0.941010 0.831648 0.293532
0.039068 0.910665 0.208464
0.120983 0.907987 0.215908
0.242637 0.904288 0.229072
0.395785 0.900715 0.248686
0.571203 0.899057 0.273787
0.726096 0.900442 0.295602
0.835916 0.903121 0.308522
0.905421 0.905421 0.314615
0.946058 0.906921 0.317236
0.055424 0.950092 0.224852
0.137381 0.947183 0.234261
0.258045 0.943562 0.249621
0.408652 0.940689 0.270488
0.580370 0.940453 0.294213
0.732597 0.943374 0.311290
0.841323 0.947074 0.318521
0.910651 0.949772 0.321222
0.951356 0.951356 0.322806
0.007820 0.031340 0.343476
0.061521 0.033430 0.345566
0.162304 0.037346 0.349464
0.294243 0.042219 0.353513
0.456777 0.046986 0.358017
0.619294 0.047944 0.363889
0.747372 0.046076 0.367773
0.833693 0.043753 0.369547
0.885947 0.042010 0.370163
0.016555 0.104223 0.351913
0.071162 0.106178 0.353333
0.173486 0.109703 0.355843
0.309516 0.113191 0.360645
0.483088 0.114433 0.366775
0.657748 0.112110 0.370233
0.794422 0.108421 0.370110
0.885049 0.105390 0.368827
0.938997 0.103455 0.367676
0.025472 0.213326 0.362751
0.087326 0.215132 0.364940
0.193465 0.217360 0.368366
0.339396 0.218333 0.370449
0.527778 0.216594 0.368450
0.712047 0.213007 0.362897
0.848326 0.210255 0.357719
0.934016 0.208991 0.354526
0.983116 0.208576 0.352881
0.021131 0.361760 0.368858
0.095926 0.362692 0.366844
0.212846 0.363048 0.362680
0.369682 0.362198 0.356405
0.558919 0.360860 0.350411
0.732062 0.360057 0.347952
0.857817 0.359531 0.347291
0.938387 0.359194 0.346954
0.985693 0.358996 0.346756
0.027452 0.544571 0.348817
0.105737 0.544243 0.348008
0.223053 0.543752 0.347355
0.375278 0.543115 0.346718
0.558667 0.542347 0.345950
0.729659 0.541632 0.345234
0.855153 0.541106 0.344770
0.935079 0.540821 0.344934
0.981275 0.540785 0.345565
0.025899 0.713867 0.345762
0.103545 0.713542 0.345437
0.220645 0.713052 0.344947
0.372561 0.712297 0.345084
0.555128 0.710708 0.350395
0.720349 0.709977 0.360744
0.836688 0.710584 0.371159
0.908812 0.711618 0.378831
0.950237 0.712474 0.383616
0.026086 0.837081 0.346505
0.106283 0.835497 0.349087
0.227248 0.832819 0.355044
0.381978 0.829664 0.366130
0.561263 0.827544 0.383410
0.719790 0.827977 0.401716
0.831151 0.829888 0.415247
0.900810 0.831762 0.423426
0.941244 0.833063 0.427892
0.043812 0.908872 0.360165
0.125849 0.906282 0.366274
0.247317 0.902886 0.376937
0.399768 0.899928 0.392658
0.574066 0.899178 0.412548
0.728094 0.901392 0.429472
0.837645 0.904555 0.439066
0.907064 0.907064 0.443367
0.947758 0.908637 0.445094
0.061751 0.948118 0.373533
0.143510 0.945454 0.381112
0.263587 0.942332 0.393404
0.413116 0.940255 0.409952
0.583471 0.941034 0.428413
0.734733 0.944768 0.441057
0.843054 0.948805 0.446141
0.912382 0.951503 0.448839
0.953087 0.953087 0.450423
0.009906 0.033426 0.497221
0.063607 0.035516 0.499311
0.164617 0.039379 0.502959
0.297086 0.044126 0.506437
0.462237 0.047787 0.513948
0.627961 0.047292 0.524640
0.758316 0.044354 0.532582
0.846137 0.041405 0.536886
0.899114 0.039336 0.539001
0.018619 0.106178 0.505121
0.073976 0.108092 0.506278
0.176716 0.111341 0.510135
0.314145 0.114026 0.518617
0.490088 0.113978 0.530451
0.667392 0.110465 0.539316
0.805266 0.106112 0.543080
0.896088 0.102829 0.544120
0.949888 0.100828 0.544234
0.025253 0.214935 0.522164
0.088966 0.216466 0.526691
0.196181 0.218034 0.533891
0.344048 0.218075 0.540777
0.534000 0.215425 0.544201
0.717939 0.211580 0.542608
0.852284 0.209221 0.539215
0.936015 0.208469 0.536562
0.984639 0.208153 0.535201
0.020890 0.362555 0.544110
0.096648 0.363024 0.544130
0.214650 0.362826 0.542491
0.371765 0.361690 0.538161
0.559818 0.360525 0.533329
0.731979 0.359796 0.531714
0.857556 0.359270 0.531188
0.938127 0.358933 0.530851
0.985432 0.358735 0.530652
0.027736 0.544308 0.532301
0.105686 0.543982 0.531747
0.222793 0.543492 0.531252
0.375017 0.542854 0.530614
0.558407 0.542087 0.529847
0.729398 0.541371 0.529131
0.854531 0.540866 0.528907
0.933438 0.540802 0.529366
0.978933 0.540955 0.529935
0.025639 0.713606 0.529659
0.103284 0.713281 0.529334
0.220287 0.712791 0.528918
0.372580 0.711777 0.529518
0.555034 0.710282 0.533376
0.719223 0.710120 0.540199
0.834751 0.711337 0.547415
0.906330 0.712783 0.552661
0.947472 0.713881 0.555953
0.028520 0.835831 0.530656
0.109406 0.834084 0.532481
0.230814 0.831433 0.536519
0.385323 0.828684 0.543998
0.563656 0.827410 0.555811
0.721160 0.828761 0.568511
0.832005 0.831296 0.577956
0.901554 0.833502 0.583645
0.942035 0.834960 0.586725
0.050273 0.906779 0.539967
0.132318 0.904379 0.544096
0.253389 0.901446 0.551363
0.404835 0.899307 0.562209
0.577680 0.899671 0.576073
0.730665 0.902823 0.587807
0.839785 0.906471 0.594326
0.909139 0.909139 0.597255
0.949843 0.910723 0.598839
0.069904 0.945948 0.549034
0.151287 0.943644 0.554229
0.270484 0.941192 0.562726
0.418549 0.940115 0.574260
0.587160 0.942091 0.587082
0.737075 0.946691 0.595657
0.845140 0.950890 0.599886
0.914468 0.953589 0.602584
0.955173 0.955173 0.604168
0.011851 0.035371 0.640572
0.065579 0.037454 0.642631
0.166981 0.041225 0.645850
0.300174 0.045694 0.649731
0.467908 0.048074 0.662139
0.636378 0.046197 0.678325
0.768831 0.042305 0.690249
0.857797 0.038835 0.696986
0.911275 0.036511 0.700479
0.020534 0.107949 0.647757
0.076678 0.109794 0.649393
0.179819 0.112616 0.656167
0.318574 0.114430 0.669243
0.496773 0.113147 0.687031
0.676254 0.108603 0.701014
0.814847 0.103768 0.708096
0.905535 0.100373 0.710925
0.958991 0.098398 0.711932
0.024581 0.216189 0.674297
0.090189 0.217404 0.681419
0.198674 0.218318 0.692259
0.348237 0.217514 0.703577
0.539312 0.214171 0.711339
0.722423 0.210356 0.712102
0.854495 0.208631 0.708993
0.937356 0.208086 0.706631
0.985671 0.207814 0.705567
0.020734 0.362957 0.710886
0.097370 0.363042 0.712308
0.216277 0.362447 0.712027
0.373388 0.361264 0.707973
0.560218 0.360270 0.704292
0.731738 0.359553 0.703178
0.857313 0.359027 0.702652
0.937884 0.358690 0.702315
0.985189 0.358492 0.702117
0.027763 0.544064 0.703562
0.105449 0.543739 0.703206
0.222549 0.543249 0.702716
0.374774 0.542611 0.702078
0.558164 0.541844 0.701311
0.729089 0.541128 0.700645
0.853390 0.540782 0.700492
0.931330 0.541012 0.700466
0.976210 0.541376 0.700544
0.025396 0.713363 0.701123
0.103041 0.713038 0.700798
0.219889 0.712515 0.700562
0.372982 0.711247 0.700481
0.555208 0.710037 0.701541
0.718078 0.710523 0.702159
0.829771 0.712811 0.701511
0.900017 0.714900 0.705109
0.941735 0.716120 0.708783
0.031707 0.834535 0.700698
0.113090 0.832745 0.701232
0.234733 0.830249 0.702778
0.388872 0.828000 0.706294
0.566221 0.827581 0.712739
0.723846 0.826792 0.699304
0.824942 0.831308 0.699681
0.892472 0.835337 0.712099
0.935197 0.837306 0.721227
0.056963 0.904955 0.704322
0.138880 0.902804 0.706344
0.259409 0.900385 0.710225
0.409758 0.899066 0.716553
0.581144 0.900459 0.725300
0.738330 0.899366 0.713651
0.838936 0.904775 0.716702
0.901807 0.908826 0.718679
0.943983 0.911883 0.729280
0.077935 0.944178 0.708944
0.158833 0.942263 0.711843
0.277037 0.940489 0.716868
0.423576 0.940362 0.724122
0.590453 0.943400 0.732642
0.744439 0.944288 0.726465
0.847040 0.949632 0.730297
0.912398 0.953256 0.733115
0.950709 0.955432 0.734905
0.013279 0.036799 0.745848
0.067146 0.038849 0.747755
0.168835 0.042553 0.750659
0.302772 0.046618 0.756200
0.472340 0.047989 0.773083
0.642698 0.045102 0.793708
0.776633 0.040552 0.808568
0.866273 0.036747 0.817046
0.920007 0.034273 0.821484
0.021878 0.109207 0.752700
0.078613 0.110934 0.755682
0.182105 0.113363 0.765223
0.321843 0.114483 0.782212
0.501754 0.112293 0.804545
0.682594 0.107064 0.822168
0.821459 0.101979 0.831351
0.911849 0.098590 0.835168
0.964922 0.096692 0.836597
0.023807 0.216939 0.788400
0.090993 0.217893 0.797557
0.200460 0.218315 0.811088
0.351192 0.216924 0.825457
0.542868 0.213193 0.835745
0.725042 0.209592 0.837217
0.855613 0.208330 0.833763
0.938099 0.207840 0.831762
0.986163 0.207602 0.830938
0.020698 0.363062 0.835114
0.097961 0.362906 0.837168
0.217463 0.362110 0.837132
0.374365 0.360984 0.832880
0.560345 0.360091 0.829984
0.731559 0.359374 0.829100
0.857134 0.358849 0.828574
0.937705 0.358511 0.828237
0.985011 0.358313 0.828039
0.027625 0.543885 0.829453
0.105270 0.543560 0.829128
0.222371 0.543070 0.828638
0.374595 0.542433 0.828001
0.557985 0.541665 0.827233
0.728744 0.540951 0.826688
0.852245 0.540848 0.825953
0.929505 0.541332 0.825135
0.973959 0.541867 0.824624
0.025217 0.713184 0.827046
0.102811 0.712860 0.826759
0.219922 0.712215 0.826405
0.373533 0.710874 0.824976
0.555519 0.709976 0.823243
0.717533 0.711076 0.817807
0.827981 0.714104 0.811769
0.897813 0.716490 0.814530
0.939598 0.717764 0.818626
0.034589 0.833551 0.824175
0.116249 0.831788 0.823465
0.237957 0.829478 0.822843
0.391725 0.827657 0.823201
0.568280 0.827897 0.825702
0.726016 0.828045 0.796535
0.825828 0.833317 0.790435
0.886024 0.837878 0.788223
0.920402 0.840871 0.787620
0.062240 0.903727 0.822837
0.143980 0.901797 0.823214
0.264008 0.899795 0.824568
0.413451 0.899099 0.827716
0.583702 0.901230 0.833162
0.741083 0.901041 0.808665
0.839466 0.904791 0.786046
0.897511 0.910046 0.786601
0.931281 0.913307 0.787880
0.084037 0.943058 0.824055
0.164495 0.941454 0.825286
0.281865 0.940201 0.827893
0.427182 0.940772 0.832371
0.592649 0.944539 0.838522
0.746533 0.946054 0.824529
0.849835 0.946294 0.788692
0.907491 0.951864 0.791676
0.941269 0.955232 0.794049
0.014194 0.037711 0.813377
0.068209 0.039731 0.815140
0.170074 0.043393 0.817851
0.304558 0.047100 0.825247
0.475274 0.047800 0.845319
0.646837 0.044274 0.868876
0.781635 0.039327 0.885610
0.871631 0.035334 0.895152
0.925478 0.032782 0.900147
0.022641 0.109972 0.820555
0.079818 0.111603 0.824594
0.183560 0.113750 0.836142
0.323930 0.114405 0.855823
0.504956 0.111641 0.881082
0.686558 0.106014 0.900917
0.825479 0.100820 0.911246
0.915586 0.097477 0.915518
0.968355 0.095658 0.917095
0.023192 0.217337 0.862726
0.091485 0.218113 0.873213
0.201581 0.218219 0.888447
0.353023 0.216475 0.904618
0.544982 0.212558 0.916159
0.726406 0.209187 0.917557
0.856231 0.208152 0.913912
0.938459 0.207697 0.912159
0.986351 0.207483 0.911496
0.020723 0.363054 0.915458
0.098380 0.362765 0.917709
0.218230 0.361885 0.917445
0.374885 0.360819 0.913123
0.560360 0.359976 0.910679
0.731444 0.359260 0.909893
0.857020 0.358734 0.909368
0.937590 0.358397 0.909030
0.984896 0.358199 0.908832
0.027511 0.543771 0.910247
0.105156 0.543446 0.909922
0.222256 0.542955 0.909432
0.374481 0.542318 0.908794
0.557871 0.541551 0.908027
0.728436 0.540859 0.907498
0.851399 0.540956 0.906041
0.928237 0.541617 0.904543
0.972428 0.542270 0.903566
0.025103 0.713070 0.907839
0.102610 0.712745 0.907618
0.220115 0.711989 0.906875
0.374005 0.710653 0.904244
0.555807 0.709997 0.900443
0.717570 0.711486 0.892996
0.828747 0.714643 0.886509
0.896651 0.717607 0.883278
0.938497 0.718889 0.887897
0.036671 0.832920 0.902658
0.118470 0.831199 0.901041
0.240172 0.829036 0.898910
0.393657 0.827513 0.897174
0.569668 0.828185 0.897211
0.726582 0.829910 0.873467
0.826803 0.834778 0.847794
0.886755 0.839593 0.844036
0.921023 0.842699 0.842774
0.065771 0.902998 0.897864
0.147361 0.901224 0.897163
0.267020 0.899504 0.896910
0.415838 0.899215 0.898122
0.585333 0.901804 0.901707
0.742832 0.902209 0.868813
0.841159 0.906528 0.839575
0.899088 0.911916 0.839759
0.932699 0.915227 0.840543
0.088020 0.942427 0.896880
0.168159 0.941032 0.897070
0.284947 0.940119 0.898218
0.429435 0.941134 0.901122
0.593919 0.945340 0.906173
0.747879 0.947214 0.887245
0.851707 0.948154 0.841861
0.909271 0.953779 0.844565
0.943031 0.957174 0.847106
0.014731 0.038240 0.853000
0.068854 0.040244 0.854682
0.170818 0.043882 0.857283
0.305644 0.047340 0.866096
0.477022 0.047640 0.888137
0.649292 0.043743 0.913430
0.784561 0.038574 0.931249
0.874738 0.034481 0.941388
0.928632 0.031891 0.946687
0.023051 0.110403 0.860634
0.080509 0.111969 0.865357
0.184406 0.113941 0.878156
0.325148 0.114318 0.899469
0.506834 0.111222 0.926433
0.688840 0.105379 0.947504
0.827750 0.100141 0.958420
0.917658 0.096843 0.962885
0.970226 0.095080 0.964500
0.022804 0.217541 0.906772
0.091764 0.218208 0.918053
0.202229 0.218129 0.934266
0.354074 0.216188 0.951424
0.546158 0.212188 0.963546
0.727088 0.208987 0.964691
0.856556 0.208053 0.961007
0.938624 0.207620 0.959406
0.986431 0.207415 0.958822
0.020760 0.363024 0.962823
0.098644 0.362666 0.965107
0.218687 0.361754 0.964557
0.375150 0.360728 0.960277
0.560344 0.359908 0.958077
0.731377 0.359192 0.957330
0.856953 0.358667 0.956804
0.937523 0.358330 0.956467
0.984829 0.358132 0.956269
0.027443 0.543703 0.957683
0.105088 0.543378 0.957358
0.222189 0.542888 0.956868
0.374413 0.542251 0.956231
0.557803 0.541483 0.955463
0.728216 0.540820 0.954866
0.850868 0.541045 0.952877
0.927464 0.541816 0.950923
0.971505 0.542540 0.949644
0.025033 0.713003 0.955277
0.102475 0.712678 0.955106
0.220291 0.711849 0.953982
0.374328 0.710534 0.950533
0.556009 0.710033 0.945430
0.717698 0.711719 0.937862
0.829665 0.714825 0.932270
0.898342 0.717689 0.929051
0.937900 0.719584 0.928080
0.037975 0.832553 0.948444
0.119843 0.830865 0.946260
0.241524 0.828798 0.943207
0.394826 0.827456 0.940228
0.570512 0.828382 0.938837
0.726654 0.830994 0.922778
0.827488 0.835677 0.881325
0.887357 0.840617 0.876804
0.921445 0.843800 0.874752
0.067893 0.902594 0.941539
0.149381 0.900917 0.940203
0.268806 0.899367 0.939019
0.417241 0.899317 0.939144
0.586282 0.902169 0.941742
0.740803 0.904654 0.921535
0.842190 0.907597 0.871336
0.900041 0.913030 0.870839
0.933653 0.916369 0.871624
0.090378 0.942089 0.939266
0.170316 0.940821 0.938861
0.286744 0.940109 0.939195
0.430729 0.941381 0.941261
0.594608 0.945833 0.945833
0.748669 0.947905 0.924008
0.852811 0.949263 0.873038
0.910370 0.954931 0.875920
0.944135 0.958327 0.878494
