pipelines/.agents/skills/broll-ingest/luts/buildloop-FINAL-slog3.cube
# buildloop-FINAL-slog3 — S-Log3/S-Gamut3.Cine -> Rec709 -> v4
LUT_3D_SIZE 33
0.003874 0.027394 0.052594
0.003874 0.027394 0.052594
0.003874 0.027394 0.052594
0.009613 0.027617 0.052817
0.027964 0.028332 0.053532
0.047338 0.029086 0.054286
0.069622 0.029953 0.055153
0.098862 0.031091 0.056291
0.135291 0.032509 0.057709
0.180659 0.034274 0.059474
0.236586 0.036451 0.061651
0.304127 0.039027 0.064061
0.390544 0.042179 0.066548
0.493144 0.045576 0.068639
0.600404 0.047655 0.069111
0.702145 0.048031 0.067814
0.786921 0.047247 0.065546
0.846503 0.046169 0.063383
0.861616 0.045833 0.062767
0.861616 0.045833 0.062767
0.861616 0.045833 0.062767
0.861616 0.045833 0.062767
0.861616 0.045833 0.062767
0.861616 0.045833 0.062767
0.861616 0.045833 0.062767
0.861616 0.045833 0.062767
0.861616 0.045833 0.062767
0.861616 0.045833 0.062767
0.861616 0.045833 0.062767
0.861616 0.045833 0.062767
0.861616 0.045833 0.062767
0.861616 0.045833 0.062767
0.861616 0.045833 0.062767
0.003874 0.027394 0.052594
0.003874 0.027394 0.052594
0.003874 0.027394 0.052594
0.003874 0.027394 0.052594
0.020305 0.028034 0.053234
0.039806 0.028793 0.053993
0.062639 0.029681 0.054881
0.092335 0.030837 0.056037
0.129157 0.032270 0.057470
0.174915 0.034051 0.059251
0.231289 0.036245 0.061445
0.299365 0.038849 0.063905
0.385705 0.042006 0.066425
0.489219 0.045467 0.068585
0.597432 0.047621 0.069123
0.700145 0.048038 0.067855
0.785753 0.047264 0.065584
0.846036 0.046179 0.063402
0.861616 0.045833 0.062767
0.861616 0.045833 0.062767
0.861616 0.045833 0.062767
0.861616 0.045833 0.062767
0.861616 0.045833 0.062767
0.861616 0.045833 0.062767
0.861616 0.045833 0.062767
0.861616 0.045833 0.062767
0.861616 0.045833 0.062767
0.861616 0.045833 0.062767
0.861616 0.045833 0.062767
0.861616 0.045833 0.062767
0.861616 0.045833 0.062767
0.861616 0.045833 0.062767
0.861616 0.045833 0.062767
0.003874 0.027394 0.052594
0.003874 0.027394 0.052594
0.003874 0.027394 0.052594
0.003874 0.027394 0.052594
0.013044 0.027751 0.052951
0.032014 0.028489 0.053689
0.055511 0.029404 0.054604
0.085722 0.030580 0.055780
0.122963 0.032029 0.057229
0.169124 0.033825 0.059025
0.225949 0.036037 0.061237
0.294563 0.038669 0.063746
0.380821 0.041831 0.066299
0.485262 0.045355 0.068529
0.594431 0.047585 0.069135
0.698126 0.048044 0.067896
0.784573 0.047281 0.065622
0.845560 0.046189 0.063421
0.861616 0.045833 0.062767
0.861616 0.045833 0.062767
0.861616 0.045833 0.062767
0.861616 0.045833 0.062767
0.861616 0.045833 0.062767
0.861616 0.045833 0.062767
0.861616 0.045833 0.062767
0.861616 0.045833 0.062767
0.861616 0.045833 0.062767
0.861616 0.045833 0.062767
0.861616 0.045833 0.062767
0.861616 0.045833 0.062767
0.861616 0.045833 0.062767
0.861616 0.045833 0.062767
0.861616 0.045833 0.062767
0.004547 0.033003 0.053267
0.004278 0.030765 0.052998
0.004015 0.028569 0.052735
0.003874 0.027394 0.052594
0.006166 0.027483 0.052683
0.024023 0.028178 0.053378
0.048212 0.029120 0.054320
0.079013 0.030318 0.055518
0.116709 0.031786 0.056986
0.163285 0.033598 0.058798
0.220567 0.035828 0.061028
0.289722 0.038486 0.063584
0.375893 0.041655 0.066169
0.481271 0.045240 0.068469
0.591403 0.047548 0.069145
0.696087 0.048050 0.067936
0.783383 0.047298 0.065661
0.845076 0.046199 0.063440
0.861616 0.045833 0.062767
0.861616 0.045833 0.062767
0.861616 0.045833 0.062767
0.861616 0.045833 0.062767
0.861616 0.045833 0.062767
0.861616 0.045833 0.062767
0.861616 0.045833 0.062767
0.861616 0.045833 0.062767
0.861616 0.045833 0.062767
0.861616 0.045833 0.062767
0.861616 0.045833 0.062767
0.861616 0.045833 0.062767
0.861616 0.045833 0.062767
0.861616 0.045833 0.062767
0.861616 0.045833 0.062767
0.006052 0.045555 0.054772
0.005755 0.043078 0.054475
0.005463 0.040648 0.054183
0.005177 0.038263 0.053897
0.004897 0.035923 0.053617
0.017315 0.034123 0.053836
0.041118 0.032253 0.054438
0.072199 0.030053 0.055253
0.110388 0.031540 0.056740
0.157397 0.033369 0.058569
0.215142 0.035616 0.060816
0.284842 0.038302 0.063418
0.370919 0.041476 0.066037
0.477247 0.045122 0.068407
0.588347 0.047508 0.069153
0.694028 0.048055 0.067977
0.782180 0.047315 0.065699
0.844583 0.046210 0.063460
0.861616 0.045833 0.062767
0.861616 0.045833 0.062767
0.861616 0.045833 0.062767
0.861616 0.045833 0.062767
0.861616 0.045833 0.062767
0.861616 0.045833 0.062767
0.861616 0.045833 0.062767
0.861616 0.045833 0.062767
0.861616 0.045833 0.062767
0.861616 0.045833 0.062767
0.861616 0.045833 0.062767
0.861616 0.045833 0.062767
0.861616 0.045833 0.062767
0.861616 0.045833 0.062767
0.861616 0.045833 0.062767
0.007713 0.059412 0.056433
0.007386 0.056682 0.056106
0.007064 0.054000 0.055784
0.006748 0.051368 0.055468
0.006439 0.048783 0.055159
0.011763 0.046465 0.055073
0.034836 0.044270 0.055613
0.066644 0.041290 0.056363
0.104731 0.037398 0.057223
0.151460 0.033138 0.058338
0.209673 0.035404 0.060604
0.279922 0.038116 0.063248
0.365901 0.041295 0.065902
0.473189 0.045000 0.068341
0.585263 0.047467 0.069161
0.691949 0.048060 0.068017
0.780966 0.047332 0.065738
0.844080 0.046221 0.063480
0.861616 0.045833 0.062767
0.861616 0.045833 0.062767
0.861616 0.045833 0.062767
0.861616 0.045833 0.062767
0.861616 0.045833 0.062767
0.861616 0.045833 0.062767
0.861616 0.045833 0.062767
0.861616 0.045833 0.062767
0.861616 0.045833 0.062767
0.861616 0.045833 0.062767
0.861616 0.045833 0.062767
0.861616 0.045833 0.062767
0.861616 0.045833 0.062767
0.861616 0.045833 0.062767
0.861616 0.045833 0.062767
0.010008 0.078556 0.058728
0.009663 0.075678 0.058383
0.009314 0.072763 0.058034
0.008942 0.069661 0.057662
0.008593 0.066749 0.057313
0.008250 0.063888 0.056970
0.026961 0.061124 0.057294
0.059773 0.057633 0.058019
0.098546 0.053055 0.058823
0.145682 0.047219 0.059769
0.203349 0.039967 0.060914
0.273711 0.037880 0.063030
0.359558 0.041066 0.065728
0.468064 0.044843 0.068254
0.581365 0.047413 0.069167
0.689319 0.048066 0.068067
0.779430 0.047354 0.065786
0.843438 0.046234 0.063505
0.861616 0.045833 0.062767
0.861616 0.045833 0.062767
0.861616 0.045833 0.062767
0.861616 0.045833 0.062767
0.861616 0.045833 0.062767
0.861616 0.045833 0.062767
0.861616 0.045833 0.062767
0.861616 0.045833 0.062767
0.861616 0.045833 0.062767
0.861616 0.045833 0.062767
0.861616 0.045833 0.062767
0.861616 0.045833 0.062767
0.861616 0.045833 0.062767
0.861616 0.045833 0.062767
0.861616 0.045833 0.062767
0.013039 0.103833 0.061759
0.012723 0.101199 0.061443
0.012405 0.098546 0.061125
0.012084 0.095871 0.060804
0.011761 0.093174 0.060481
0.011435 0.090454 0.060155
0.017420 0.087262 0.059991
0.050051 0.083655 0.060697
0.090081 0.078599 0.061489
0.137971 0.071339 0.062284
0.196347 0.062311 0.063180
0.266728 0.051304 0.064173
0.350541 0.040738 0.065474
0.460785 0.044613 0.068123
0.575821 0.047333 0.069172
0.685575 0.048071 0.068136
0.777244 0.047383 0.065855
0.842512 0.046254 0.063542
0.861616 0.045833 0.062767
0.861616 0.045833 0.062767
0.861616 0.045833 0.062767
0.861616 0.045833 0.062767
0.861616 0.045833 0.062767
0.861616 0.045833 0.062767
0.861616 0.045833 0.062767
0.861616 0.045833 0.062767
0.861616 0.045833 0.062767
0.861616 0.045833 0.062767
0.861616 0.045833 0.062767
0.861616 0.045833 0.062767
0.861616 0.045833 0.062767
0.861616 0.045833 0.062767
0.861616 0.045833 0.062767
0.016743 0.134761 0.065128
0.016451 0.132323 0.064893
0.016158 0.129872 0.064651
0.015863 0.127408 0.064403
0.015567 0.124930 0.064148
0.015268 0.122438 0.063886
0.014892 0.119295 0.063531
0.035880 0.115659 0.063756
0.078556 0.111330 0.064560
0.128188 0.105179 0.065332
0.188018 0.096497 0.066089
0.259742 0.084021 0.066769
0.342911 0.066829 0.067307
0.451654 0.047825 0.068151
0.568337 0.047216 0.069171
0.680515 0.048076 0.068226
0.774290 0.047422 0.065947
0.841235 0.046280 0.063592
0.861616 0.045833 0.062767
0.861616 0.045833 0.062767
0.861616 0.045833 0.062767
0.861616 0.045833 0.062767
0.861616 0.045833 0.062767
0.861616 0.045833 0.062767
0.861616 0.045833 0.062767
0.861616 0.045833 0.062767
0.861616 0.045833 0.062767
0.861616 0.045833 0.062767
0.861616 0.045833 0.062767
0.861616 0.045833 0.062767
0.861616 0.045833 0.062767
0.861616 0.045833 0.062767
0.861616 0.045833 0.062767
0.021283 0.172875 0.068185
0.021021 0.170601 0.068038
0.020751 0.168320 0.067883
0.020478 0.166031 0.067722
0.020204 0.163734 0.067557
0.019929 0.161427 0.067388
0.019583 0.158528 0.067169
0.019620 0.154415 0.066696
0.062384 0.150487 0.067325
0.114821 0.145040 0.067984
0.176853 0.137388 0.068545
0.251261 0.126585 0.068949
0.338088 0.111058 0.069142
0.448940 0.088377 0.069158
0.562423 0.058358 0.069119
0.673633 0.048077 0.068342
0.770270 0.047474 0.066070
0.839452 0.046317 0.063662
0.861616 0.045833 0.062767
0.861616 0.045833 0.062767
0.861616 0.045833 0.062767
0.861616 0.045833 0.062767
0.861616 0.045833 0.062767
0.861616 0.045833 0.062767
0.861616 0.045833 0.062767
0.861616 0.045833 0.062767
0.861616 0.045833 0.062767
0.861616 0.045833 0.062767
0.861616 0.045833 0.062767
0.861616 0.045833 0.062767
0.861616 0.045833 0.062767
0.861616 0.045833 0.062767
0.861616 0.045833 0.062767
0.025004 0.220655 0.069297
0.024914 0.218481 0.069334
0.024816 0.216303 0.069363
0.024710 0.214121 0.069383
0.024595 0.211936 0.069394
0.024473 0.209747 0.069396
0.024309 0.207002 0.069387
0.024057 0.203141 0.069351
0.038450 0.198497 0.069123
0.095401 0.193713 0.069156
0.161153 0.186761 0.068920
0.239824 0.176803 0.068354
0.332589 0.162522 0.067468
0.449190 0.142136 0.066153
0.573176 0.112572 0.065337
0.676549 0.069812 0.066631
0.764754 0.047541 0.066235
0.836911 0.046370 0.063761
0.861616 0.045833 0.062767
0.861616 0.045833 0.062767
0.861616 0.045833 0.062767
0.861616 0.045833 0.062767
0.861616 0.045833 0.062767
0.861616 0.045833 0.062767
0.861616 0.045833 0.062767
0.861616 0.045833 0.062767
0.861616 0.045833 0.062767
0.861616 0.045833 0.062767
0.861616 0.045833 0.062767
0.861616 0.045833 0.062767
0.861616 0.045833 0.062767
0.861616 0.045833 0.062767
0.861616 0.045833 0.062767
0.024378 0.281310 0.064753
0.024497 0.279230 0.065018
0.024609 0.277146 0.065275
0.024714 0.275060 0.065526
0.024813 0.272970 0.065770
0.024906 0.270877 0.066006
0.025012 0.268253 0.066291
0.025143 0.264565 0.066672
0.025284 0.259663 0.067141
0.062390 0.254476 0.066424
0.135511 0.248172 0.064659
0.220517 0.238774 0.062402
0.321566 0.225098 0.059539
0.445367 0.205468 0.055943
0.585574 0.177546 0.052670
0.706870 0.138873 0.053317
0.783703 0.084213 0.060202
0.833195 0.046445 0.063904
0.861616 0.045833 0.062767
0.861616 0.045833 0.062767
0.861616 0.045833 0.062767
0.861616 0.045833 0.062767
0.861616 0.045833 0.062767
0.861616 0.045833 0.062767
0.861616 0.045833 0.062767
0.861616 0.045833 0.062767
0.861616 0.045833 0.062767
0.861616 0.045833 0.062767
0.861616 0.045833 0.062767
0.861616 0.045833 0.062767
0.861616 0.045833 0.062767
0.861616 0.045833 0.062767
0.861616 0.045833 0.062767
0.021594 0.357674 0.049437
0.021613 0.355722 0.049956
0.021630 0.353766 0.050471
0.021647 0.351806 0.050982
0.021662 0.349841 0.051488
0.021676 0.347872 0.051990
0.021693 0.345403 0.052610
0.021713 0.341929 0.053467
0.021734 0.337306 0.054577
0.021751 0.331148 0.055998
0.090208 0.325045 0.052608
0.186108 0.316262 0.047391
0.298626 0.303153 0.041511
0.430407 0.284177 0.035345
0.590028 0.257221 0.028963
0.732933 0.220272 0.027248
0.834904 0.170708 0.033239
0.875366 0.103368 0.049575
0.861616 0.045833 0.062767
0.861616 0.045833 0.062767
0.861616 0.045833 0.062767
0.861616 0.045833 0.062767
0.861616 0.045833 0.062767
0.861616 0.045833 0.062767
0.861616 0.045833 0.062767
0.861616 0.045833 0.062767
0.861616 0.045833 0.062767
0.861616 0.045833 0.062767
0.861616 0.045833 0.062767
0.861616 0.045833 0.062767
0.861616 0.045833 0.062767
0.861616 0.045833 0.062767
0.861616 0.045833 0.062767
0.020731 0.454611 0.020426
0.020719 0.452607 0.021013
0.020710 0.450597 0.021606
0.020703 0.448578 0.022206
0.020699 0.446552 0.022811
0.020697 0.444519 0.023422
0.020699 0.441965 0.024193
0.020706 0.438364 0.025289
0.020725 0.433557 0.026763
0.020767 0.427130 0.028748
0.020841 0.418771 0.031344
0.125473 0.410618 0.024254
0.252540 0.398394 0.016835
0.396288 0.380817 0.010557
0.568446 0.356317 0.005723
0.730675 0.322975 0.004012
0.857279 0.277075 0.004910
0.935757 0.213519 0.012151
0.932144 0.128003 0.037515
0.861616 0.045833 0.062767
0.861616 0.045833 0.062767
0.861616 0.045833 0.062767
0.861616 0.045833 0.062767
0.861616 0.045833 0.062767
0.861616 0.045833 0.062767
0.861616 0.045833 0.062767
0.861616 0.045833 0.062767
0.861616 0.045833 0.062767
0.861616 0.045833 0.062767
0.861616 0.045833 0.062767
0.861616 0.045833 0.062767
0.861616 0.045833 0.062767
0.861616 0.045833 0.062767
0.027165 0.570656 0.000859
0.027104 0.569110 0.000950
0.027038 0.567559 0.001045
0.026969 0.566003 0.001143
0.026896 0.564442 0.001245
0.026819 0.562877 0.001351
0.026718 0.560911 0.001489
0.026565 0.558140 0.001693
0.026345 0.554445 0.001981
0.026021 0.549508 0.002393
0.025536 0.542892 0.002995
0.027716 0.533975 0.003802
0.174172 0.521023 0.001222
0.331988 0.503778 0.000000
0.508907 0.480288 0.000000
0.691928 0.447910 0.000000
0.837898 0.405312 0.000000
0.936846 0.351211 0.000000
0.984938 0.272695 0.001735
0.954879 0.160909 0.025216
0.861616 0.045833 0.062767
0.861616 0.045833 0.062767
0.861616 0.045833 0.062767
0.861616 0.045833 0.062767
0.861616 0.045833 0.062767
0.861616 0.045833 0.062767
0.861616 0.045833 0.062767
0.861616 0.045833 0.062767
0.861616 0.045833 0.062767
0.861616 0.045833 0.062767
0.861616 0.045833 0.062767
0.861616 0.045833 0.062767
0.861616 0.045833 0.062767
0.026772 0.687683 0.000000
0.026788 0.686551 0.000000
0.026804 0.685415 0.000000
0.026821 0.684275 0.000000
0.026837 0.683130 0.000000
0.026853 0.681982 0.000000
0.026874 0.680539 0.000000
0.026903 0.678503 0.000000
0.026941 0.675786 0.000000
0.026993 0.672150 0.000000
0.027062 0.667268 0.000000
0.027156 0.660687 0.000000
0.038600 0.651718 0.000000
0.223527 0.638762 0.000000
0.413551 0.621170 0.000000
0.625832 0.596831 0.000000
0.800398 0.562831 0.000000
0.918135 0.514164 0.000000
0.980549 0.442403 0.000000
0.986368 0.346710 0.000000
0.975166 0.204111 0.011608
0.861616 0.045833 0.062767
0.861616 0.045833 0.062767
0.861616 0.045833 0.062767
0.861616 0.045833 0.062767
0.861616 0.045833 0.062767
0.861616 0.045833 0.062767
0.861616 0.045833 0.062767
0.861616 0.045833 0.062767
0.861616 0.045833 0.062767
0.861616 0.045833 0.062767
0.861616 0.045833 0.062767
0.861616 0.045833 0.062767
0.025248 0.794876 0.000000
0.025258 0.794139 0.000000
0.025269 0.793399 0.000000
0.025279 0.792656 0.000000
0.025290 0.791911 0.000000
0.025300 0.791163 0.000000
0.025314 0.790223 0.000000
0.025333 0.788897 0.000000
0.025358 0.787127 0.000000
0.025391 0.784759 0.000000
0.025437 0.781578 0.000000
0.025498 0.777289 0.000000
0.025580 0.771473 0.000000
0.049160 0.763427 0.000000
0.282939 0.751479 0.000000
0.519324 0.734365 0.001742
0.735038 0.711246 0.014219
0.878397 0.679795 0.018742
0.961570 0.632386 0.010035
0.982842 0.557499 0.000000
0.985090 0.436545 0.000000
0.984606 0.261469 0.002662
0.861616 0.045833 0.062767
0.861616 0.045833 0.062767
0.861616 0.045833 0.062767
0.861616 0.045833 0.062767
0.861616 0.045833 0.062767
0.861616 0.045833 0.062767
0.861616 0.045833 0.062767
0.861616 0.045833 0.062767
0.861616 0.045833 0.062767
0.861616 0.045833 0.062767
0.861616 0.045833 0.062767
0.027090 0.880014 0.001595
0.027035 0.879623 0.001507
0.026980 0.879230 0.001419
0.026926 0.878836 0.001332
0.026872 0.878440 0.001245
0.026818 0.878042 0.001159
0.026752 0.877542 0.001052
0.026660 0.876837 0.000902
0.026540 0.875894 0.000706
0.026384 0.874630 0.000450
0.026184 0.872930 0.000118
0.025931 0.870631 0.000000
0.025618 0.867503 0.000000
0.025248 0.863207 0.000000
0.066982 0.856531 0.000000
0.362837 0.841714 0.022554
0.636238 0.825886 0.058211
0.821905 0.809276 0.082682
0.921339 0.785014 0.086094
0.950219 0.744677 0.065764
0.963584 0.675780 0.028559
0.983169 0.551233 0.000000
0.986542 0.333139 0.000000
0.861616 0.045833 0.062767
0.861616 0.045833 0.062767
0.861616 0.045833 0.062767
0.861616 0.045833 0.062767
0.861616 0.045833 0.062767
0.861616 0.045833 0.062767
0.861616 0.045833 0.062767
0.861616 0.045833 0.062767
0.861616 0.045833 0.062767
0.861616 0.045833 0.062767
0.040829 0.934793 0.021365
0.040769 0.934627 0.021283
0.040709 0.934460 0.021201
0.040648 0.934292 0.021118
0.040587 0.934123 0.021035
0.040526 0.933952 0.020952
0.040449 0.933737 0.020846
0.040339 0.933432 0.020697
0.040193 0.933021 0.020497
0.039996 0.932466 0.020229
0.039730 0.931710 0.019865
0.039370 0.930672 0.019370
0.038885 0.929260 0.018705
0.038238 0.927333 0.017812
0.037370 0.924675 0.016610
0.105910 0.918568 0.022772
0.464598 0.903250 0.074809
0.746981 0.894750 0.121727
0.891887 0.885760 0.139068
0.941446 0.868324 0.137846
0.941097 0.837239 0.121836
0.944926 0.781740 0.088500
0.964856 0.669692 0.025784
0.985354 0.418019 0.000000
0.861616 0.045833 0.062767
0.861616 0.045833 0.062767
0.861616 0.045833 0.062767
0.861616 0.045833 0.062767
0.861616 0.045833 0.062767
0.861616 0.045833 0.062767
0.861616 0.045833 0.062767
0.861616 0.045833 0.062767
0.861616 0.045833 0.062767
0.048010 0.952780 0.030985
0.048010 0.952780 0.030985
0.048010 0.952780 0.030985
0.048010 0.952780 0.030985
0.048010 0.952780 0.030985
0.048010 0.952780 0.030985
0.048010 0.952780 0.030985
0.048010 0.952780 0.030985
0.048010 0.952780 0.030985
0.048010 0.952780 0.030985
0.048010 0.952780 0.030985
0.048010 0.952780 0.030985
0.048010 0.952780 0.030985
0.048010 0.952780 0.030985
0.048010 0.952780 0.030985
0.048010 0.952780 0.030985
0.149554 0.948824 0.045247
0.581958 0.938066 0.118456
0.839169 0.939540 0.152705
0.940446 0.937710 0.157919
0.946539 0.927361 0.156826
0.944219 0.905973 0.152074
0.941340 0.865558 0.136551
0.945539 0.776643 0.085336
0.983719 0.531182 0.000000
0.861616 0.045833 0.062767
0.861616 0.045833 0.062767
0.861616 0.045833 0.062767
0.861616 0.045833 0.062767
0.861616 0.045833 0.062767
0.861616 0.045833 0.062767
0.861616 0.045833 0.062767
0.861616 0.045833 0.062767
0.048010 0.952780 0.030985
0.048010 0.952780 0.030985
0.048010 0.952780 0.030985
0.048010 0.952780 0.030985
0.048010 0.952780 0.030985
0.048010 0.952780 0.030985
0.048010 0.952780 0.030985
0.048010 0.952780 0.030985
0.048010 0.952780 0.030985
0.048010 0.952780 0.030985
0.048010 0.952780 0.030985
0.048010 0.952780 0.030985
0.048010 0.952780 0.030985
0.048010 0.952780 0.030985
0.048010 0.952780 0.030985
0.048010 0.952780 0.030985
0.048010 0.952780 0.030985
0.188293 0.947549 0.051248
0.689611 0.941144 0.136905
0.905343 0.947437 0.157837
0.949141 0.949141 0.159541
0.949141 0.949141 0.159541
0.948788 0.946200 0.159188
0.946330 0.925558 0.156533
0.941218 0.861724 0.134709
0.968954 0.649872 0.017481
0.861616 0.045833 0.062767
0.861616 0.045833 0.062767
0.861616 0.045833 0.062767
0.861616 0.045833 0.062767
0.861616 0.045833 0.062767
0.861616 0.045833 0.062767
0.861616 0.045833 0.062767
0.048010 0.952780 0.030985
0.048010 0.952780 0.030985
0.048010 0.952780 0.030985
0.048010 0.952780 0.030985
0.048010 0.952780 0.030985
0.048010 0.952780 0.030985
0.048010 0.952780 0.030985
0.048010 0.952780 0.030985
0.048010 0.952780 0.030985
0.048010 0.952780 0.030985
0.048010 0.952780 0.030985
0.048010 0.952780 0.030985
0.048010 0.952780 0.030985
0.048010 0.952780 0.030985
0.048010 0.952780 0.030985
0.048010 0.952780 0.030985
0.048010 0.952780 0.030985
0.048010 0.952780 0.030985
0.235907 0.945962 0.058872
0.786910 0.943354 0.149262
0.944802 0.948972 0.159372
0.949141 0.949141 0.159541
0.949141 0.949141 0.159541
0.949141 0.949141 0.159541
0.949141 0.949141 0.159541
0.946033 0.922961 0.156075
0.947835 0.759809 0.074942
0.861616 0.045833 0.062767
0.861616 0.045833 0.062767
0.861616 0.045833 0.062767
0.861616 0.045833 0.062767
0.861616 0.045833 0.062767
0.861616 0.045833 0.062767
0.048010 0.952780 0.030985
0.048010 0.952780 0.030985
0.048010 0.952780 0.030985
0.048010 0.952780 0.030985
0.048010 0.952780 0.030985
0.048010 0.952780 0.030985
0.048010 0.952780 0.030985
0.048010 0.952780 0.030985
0.048010 0.952780 0.030985
0.048010 0.952780 0.030985
0.048010 0.952780 0.030985
0.048010 0.952780 0.030985
0.048010 0.952780 0.030985
0.048010 0.952780 0.030985
0.048010 0.952780 0.030985
0.048010 0.952780 0.030985
0.048010 0.952780 0.030985
0.048010 0.952780 0.030985
0.048010 0.952780 0.030985
0.294170 0.944210 0.068620
0.866210 0.945952 0.155942
0.949141 0.949141 0.159541
0.949141 0.949141 0.159541
0.949141 0.949141 0.159541
0.949141 0.949141 0.159541
0.949141 0.949141 0.159541
0.949141 0.949141 0.159541
0.941012 0.848927 0.128199
0.861616 0.045833 0.062767
0.861616 0.045833 0.062767
0.861616 0.045833 0.062767
0.861616 0.045833 0.062767
0.861616 0.045833 0.062767
0.048010 0.952780 0.030985
0.048010 0.952780 0.030985
0.048010 0.952780 0.030985
0.048010 0.952780 0.030985
0.048010 0.952780 0.030985
0.048010 0.952780 0.030985
0.048010 0.952780 0.030985
0.048010 0.952780 0.030985
0.048010 0.952780 0.030985
0.048010 0.952780 0.030985
0.048010 0.952780 0.030985
0.048010 0.952780 0.030985
0.048010 0.952780 0.030985
0.048010 0.952780 0.030985
0.048010 0.952780 0.030985
0.048010 0.952780 0.030985
0.048010 0.952780 0.030985
0.048010 0.952780 0.030985
0.048010 0.952780 0.030985
0.048010 0.952780 0.030985
0.364172 0.942447 0.080817
0.923645 0.948149 0.158549
0.949141 0.949141 0.159541
0.949141 0.949141 0.159541
0.949141 0.949141 0.159541
0.949141 0.949141 0.159541
0.949141 0.949141 0.159541
0.949141 0.949141 0.159541
0.945062 0.914152 0.154211
0.861616 0.045833 0.062767
0.861616 0.045833 0.062767
0.861616 0.045833 0.062767
0.861616 0.045833 0.062767
0.048010 0.952780 0.030985
0.048010 0.952780 0.030985
0.048010 0.952780 0.030985
0.048010 0.952780 0.030985
0.048010 0.952780 0.030985
0.048010 0.952780 0.030985
0.048010 0.952780 0.030985
0.048010 0.952780 0.030985
0.048010 0.952780 0.030985
0.048010 0.952780 0.030985
0.048010 0.952780 0.030985
0.048010 0.952780 0.030985
0.048010 0.952780 0.030985
0.048010 0.952780 0.030985
0.048010 0.952780 0.030985
0.048010 0.952780 0.030985
0.048010 0.952780 0.030985
0.048010 0.952780 0.030985
0.048010 0.952780 0.030985
0.048010 0.952780 0.030985
0.048010 0.952780 0.030985
0.445466 0.940964 0.095388
0.949141 0.949141 0.159541
0.949141 0.949141 0.159541
0.949141 0.949141 0.159541
0.949141 0.949141 0.159541
0.949141 0.949141 0.159541
0.949141 0.949141 0.159541
0.949141 0.949141 0.159541
0.949141 0.949141 0.159541
0.861616 0.045833 0.062767
0.861616 0.045833 0.062767
0.861616 0.045833 0.062767
0.048010 0.952780 0.030985
0.048010 0.952780 0.030985
0.048010 0.952780 0.030985
0.048010 0.952780 0.030985
0.048010 0.952780 0.030985
0.048010 0.952780 0.030985
0.048010 0.952780 0.030985
0.048010 0.952780 0.030985
0.048010 0.952780 0.030985
0.048010 0.952780 0.030985
0.048010 0.952780 0.030985
0.048010 0.952780 0.030985
0.048010 0.952780 0.030985
0.048010 0.952780 0.030985
0.048010 0.952780 0.030985
0.048010 0.952780 0.030985
0.048010 0.952780 0.030985
0.048010 0.952780 0.030985
0.048010 0.952780 0.030985
0.048010 0.952780 0.030985
0.048010 0.952780 0.030985
0.048010 0.952780 0.030985
0.548870 0.940123 0.113896
0.949141 0.949141 0.159541
0.949141 0.949141 0.159541
0.949141 0.949141 0.159541
0.949141 0.949141 0.159541
0.949141 0.949141 0.159541
0.949141 0.949141 0.159541
0.949141 0.949141 0.159541
0.949141 0.949141 0.159541
0.861616 0.045833 0.062767
0.861616 0.045833 0.062767
0.048010 0.952780 0.030985
0.048010 0.952780 0.030985
0.048010 0.952780 0.030985
0.048010 0.952780 0.030985
0.048010 0.952780 0.030985
0.048010 0.952780 0.030985
0.048010 0.952780 0.030985
0.048010 0.952780 0.030985
0.048010 0.952780 0.030985
0.048010 0.952780 0.030985
0.048010 0.952780 0.030985
0.048010 0.952780 0.030985
0.048010 0.952780 0.030985
0.048010 0.952780 0.030985
0.048010 0.952780 0.030985
0.048010 0.952780 0.030985
0.048010 0.952780 0.030985
0.048010 0.952780 0.030985
0.048010 0.952780 0.030985
0.048010 0.952780 0.030985
0.048010 0.952780 0.030985
0.048010 0.952780 0.030985
0.048010 0.952780 0.030985
0.657221 0.940677 0.132011
0.949141 0.949141 0.159541
0.949141 0.949141 0.159541
0.949141 0.949141 0.159541
0.949141 0.949141 0.159541
