pipelines/.agents/skills/broll-ingest/luts/buildloop-FINAL.cube
# buildloop-cinema v4 — 2383-style toe/shoulder + teal shadows + lime neutral-highlights
LUT_3D_SIZE 33
0.003874 0.027394 0.052594
0.004586 0.027422 0.052622
0.020239 0.028031 0.053231
0.037863 0.028717 0.053917
0.057575 0.029484 0.054684
0.079463 0.030336 0.055536
0.103571 0.031274 0.056474
0.129887 0.032298 0.057498
0.158336 0.033406 0.058606
0.188767 0.034590 0.059790
0.220954 0.035843 0.061043
0.254607 0.037149 0.062338
0.289438 0.038476 0.063574
0.325035 0.039804 0.064721
0.364717 0.041252 0.065869
0.407179 0.042769 0.066957
0.448909 0.044223 0.067893
0.489820 0.045484 0.068594
0.529678 0.046480 0.069015
0.568078 0.047212 0.069171
0.604654 0.047701 0.069090
0.639102 0.047977 0.068812
0.671195 0.048075 0.068381
0.700784 0.048035 0.067842
0.727805 0.047893 0.067235
0.752261 0.047680 0.066595
0.774219 0.047423 0.065949
0.793794 0.047144 0.065319
0.811132 0.046858 0.064720
0.826402 0.046578 0.064162
0.839785 0.046311 0.063649
0.851463 0.046061 0.063184
0.861616 0.045833 0.062767
0.005684 0.042488 0.054404
0.006396 0.042516 0.054432
0.022049 0.043125 0.055041
0.039672 0.043811 0.055727
0.059385 0.044578 0.056494
0.081273 0.045430 0.057346
0.105381 0.046368 0.058284
0.131697 0.047393 0.059308
0.160146 0.048500 0.060415
0.190577 0.049684 0.061600
0.222803 0.050927 0.062809
0.256580 0.052205 0.063968
0.291544 0.053500 0.065059
0.327269 0.054798 0.066065
0.367085 0.056215 0.067067
0.409709 0.057692 0.068002
0.452053 0.058983 0.068687
0.493795 0.060024 0.069074
0.534482 0.060802 0.069169
0.573684 0.061325 0.068997
0.611016 0.061618 0.068596
0.646163 0.061714 0.068014
0.678887 0.061651 0.067300
0.709041 0.061468 0.066503
0.736556 0.061200 0.065663
0.761443 0.060879 0.064815
0.783773 0.060529 0.063987
0.803666 0.060171 0.063199
0.821276 0.059818 0.062461
0.836791 0.059480 0.061772
0.850395 0.059165 0.061139
0.862270 0.058875 0.060565
0.872598 0.058612 0.060049
0.007733 0.059581 0.056453
0.008445 0.059609 0.056481
0.024098 0.060218 0.057090
0.041722 0.060904 0.057776
0.061434 0.061671 0.058543
0.083322 0.062523 0.059395
0.107430 0.063462 0.060333
0.133747 0.064486 0.061358
0.162213 0.065589 0.062445
0.192738 0.066751 0.063527
0.225108 0.067961 0.064578
0.259027 0.069204 0.065581
0.294129 0.070467 0.066520
0.329988 0.071733 0.067380
0.370024 0.073096 0.068206
0.413348 0.074390 0.068828
0.456566 0.075454 0.069137
0.499201 0.076263 0.069130
0.540771 0.076814 0.068826
0.580819 0.077122 0.068260
0.618944 0.077214 0.067482
0.654814 0.077128 0.066548
0.688187 0.076903 0.065511
0.718912 0.076577 0.064422
0.746925 0.076187 0.063323
0.772244 0.075760 0.062245
0.794974 0.075321 0.061195
0.815235 0.074887 0.060193
0.833179 0.074470 0.059257
0.848980 0.074079 0.058397
0.862824 0.073719 0.057617
0.874902 0.073392 0.056917
0.885399 0.073098 0.056294
0.010041 0.078826 0.058761
0.010753 0.078854 0.058788
0.026406 0.079463 0.059397
0.044029 0.080149 0.060083
0.063741 0.080916 0.060851
0.085630 0.081768 0.061702
0.109764 0.082700 0.062611
0.136167 0.083704 0.063540
0.164774 0.084774 0.064474
0.195446 0.085901 0.065394
0.227964 0.087076 0.066283
0.262029 0.088285 0.067126
0.297281 0.089513 0.067906
0.333487 0.090692 0.068539
0.374250 0.091869 0.068996
0.418462 0.092937 0.069173
0.462614 0.093765 0.069011
0.506192 0.094338 0.068523
0.548684 0.094659 0.067742
0.589606 0.094750 0.066718
0.628536 0.094643 0.065510
0.665132 0.094379 0.064180
0.699147 0.093997 0.062787
0.730460 0.093536 0.061360
0.759037 0.093030 0.059925
0.784878 0.092506 0.058525
0.808055 0.091985 0.057193
0.828690 0.091483 0.055951
0.846946 0.091011 0.054810
0.863005 0.090575 0.053776
0.877064 0.090177 0.052849
0.889319 0.089820 0.052025
0.899963 0.089501 0.051297
0.012621 0.100352 0.061341
0.013334 0.100380 0.061369
0.028989 0.100988 0.061976
0.046638 0.101668 0.062633
0.066411 0.102421 0.063334
0.088404 0.103248 0.064071
0.112673 0.104149 0.064832
0.139217 0.105119 0.065607
0.167970 0.106155 0.066380
0.198789 0.107248 0.067138
0.231458 0.108387 0.067863
0.265787 0.109534 0.068480
0.301546 0.110638 0.068921
0.338412 0.111655 0.069148
0.379990 0.112633 0.069118
0.425147 0.113470 0.068741
0.470277 0.114059 0.068010
0.514828 0.114394 0.066957
0.558255 0.114489 0.065630
0.600048 0.114369 0.064093
0.639769 0.114073 0.062413
0.677132 0.113642 0.060613
0.711897 0.113117 0.058744
0.743891 0.112535 0.056874
0.773040 0.111928 0.055056
0.799356 0.111321 0.053332
0.822923 0.110734 0.051725
0.843876 0.110180 0.050252
0.862388 0.109666 0.048918
0.878654 0.109198 0.047723
0.892878 0.108776 0.046662
0.905266 0.108400 0.045726
0.916016 0.108067 0.044906
0.015482 0.124222 0.064074
0.016386 0.124238 0.064030
0.032137 0.124824 0.064532
0.049893 0.125479 0.065072
0.069783 0.126204 0.065644
0.091902 0.127002 0.066243
0.116304 0.127871 0.066858
0.142987 0.128809 0.067480
0.171889 0.129810 0.068085
0.202929 0.130855 0.068597
0.235974 0.131911 0.068970
0.270823 0.132939 0.069158
0.307207 0.133899 0.069123
0.344788 0.134750 0.068837
0.387232 0.135524 0.068210
0.433373 0.136130 0.067174
0.479500 0.136484 0.065789
0.525023 0.136590 0.064104
0.569368 0.136470 0.062180
0.612095 0.136157 0.060028
0.652757 0.135690 0.057717
0.690965 0.135112 0.055338
0.726441 0.134465 0.052970
0.759021 0.133786 0.050677
0.788642 0.133103 0.048506
0.815330 0.132439 0.046490
0.839185 0.131811 0.044645
0.860358 0.131228 0.042978
0.879034 0.130696 0.041488
0.895420 0.130216 0.040169
0.909731 0.129789 0.039008
0.922180 0.129411 0.037992
0.932971 0.129079 0.037108
0.018609 0.150375 0.066519
0.020254 0.150397 0.066406
0.036100 0.150960 0.066803
0.053961 0.151590 0.067228
0.073963 0.152289 0.067677
0.096194 0.153063 0.068127
0.120709 0.153913 0.068537
0.147548 0.154826 0.068874
0.176701 0.155785 0.069099
0.208104 0.156760 0.069172
0.241624 0.157718 0.069050
0.277058 0.158621 0.068695
0.314123 0.159431 0.068077
0.352463 0.160113 0.067180
0.395805 0.160685 0.065864
0.442939 0.161065 0.064094
0.490056 0.161195 0.061995
0.536640 0.161091 0.059553
0.582093 0.160778 0.056841
0.625829 0.160296 0.053965
0.667348 0.159687 0.051028
0.706259 0.158997 0.048122
0.742291 0.158265 0.045320
0.775292 0.157525 0.042680
0.805217 0.156805 0.040237
0.832113 0.156121 0.038011
0.856098 0.155487 0.036010
0.877340 0.154910 0.034230
0.896040 0.154390 0.032660
0.912417 0.153929 0.031286
0.926697 0.153522 0.030089
0.939101 0.153166 0.029053
0.949841 0.152856 0.028158
0.021933 0.178798 0.068531
0.024930 0.178854 0.068371
0.040797 0.179423 0.068613
0.058672 0.180064 0.068836
0.078697 0.180778 0.069021
0.100992 0.181560 0.069142
0.125648 0.182401 0.069169
0.152719 0.183284 0.069067
0.182206 0.184188 0.068797
0.214049 0.185082 0.068320
0.248116 0.185932 0.067599
0.284195 0.186703 0.066606
0.321987 0.187360 0.065323
0.361110 0.187873 0.063751
0.405370 0.188248 0.061685
0.453631 0.188416 0.059037
0.501974 0.188345 0.056009
0.549705 0.188055 0.052708
0.596152 0.187583 0.049248
0.640710 0.186971 0.045746
0.682870 0.186266 0.042305
0.722248 0.185513 0.039010
0.758588 0.184748 0.035925
0.791760 0.184002 0.033093
0.821741 0.183296 0.030534
0.848605 0.182644 0.028253
0.872490 0.182053 0.026242
0.893587 0.181526 0.024486
0.912114 0.181062 0.022963
0.928305 0.180656 0.021650
0.942393 0.180304 0.020524
0.954608 0.180001 0.019559
0.965168 0.179741 0.018737
0.024473 0.209750 0.069396
0.029453 0.209883 0.069172
0.045314 0.210478 0.069139
0.063223 0.211137 0.069042
0.083335 0.211858 0.068858
0.105784 0.212632 0.068558
0.130675 0.213446 0.068109
0.158069 0.214282 0.067477
0.187977 0.215115 0.066624
0.220339 0.215913 0.065518
0.255018 0.216645 0.064132
0.291788 0.217276 0.062451
0.330405 0.217778 0.060419
0.370503 0.218128 0.058023
0.415953 0.218320 0.054999
0.465442 0.218297 0.051392
0.514886 0.218052 0.047524
0.563547 0.217615 0.043519
0.610725 0.217032 0.039506
0.655803 0.216347 0.035601
0.698277 0.215610 0.031902
0.737776 0.214861 0.028478
0.774071 0.214133 0.025376
0.807060 0.213450 0.022616
0.836756 0.212828 0.020197
0.863260 0.212273 0.018105
0.886740 0.211787 0.016313
0.907410 0.211369 0.014792
0.925505 0.211011 0.013509
0.941274 0.210709 0.012431
0.954961 0.210456 0.011529
0.966802 0.210243 0.010775
0.977017 0.210066 0.010146
0.025473 0.243366 0.068384
0.033084 0.243611 0.068036
0.049025 0.244213 0.067667
0.067062 0.244869 0.067187
0.087359 0.245575 0.066571
0.110063 0.246319 0.065788
0.135286 0.247085 0.064806
0.163097 0.247852 0.063594
0.193515 0.248594 0.062117
0.226541 0.249282 0.060304
0.262053 0.249885 0.058123
0.299814 0.250374 0.055570
0.339482 0.250722 0.052664
0.380612 0.250914 0.049447
0.427132 0.250937 0.045610
0.477634 0.250750 0.041269
0.527896 0.250373 0.036837
0.577147 0.249845 0.032454
0.624666 0.249216 0.028251
0.669834 0.248535 0.024335
0.712164 0.247847 0.020785
0.751316 0.247188 0.017647
0.787095 0.246584 0.014936
0.819443 0.246051 0.012643
0.848413 0.245595 0.010740
0.874143 0.245217 0.009187
0.896833 0.244910 0.007938
0.916722 0.244668 0.006948
0.934067 0.244480 0.006170
0.949127 0.244338 0.005566
0.962157 0.244232 0.005100
0.973416 0.244150 0.004731
0.983148 0.244082 0.004421
0.024476 0.279604 0.064970
0.035337 0.279984 0.064394
0.051453 0.280569 0.063660
0.069716 0.281197 0.062773
0.090317 0.281861 0.061692
0.113435 0.282549 0.060369
0.139202 0.283243 0.058766
0.167702 0.283919 0.056850
0.198954 0.284552 0.054594
0.232895 0.285113 0.051983
0.269366 0.285574 0.049019
0.308096 0.285909 0.045727
0.348703 0.286102 0.042156
0.390702 0.286145 0.038376
0.438046 0.286021 0.034066
0.489218 0.285712 0.029421
0.539885 0.285259 0.024915
0.589246 0.284711 0.020690
0.636575 0.284120 0.016866
0.681267 0.283534 0.013529
0.722868 0.282994 0.010722
0.761082 0.282526 0.008454
0.795767 0.282148 0.006700
0.826916 0.281863 0.005411
0.854680 0.281659 0.004487
0.879406 0.281489 0.003732
0.901303 0.281345 0.003109
0.920587 0.281224 0.002598
0.937486 0.281122 0.002180
0.952232 0.281037 0.001839
0.965052 0.280966 0.001562
0.976162 0.280906 0.001336
0.985763 0.280856 0.001152
0.021742 0.318285 0.058741
0.036203 0.318787 0.057755
0.052706 0.319329 0.056581
0.071450 0.319903 0.055191
0.092622 0.320499 0.053553
0.116389 0.321101 0.051637
0.142881 0.321691 0.049418
0.172174 0.322246 0.046877
0.204272 0.322740 0.044008
0.239089 0.323149 0.040822
0.276432 0.323450 0.037352
0.315990 0.323625 0.033655
0.357338 0.323666 0.029810
0.399940 0.323575 0.025919
0.447741 0.323337 0.021701
0.499109 0.322958 0.017424
0.549628 0.322499 0.013570
0.598485 0.322015 0.010271
0.644965 0.321558 0.007617
0.688497 0.321172 0.005650
0.728742 0.320876 0.004295
0.765765 0.320627 0.003205
0.799524 0.320417 0.002322
0.830037 0.320242 0.001624
0.857399 0.320096 0.001083
0.881764 0.319978 0.000675
0.903324 0.319881 0.000373
0.922303 0.319801 0.000151
0.938948 0.319731 0.000000
0.953483 0.319671 0.000000
0.966128 0.319618 0.000000
0.977094 0.319572 0.000000
0.986575 0.319532 0.000000
0.021580 0.359159 0.049038
0.036464 0.359599 0.047708
0.053452 0.360064 0.046165
0.072745 0.360548 0.044383
0.094532 0.361036 0.042340
0.118977 0.361514 0.040020
0.146200 0.361962 0.037414
0.176262 0.362360 0.034526
0.209143 0.362686 0.031379
0.244725 0.362920 0.028015
0.282773 0.363046 0.024502
0.322930 0.363056 0.020930
0.364720 0.362954 0.017411
0.407560 0.362751 0.014071
0.455338 0.362441 0.010740
0.506304 0.362052 0.007746
0.556010 0.361664 0.005505
0.603739 0.361323 0.003948
0.649130 0.361028 0.002676
0.691787 0.360778 0.001665
0.731424 0.360570 0.000901
0.767870 0.360402 0.000362
0.801092 0.360263 0.000000
0.831163 0.360138 0.000000
0.858169 0.360025 0.000000
0.882248 0.359924 0.000000
0.903584 0.359835 0.000000
0.922383 0.359756 0.000000
0.938881 0.359687 0.000000
0.953302 0.359627 0.000000
0.965860 0.359574 0.000000
0.976757 0.359528 0.000000
0.986186 0.359489 0.000000
0.021047 0.401377 0.036732
0.036391 0.401719 0.035215
0.053893 0.402071 0.033488
0.073755 0.402425 0.031537
0.096161 0.402766 0.029355
0.121265 0.403080 0.026945
0.149172 0.403350 0.024322
0.179917 0.403558 0.021521
0.213450 0.403687 0.018598
0.249610 0.403724 0.015630
0.288115 0.403664 0.012723
0.328557 0.403510 0.009999
0.370408 0.403277 0.007598
0.413039 0.402988 0.005659
0.460255 0.402652 0.004086
0.510396 0.402325 0.002671
0.559268 0.402040 0.001529
0.606276 0.401802 0.000678
0.650929 0.401608 0.000108
0.692945 0.401433 0.000000
0.732067 0.401269 0.000000
0.768113 0.401118 0.000000
0.801027 0.400980 0.000000
0.830875 0.400855 0.000000
0.857731 0.400743 0.000000
0.881721 0.400643 0.000000
0.903013 0.400553 0.000000
0.921803 0.400475 0.000000
0.938301 0.400406 0.000000
0.952723 0.400345 0.000000
0.965280 0.400293 0.000000
0.976178 0.400247 0.000000
0.985607 0.400208 0.000000
0.020703 0.448471 0.022238
0.036560 0.448665 0.020788
0.054624 0.448851 0.019181
0.075089 0.449018 0.017420
0.098130 0.449153 0.015524
0.123881 0.449243 0.013523
0.152422 0.449275 0.011470
0.183753 0.449236 0.009434
0.217779 0.449117 0.007515
0.254287 0.448916 0.005831
0.292929 0.448646 0.004487
0.333195 0.448373 0.003285
0.374590 0.448116 0.002207
0.416582 0.447882 0.001293
0.463008 0.447655 0.000515
0.512262 0.447446 0.000000
0.560358 0.447245 0.000000
0.606726 0.447051 0.000000
0.650897 0.446867 0.000000
0.692588 0.446692 0.000000
0.731512 0.446529 0.000000
0.767475 0.446379 0.000000
0.800383 0.446241 0.000000
0.830231 0.446116 0.000000
0.857087 0.446003 0.000000
0.881077 0.445903 0.000000
0.902370 0.445814 0.000000
0.921160 0.445735 0.000000
0.937658 0.445666 0.000000
0.952079 0.445606 0.000000
0.964637 0.445553 0.000000
0.975534 0.445508 0.000000
0.984963 0.445468 0.000000
0.021899 0.498069 0.009286
0.038271 0.498061 0.008325
0.056882 0.498022 0.007327
0.077916 0.497941 0.006325
0.101526 0.497808 0.005372
0.127796 0.497622 0.004499
0.156668 0.497424 0.003622
0.188094 0.497222 0.002753
0.221949 0.497019 0.001924
0.258021 0.496823 0.001175
0.296002 0.496638 0.000547
0.335509 0.496470 0.000067
0.376173 0.496300 0.000000
0.417497 0.496127 0.000000
0.463282 0.495935 0.000000
0.512051 0.495731 0.000000
0.559834 0.495531 0.000000
0.606053 0.495338 0.000000
0.650210 0.495153 0.000000
0.691901 0.494978 0.000000
0.730825 0.494816 0.000000
0.766788 0.494665 0.000000
0.799696 0.494527 0.000000
0.829544 0.494402 0.000000
0.856400 0.494290 0.000000
0.880391 0.494189 0.000000
0.901683 0.494100 0.000000
0.920473 0.494022 0.000000
0.936971 0.493953 0.000000
0.951392 0.493892 0.000000
0.963950 0.493840 0.000000
0.974847 0.493794 0.000000
0.984277 0.493755 0.000000
0.025712 0.545210 0.002778
0.042179 0.545109 0.002359
0.060791 0.545000 0.001918
0.081699 0.544884 0.001467
0.105025 0.544762 0.001021
0.130845 0.544638 0.000601
0.159184 0.544514 0.000233
0.190040 0.544385 0.000000
0.223327 0.544246 0.000000
0.258849 0.544098 0.000000
0.296318 0.543941 0.000000
0.335414 0.543777 0.000000
0.375771 0.543608 0.000000
0.416897 0.543436 0.000000
0.462609 0.543245 0.000000
0.511378 0.543041 0.000000
0.559161 0.542841 0.000000
0.605380 0.542647 0.000000
0.649538 0.542462 0.000000
0.691228 0.542288 0.000000
0.730152 0.542125 0.000000
0.766115 0.541974 0.000000
0.799023 0.541837 0.000000
0.828871 0.541712 0.000000
0.855727 0.541599 0.000000
0.879718 0.541499 0.000000
0.901010 0.541410 0.000000
0.919800 0.541331 0.000000
0.936291 0.541262 0.000000
0.950693 0.541202 0.000000
0.963224 0.541149 0.000000
0.974091 0.541104 0.000000
0.983490 0.541064 0.000000
0.027654 0.590824 0.000000
0.043843 0.590757 0.000000
0.062156 0.590680 0.000000
0.082746 0.590594 0.000000
0.105740 0.590498 0.000000
0.131227 0.590391 0.000000
0.159250 0.590274 0.000000
0.189834 0.590146 0.000000
0.222896 0.590008 0.000000
0.258261 0.589860 0.000000
0.295667 0.589703 0.000000
0.334763 0.589539 0.000000
0.375120 0.589370 0.000000
0.416246 0.589198 0.000000
0.461959 0.589007 0.000000
0.510728 0.588803 0.000000
0.558510 0.588603 0.000000
0.604729 0.588409 0.000000
0.648887 0.588224 0.000000
0.690577 0.588050 0.000000
0.729501 0.587887 0.000000
0.765464 0.587736 0.000000
0.798339 0.587599 0.000000
0.828104 0.587474 0.000000
0.854841 0.587362 0.000000
0.878624 0.587268 0.000000
0.899623 0.587192 0.000000
0.918061 0.587135 0.000000
0.934173 0.587094 0.000000
0.948195 0.587067 0.000000
0.960356 0.587049 0.000000
0.970871 0.587040 0.000000
0.979940 0.587036 0.000000
0.027528 0.634543 0.000000
0.043592 0.634476 0.000000
0.061783 0.634400 0.000000
0.082264 0.634314 0.000000
0.105173 0.634218 0.000000
0.130611 0.634112 0.000000
0.158628 0.633995 0.000000
0.189212 0.633866 0.000000
0.222274 0.633728 0.000000
0.257639 0.633580 0.000000
0.295046 0.633423 0.000000
0.334142 0.633260 0.000000
0.374498 0.633091 0.000000
0.415624 0.632919 0.000000
0.461337 0.632727 0.000000
0.510106 0.632523 0.000000
0.557888 0.632323 0.000000
0.604107 0.632130 0.000000
0.648233 0.631945 0.000000
0.689796 0.631771 0.000000
0.728488 0.631602 0.000000
0.764046 0.631437 0.000000
0.796379 0.631293 0.000000
0.825506 0.631178 0.000000
0.851532 0.631095 0.000793
0.874623 0.631042 0.002257
0.894984 0.631015 0.003716
0.912842 0.631008 0.005127
0.928434 0.631017 0.006459
0.941994 0.631037 0.007692
0.953748 0.631065 0.008818
0.963906 0.631096 0.009833
0.972664 0.631129 0.010739
0.026941 0.675821 0.000000
0.043005 0.675754 0.000000
0.061196 0.675678 0.000000
0.081677 0.675592 0.000000
0.104586 0.675496 0.000000
0.130024 0.675390 0.000000
0.158041 0.675273 0.000000
0.188625 0.675145 0.000000
0.221687 0.675006 0.000000
0.257052 0.674858 0.000000
0.294459 0.674701 0.000000
0.333555 0.674538 0.000000
0.373911 0.674369 0.000000
0.415037 0.674197 0.000000
0.460750 0.674005 0.000000
0.509482 0.673801 0.000000
0.557106 0.673602 0.000000
0.603065 0.673371 0.000000
0.646809 0.673102 0.000000
0.687871 0.672836 0.000000
0.725935 0.672599 0.001665
0.760822 0.672408 0.004107
0.792477 0.672268 0.006708
0.820944 0.672179 0.009357
0.846346 0.672133 0.011968
0.868859 0.672125 0.014473
0.888695 0.672146 0.016829
0.906081 0.672188 0.019007
0.921254 0.672243 0.020994
0.934445 0.672306 0.022786
0.945876 0.672373 0.024386
0.955754 0.672441 0.025805
0.964268 0.672506 0.027054
0.026393 0.714360 0.000000
0.042457 0.714293 0.000000
0.060648 0.714217 0.000000
0.081129 0.714131 0.000000
0.104038 0.714035 0.000000
0.129476 0.713928 0.000000
0.157493 0.713811 0.000000
0.188077 0.713683 0.000000
0.221139 0.713545 0.000000
0.256504 0.713397 0.000000
0.293910 0.713240 0.000000
0.333006 0.713076 0.000000
0.373335 0.712908 0.000000
0.414342 0.712736 0.000000
0.459869 0.712510 0.000000
0.508438 0.712159 0.000000
0.555890 0.711747 0.000000
0.601547 0.711325 0.002054
0.644851 0.710933 0.005200
0.685384 0.710598 0.008739
0.722870 0.710335 0.012514
0.757163 0.710148 0.016382
0.788235 0.710033 0.020223
0.816148 0.709981 0.023941
0.841036 0.709982 0.027465
0.863081 0.710023 0.030747
0.882496 0.710093 0.033760
0.899511 0.710182 0.036493
0.914357 0.710282 0.038947
0.927264 0.710386 0.041131
0.938448 0.710490 0.043061
0.948113 0.710590 0.044756
0.956444 0.710684 0.046238
0.025886 0.749967 0.000000
0.041950 0.749900 0.000000
0.060141 0.749824 0.000000
0.080622 0.749738 0.000000
0.103531 0.749642 0.000000
0.128969 0.749536 0.000000
0.156986 0.749418 0.000000
0.187570 0.749290 0.000000
0.220632 0.749152 0.000000
0.255963 0.749004 0.000000
0.293256 0.748848 0.000000
0.332218 0.748653 0.000000
0.372552 0.748340 0.000000
0.413694 0.747930 0.000000
0.459359 0.747404 0.000740
0.507883 0.746803 0.003901
0.555117 0.746213 0.007746
0.600422 0.745677 0.012127
0.643284 0.745222 0.016880
0.683322 0.744865 0.021839
0.720291 0.744610 0.026850
0.754071 0.744453 0.031781
0.784653 0.744381 0.036523
0.812110 0.744380 0.040998
0.836583 0.744435 0.045153
0.858258 0.744529 0.048958
0.877347 0.744651 0.052402
0.894077 0.744788 0.055487
0.908678 0.744932 0.058230
0.921373 0.745076 0.060650
0.932376 0.745215 0.062773
0.941887 0.745346 0.064626
0.950088 0.745467 0.066237
0.025423 0.782550 0.000000
0.041487 0.782483 0.000000
0.059678 0.782406 0.000000
0.080159 0.782321 0.000000
0.103068 0.782225 0.000000
0.128496 0.782118 0.000000
0.156461 0.782001 0.000000
0.186939 0.781874 0.000000
0.219912 0.781699 0.000000
0.255351 0.781404 0.000000
0.292956 0.780990 0.000000
0.332314 0.780473 0.000000
0.372917 0.779877 0.002187
0.414190 0.779231 0.005126
0.459853 0.778499 0.009021
0.508222 0.777740 0.013862
0.555175 0.777049 0.019243
0.600110 0.776461 0.024999
0.642545 0.775993 0.030957
0.682129 0.775654 0.036953
0.718642 0.775437 0.042839
0.751986 0.775331 0.048494
0.782160 0.775318 0.053828
0.809248 0.775379 0.058778
0.833394 0.775495 0.063309
0.854783 0.775648 0.067407
0.873626 0.775823 0.071076
0.890146 0.776009 0.074334
0.904569 0.776197 0.077206
0.917115 0.776379 0.079722
0.927993 0.776552 0.081917
0.937398 0.776713 0.083822
0.945512 0.776860 0.085471
0.024995 0.812102 0.000000
0.041037 0.812035 0.000000
0.059186 0.811959 0.000000
0.079598 0.811874 0.000000
0.102418 0.811772 0.000000
0.127869 0.811598 0.000000
0.156040 0.811329 0.000000
0.186917 0.810955 0.000000
0.220394 0.810472 0.000000
0.256261 0.809886 0.001169
0.294197 0.809209 0.003616
0.333779 0.808461 0.006660
0.374497 0.807670 0.010299
0.415777 0.806870 0.014497
0.461334 0.806013 0.019704
0.509477 0.805168 0.025837
0.556117 0.804439 0.032369
0.600679 0.803848 0.039124
0.642711 0.803408 0.045928
0.681885 0.803117 0.052619
0.718002 0.802962 0.059062
0.750976 0.802925 0.065148
0.780817 0.802984 0.070803
0.807611 0.803115 0.075983
0.831503 0.803298 0.080669
0.852677 0.803513 0.084863
0.871340 0.803744 0.088584
0.887712 0.803981 0.091859
0.902013 0.804212 0.094725
0.914460 0.804433 0.097220
0.925257 0.804639 0.099383
0.934598 0.804829 0.101250
0.942660 0.805000 0.102859
0.024398 0.838659 0.000000
0.040522 0.838527 0.000000
0.058854 0.838341 0.000000
0.079571 0.838090 0.000000
0.102827 0.837761 0.000000
0.128729 0.837344 0.000000
0.157326 0.836832 0.000669
0.188588 0.836220 0.002546
0.222395 0.835513 0.004924
0.258521 0.834720 0.007853
0.296636 0.833859 0.011364
0.336311 0.832956 0.015463
0.377033 0.832042 0.020126
0.418234 0.831151 0.025295
0.463616 0.830232 0.031493
0.511492 0.829360 0.038575
0.557803 0.828639 0.045923
0.602003 0.828086 0.053355
0.643661 0.827704 0.060697
0.682469 0.827485 0.067796
0.718244 0.827409 0.074526
0.750908 0.827455 0.080797
0.780477 0.827594 0.086550
0.807040 0.827803 0.091758
0.830740 0.828056 0.096418
0.851757 0.828335 0.100547
0.870294 0.828624 0.104176
0.886566 0.828910 0.107344
0.900791 0.829185 0.110095
0.913179 0.829444 0.112472
0.923932 0.829683 0.114520
0.933240 0.829900 0.116278
0.941277 0.830096 0.117785
0.025137 0.861733 0.000000
0.041569 0.861448 0.000000
0.060220 0.861100 0.000000
0.081264 0.860676 0.000916
0.104842 0.860170 0.002326
0.131054 0.859573 0.004097
0.159934 0.858883 0.006288
0.191444 0.858101 0.008960
0.225447 0.857234 0.012161
0.261711 0.856299 0.015929
0.299897 0.855319 0.020277
0.339571 0.854320 0.025194
0.380221 0.853338 0.030635
0.421284 0.852406 0.036529
0.466451 0.851472 0.043445
0.514036 0.850617 0.051187
0.560020 0.849940 0.059071
0.603874 0.849452 0.066913
0.645189 0.849150 0.074542
0.683673 0.849019 0.081814
0.719153 0.849036 0.088617
0.751559 0.849172 0.094876
0.780909 0.849398 0.100549
0.807293 0.849686 0.105625
0.830850 0.850013 0.110117
0.851756 0.850357 0.114056
0.870211 0.850703 0.117484
0.886423 0.851039 0.120449
0.900606 0.851357 0.123000
0.912967 0.851653 0.125188
0.923704 0.851923 0.127057
0.933003 0.852168 0.128652
0.941036 0.852386 0.130009
0.027306 0.881513 0.001939
0.043958 0.881113 0.003000
0.062836 0.880642 0.004304
0.084107 0.880091 0.005900
0.107905 0.879454 0.007841
0.134321 0.878727 0.010183
0.163381 0.877910 0.012981
0.195035 0.877009 0.016287
0.229140 0.876035 0.020139
0.265454 0.875009 0.024561
0.303633 0.873956 0.029553
0.343241 0.872907 0.035087
0.383770 0.871898 0.041104
0.424661 0.870961 0.047517
0.469589 0.870048 0.054927
0.516878 0.869240 0.063095
0.562543 0.868632 0.071290
0.606074 0.868229 0.079330
0.647078 0.868021 0.087048
0.685276 0.867989 0.094311
0.720503 0.868105 0.101021
0.752695 0.868336 0.107118
0.781871 0.868651 0.112577
0.808118 0.869021 0.117403
0.831571 0.869420 0.121624
0.852404 0.869829 0.125282
0.870810 0.870231 0.128429
