pipelines/.agents/skills/broll-ingest/luts/buildloop-FINAL-slog3.cube
# buildloop-FINAL-slog3 — S-Log3/S-Gamut3.Cine -> Rec709 -> v4
LUT_3D_SIZE 9
0.003874 0.027394 0.052594
0.027964 0.028332 0.053532
0.135291 0.032509 0.057709
0.390544 0.042179 0.066548
0.786921 0.047247 0.065546
0.861616 0.045833 0.062767
0.861616 0.045833 0.062767
0.861616 0.045833 0.062767
0.861616 0.045833 0.062767
0.006052 0.045555 0.054772
0.004897 0.035923 0.053617
0.110388 0.031540 0.056740
0.370919 0.041476 0.066037
0.782180 0.047315 0.065699
0.861616 0.045833 0.062767
0.861616 0.045833 0.062767
0.861616 0.045833 0.062767
0.861616 0.045833 0.062767
0.016743 0.134761 0.065128
0.015567 0.124930 0.064148
0.078556 0.111330 0.064560
0.342911 0.066829 0.067307
0.774290 0.047422 0.065947
0.861616 0.045833 0.062767
0.861616 0.045833 0.062767
0.861616 0.045833 0.062767
0.861616 0.045833 0.062767
0.021594 0.357674 0.049437
0.021662 0.349841 0.051488
0.021734 0.337306 0.054577
0.298626 0.303153 0.041511
0.834904 0.170708 0.033239
0.861616 0.045833 0.062767
0.861616 0.045833 0.062767
0.861616 0.045833 0.062767
0.861616 0.045833 0.062767
0.025248 0.794876 0.000000
0.025290 0.791911 0.000000
0.025358 0.787127 0.000000
0.025580 0.771473 0.000000
0.735038 0.711246 0.014219
0.985090 0.436545 0.000000
0.861616 0.045833 0.062767
0.861616 0.045833 0.062767
0.861616 0.045833 0.062767
0.048010 0.952780 0.030985
0.048010 0.952780 0.030985
0.048010 0.952780 0.030985
0.048010 0.952780 0.030985
0.048010 0.952780 0.030985
0.949141 0.949141 0.159541
0.941218 0.861724 0.134709
0.861616 0.045833 0.062767
0.861616 0.045833 0.062767
0.048010 0.952780 0.030985
0.048010 0.952780 0.030985
0.048010 0.952780 0.030985
0.048010 0.952780 0.030985
0.048010 0.952780 0.030985
0.048010 0.952780 0.030985
0.949141 0.949141 0.159541
0.949141 0.949141 0.159541
0.861616 0.045833 0.062767
0.048010 0.952780 0.030985
0.048010 0.952780 0.030985
0.048010 0.952780 0.030985
0.048010 0.952780 0.030985
0.048010 0.952780 0.030985
0.048010 0.952780 0.030985
0.048010 0.952780 0.030985
0.949141 0.949141 0.159541
0.949141 0.949141 0.159541
0.048010 0.952780 0.030985
0.048010 0.952780 0.030985
0.048010 0.952780 0.030985
0.048010 0.952780 0.030985
0.048010 0.952780 0.030985
0.048010 0.952780 0.030985
0.048010 0.952780 0.030985
0.048010 0.952780 0.030985
0.949141 0.949141 0.159541
0.004016 0.027536 0.063043
0.028821 0.028500 0.063917
0.135985 0.032669 0.067944
0.391157 0.042317 0.076279
0.787630 0.047193 0.074107
0.861962 0.045789 0.067186
0.861616 0.045833 0.062767
0.861616 0.045833 0.062767
0.861616 0.045833 0.062767
0.006413 0.047640 0.064326
0.005240 0.037864 0.063064
0.111089 0.031685 0.065850
0.371523 0.041602 0.074658
0.782810 0.047270 0.073124
0.861876 0.045800 0.066087
0.861616 0.045833 0.062767
0.861616 0.045833 0.062767
0.861616 0.045833 0.062767
0.017070 0.136745 0.072841
0.015898 0.126956 0.071799
0.079595 0.113447 0.072079
0.343789 0.068989 0.074317
0.774797 0.047390 0.071601
0.861742 0.045817 0.064370
0.861616 0.045833 0.062767
0.861616 0.045833 0.062767
0.861616 0.045833 0.062767
0.021577 0.359215 0.051431
0.021648 0.351395 0.053394
0.021727 0.338879 0.056349
0.299534 0.304720 0.042722
0.836108 0.172367 0.032992
0.861616 0.045833 0.062767
0.861616 0.045833 0.062767
0.861616 0.045833 0.062767
0.861616 0.045833 0.062767
0.025239 0.795447 0.000000
0.025281 0.792491 0.000000
0.025349 0.787721 0.000000
0.025571 0.772111 0.000000
0.735226 0.712020 0.014539
0.985068 0.438081 0.000000
0.861616 0.045833 0.062767
0.861616 0.045833 0.062767
0.861616 0.045833 0.062767
0.048010 0.952780 0.030985
0.048010 0.952780 0.030985
0.048010 0.952780 0.030985
0.048010 0.952780 0.030985
0.048010 0.952780 0.030985
0.949141 0.949141 0.159541
0.941227 0.862055 0.134870
0.861616 0.045833 0.062767
0.861616 0.045833 0.062767
0.048010 0.952780 0.030985
0.048010 0.952780 0.030985
0.048010 0.952780 0.030985
0.048010 0.952780 0.030985
0.048010 0.952780 0.030985
0.048010 0.952780 0.030985
0.949141 0.949141 0.159541
0.949141 0.949141 0.159541
0.861616 0.045833 0.062767
0.048010 0.952780 0.030985
0.048010 0.952780 0.030985
0.048010 0.952780 0.030985
0.048010 0.952780 0.030985
0.048010 0.952780 0.030985
0.048010 0.952780 0.030985
0.048010 0.952780 0.030985
0.949141 0.949141 0.159541
0.949141 0.949141 0.159541
0.048010 0.952780 0.030985
0.048010 0.952780 0.030985
0.048010 0.952780 0.030985
0.048010 0.952780 0.030985
0.048010 0.952780 0.030985
0.048010 0.952780 0.030985
0.048010 0.952780 0.030985
0.048010 0.952780 0.030985
0.949141 0.949141 0.159541
0.004969 0.028489 0.133298
0.030914 0.029497 0.134211
0.137815 0.033656 0.138218
0.393127 0.043217 0.146146
0.792899 0.046687 0.146031
0.867649 0.045029 0.139420
0.866445 0.045197 0.124182
0.862612 0.045707 0.075484
0.861616 0.045833 0.062767
0.007744 0.051752 0.134879
0.006543 0.041747 0.133582
0.112953 0.032673 0.136040
0.373485 0.042510 0.144473
0.788034 0.046784 0.144868
0.867547 0.045043 0.138133
0.866339 0.045212 0.122836
0.862519 0.045719 0.074298
0.861616 0.045833 0.062767
0.018365 0.140604 0.142865
0.017203 0.130893 0.141910
0.082235 0.117520 0.142137
0.346428 0.073162 0.144066
0.779945 0.046938 0.143026
0.867386 0.045066 0.136087
0.866170 0.045235 0.120694
0.862374 0.045737 0.072446
0.861616 0.045833 0.062767
0.021456 0.362347 0.125626
0.021545 0.354574 0.127212
0.021661 0.342129 0.129583
0.302505 0.307305 0.117979
0.842210 0.174201 0.109186
0.866876 0.045137 0.129632
0.865634 0.045308 0.113902
0.861937 0.045793 0.066863
0.861616 0.045833 0.062767
0.025138 0.796260 0.058905
0.025180 0.793317 0.058819
0.025248 0.788569 0.058685
0.025470 0.773031 0.058276
0.735032 0.713141 0.074999
0.984959 0.440430 0.050896
0.863921 0.045537 0.092146
0.861616 0.045833 0.062767
0.861616 0.045833 0.062767
0.048010 0.952780 0.030985
0.048010 0.952780 0.030985
0.048010 0.952780 0.030985
0.048010 0.952780 0.030985
0.048010 0.952780 0.030985
0.949141 0.949141 0.159541
0.941242 0.862577 0.135123
0.861616 0.045833 0.062767
0.861616 0.045833 0.062767
0.048010 0.952780 0.030985
0.048010 0.952780 0.030985
0.048010 0.952780 0.030985
0.048010 0.952780 0.030985
0.048010 0.952780 0.030985
0.048010 0.952780 0.030985
0.949141 0.949141 0.159541
0.949141 0.949141 0.159541
0.861616 0.045833 0.062767
0.048010 0.952780 0.030985
0.048010 0.952780 0.030985
0.048010 0.952780 0.030985
0.048010 0.952780 0.030985
0.048010 0.952780 0.030985
0.048010 0.952780 0.030985
0.048010 0.952780 0.030985
0.949141 0.949141 0.159541
0.949141 0.949141 0.159541
0.048010 0.952780 0.030985
0.048010 0.952780 0.030985
0.048010 0.952780 0.030985
0.048010 0.952780 0.030985
0.048010 0.952780 0.030985
0.048010 0.952780 0.030985
0.048010 0.952780 0.030985
0.048010 0.952780 0.030985
0.949141 0.949141 0.159541
0.007359 0.030879 0.309486
0.037013 0.032032 0.310568
0.142934 0.036153 0.314575
0.398958 0.045346 0.321669
0.806688 0.044917 0.331139
0.882610 0.042623 0.327969
0.881699 0.042785 0.316468
0.878798 0.043289 0.279906
0.868907 0.044849 0.155318
0.011376 0.064473 0.312609
0.010281 0.053738 0.311256
0.119074 0.042594 0.313595
0.379123 0.044738 0.320251
0.801762 0.045059 0.330115
0.882532 0.042637 0.326985
0.881620 0.042799 0.315469
0.878715 0.043304 0.278861
0.868809 0.044863 0.154077
0.021770 0.151910 0.319644
0.020683 0.142408 0.318866
0.090168 0.129444 0.319091
0.355813 0.085550 0.321869
0.793570 0.045288 0.328483
0.882409 0.042659 0.325426
0.881494 0.042822 0.313886
0.878583 0.043326 0.277204
0.868653 0.044885 0.152106
0.021066 0.371192 0.321988
0.021171 0.363566 0.322710
0.021339 0.351342 0.323706
0.310534 0.314854 0.317571
0.856934 0.180380 0.312070
0.882022 0.042728 0.320542
0.881101 0.042891 0.308928
0.878171 0.043396 0.272015
0.868162 0.044956 0.145905
0.024658 0.798734 0.278944
0.024734 0.795832 0.278870
0.024845 0.791150 0.278760
0.025114 0.775830 0.278496
0.734296 0.716751 0.296988
0.984536 0.447615 0.273498
0.879873 0.043105 0.293443
0.876884 0.043611 0.255810
0.866602 0.045176 0.126163
0.056736 0.949660 0.256779
0.056733 0.949661 0.256685
0.056726 0.949663 0.256536
0.056707 0.949669 0.256070
0.056647 0.949688 0.254634
0.951649 0.951649 0.344396
0.942279 0.866083 0.316844
0.872748 0.044273 0.203744
0.861756 0.045815 0.064554
0.049018 0.952388 0.058885
0.049013 0.952390 0.058763
0.049006 0.952393 0.058572
0.048985 0.952401 0.057976
0.048918 0.952427 0.056152
0.048719 0.952504 0.050663
0.949186 0.949186 0.162877
0.949141 0.949141 0.159541
0.861616 0.045833 0.062767
0.048010 0.952780 0.030985
0.048010 0.952780 0.030985
0.048010 0.952780 0.030985
0.048010 0.952780 0.030985
0.048010 0.952780 0.030985
0.048010 0.952780 0.030985
0.048010 0.952780 0.030985
0.949141 0.949141 0.159541
0.949141 0.949141 0.159541
0.048010 0.952780 0.030985
0.048010 0.952780 0.030985
0.048010 0.952780 0.030985
0.048010 0.952780 0.030985
0.048010 0.952780 0.030985
0.048010 0.952780 0.030985
0.048010 0.952780 0.030985
0.048010 0.952780 0.030985
0.949141 0.949141 0.159541
0.013393 0.045621 0.667993
0.052625 0.038163 0.668420
0.156780 0.041173 0.671605
0.416779 0.047891 0.684454
0.836585 0.039323 0.724090
0.913276 0.036013 0.727771
0.912863 0.036117 0.722124
0.911527 0.036448 0.703906
0.906734 0.037605 0.639361
0.020208 0.102648 0.673030
0.029697 0.092125 0.672268
0.138131 0.077780 0.673496
0.396317 0.047700 0.682243
0.831591 0.039535 0.723233
0.913241 0.036022 0.727290
0.912827 0.036126 0.721632
0.911488 0.036458 0.703380
0.906685 0.037617 0.638714
0.025473 0.183047 0.689714
0.025420 0.174009 0.686752
0.110610 0.161494 0.690692
0.385911 0.117240 0.704080
0.823275 0.039884 0.721836
0.913185 0.036036 0.726526
0.912770 0.036140 0.720851
0.911427 0.036473 0.702544
0.906608 0.037635 0.637687
0.020873 0.394159 0.739843
0.020773 0.386927 0.739606
0.020701 0.375308 0.738940
0.328619 0.336571 0.738710
0.876302 0.204076 0.735220
0.913010 0.036080 0.724129
0.912591 0.036185 0.718400
0.911234 0.036521 0.699921
0.906367 0.037692 0.634466
0.026791 0.805245 0.720167
0.026459 0.802603 0.720137
0.025975 0.798324 0.720095
0.024837 0.784173 0.719984
0.734208 0.729022 0.718452
0.983455 0.469544 0.717528
0.912026 0.036325 0.710699
0.910626 0.036670 0.691680
0.905606 0.037870 0.624349
0.077660 0.944233 0.703643
0.077658 0.944233 0.703601
0.077655 0.944234 0.703534
0.077644 0.944236 0.703325
0.077611 0.944243 0.702681
0.951630 0.955574 0.729934
0.941301 0.876071 0.716441
0.908629 0.037154 0.664736
0.903112 0.038445 0.591344
0.073158 0.945189 0.615150
0.073156 0.945189 0.615093
0.073151 0.945190 0.615003
0.073137 0.945194 0.614724
0.073094 0.945203 0.613860
0.072960 0.945233 0.611184
0.955822 0.955822 0.652009
0.955494 0.955494 0.627869
0.893850 0.040454 0.470935
0.053459 0.950762 0.175835
0.053455 0.950764 0.175730
0.053448 0.950766 0.175563
0.053428 0.950773 0.175042
0.053364 0.950795 0.173433
0.053168 0.950864 0.168447
0.052557 0.951080 0.152811
0.949939 0.949939 0.218346
0.949141 0.949141 0.159541
0.048010 0.952780 0.030985
0.048010 0.952780 0.030985
0.048010 0.952780 0.030985
0.048010 0.952780 0.030985
0.048010 0.952780 0.030985
0.048010 0.952780 0.030985
0.048010 0.952780 0.030985
0.048010 0.952780 0.030985
0.949141 0.949141 0.159541
0.028549 0.143219 0.870950
0.101382 0.135264 0.876654
0.201195 0.121345 0.884003
0.454977 0.070759 0.896798
0.856379 0.035343 0.939450
0.928632 0.031891 0.946687
0.928632 0.031891 0.946687
0.928632 0.031891 0.946687
0.928632 0.031891 0.946687
0.024723 0.191350 0.893056
0.077448 0.183256 0.896944
0.184912 0.169941 0.907045
0.455870 0.122467 0.924480
0.851573 0.035567 0.938932
0.928632 0.031891 0.946687
0.928632 0.031891 0.946687
0.928632 0.031891 0.946687
0.928632 0.031891 0.946687
0.021649 0.262731 0.929994
0.031165 0.254489 0.927357
0.151337 0.241551 0.937989
0.446351 0.195962 0.953691
0.850284 0.044074 0.942345
0.928632 0.031891 0.946687
0.928632 0.031891 0.946687
0.928632 0.031891 0.946687
0.928632 0.031891 0.946687
0.026596 0.461889 0.960452
0.026126 0.454261 0.961061
0.025208 0.442009 0.962194
0.360042 0.403350 0.958495
0.885525 0.283833 0.957752
0.928632 0.031891 0.946687
0.928632 0.031891 0.946687
0.928632 0.031891 0.946687
0.928632 0.031891 0.946687
0.035896 0.825588 0.949175
0.035268 0.823362 0.949405
0.034289 0.819761 0.949774
0.031392 0.807888 0.950950
0.745658 0.762931 0.922701
0.972710 0.536041 0.950221
0.928632 0.031891 0.946687
0.928632 0.031891 0.946687
0.928632 0.031891 0.946687
0.090378 0.942089 0.939266
0.090378 0.942089 0.939266
0.090378 0.942089 0.939266
0.090378 0.942089 0.939266
0.090378 0.942089 0.939266
0.944135 0.958327 0.878494
0.929141 0.895137 0.870631
0.928632 0.031891 0.946687
0.928632 0.031891 0.946687
0.090378 0.942089 0.939266
0.090378 0.942089 0.939266
0.090378 0.942089 0.939266
0.090378 0.942089 0.939266
0.090378 0.942089 0.939266
0.090378 0.942089 0.939266
0.944135 0.958327 0.878494
0.944135 0.958327 0.878494
0.928632 0.031891 0.946687
0.089984 0.942143 0.932219
0.089984 0.942143 0.932215
0.089983 0.942144 0.932208
0.089982 0.942144 0.932187
0.089979 0.942144 0.932123
0.089967 0.942146 0.931921
0.089932 0.942151 0.931286
0.943871 0.958052 0.871009
0.943656 0.957827 0.864884
0.064814 0.947256 0.441300
0.064810 0.947257 0.441217
0.064804 0.947258 0.441085
0.064785 0.947264 0.440674
0.064727 0.947279 0.439404
0.064546 0.947329 0.435473
0.064039 0.947468 0.424381
0.062536 0.947891 0.391135
0.951940 0.951940 0.365864
0.145043 0.375765 0.965106
0.218333 0.367864 0.963974
0.322163 0.355311 0.962042
0.591380 0.315343 0.959194
0.933777 0.180751 0.961377
0.928632 0.031891 0.946687
0.928632 0.031891 0.946687
0.928632 0.031891 0.946687
0.928632 0.031891 0.946687
0.116345 0.413383 0.962346
0.192758 0.405971 0.960958
0.299339 0.394218 0.959588
0.573001 0.356663 0.958067
0.931859 0.229376 0.958623
0.928632 0.031891 0.946687
0.928632 0.031891 0.946687
0.928632 0.031891 0.946687
0.928632 0.031891 0.946687
0.063635 0.477413 0.958983
0.147580 0.469593 0.958403
0.259072 0.457105 0.957938
0.541138 0.417149 0.957310
0.924999 0.301000 0.957339
0.928632 0.031891 0.946687
0.928632 0.031891 0.946687
0.928632 0.031891 0.946687
0.928632 0.031891 0.946687
0.026067 0.640493 0.956307
0.026141 0.635271 0.956381
0.114455 0.626482 0.956131
0.429201 0.597650 0.955220
0.898802 0.498121 0.954581
0.975700 0.109427 0.965399
0.928632 0.031891 0.946687
0.928632 0.031891 0.946687
0.928632 0.031891 0.946687
0.054467 0.875428 0.943964
0.053824 0.874009 0.944104
0.052800 0.871719 0.944332
0.049558 0.864205 0.945095
0.781499 0.837190 0.897840
0.942454 0.697269 0.934061
0.928632 0.031891 0.946687
0.928632 0.031891 0.946687
0.928632 0.031891 0.946687
0.090378 0.942089 0.939266
0.090378 0.942089 0.939266
0.090378 0.942089 0.939266
0.090378 0.942089 0.939266
0.090378 0.942089 0.939266
0.944135 0.958327 0.878494
0.936084 0.926753 0.872733
0.928632 0.031891 0.946687
0.928632 0.031891 0.946687
0.090378 0.942089 0.939266
0.090378 0.942089 0.939266
0.090378 0.942089 0.939266
0.090378 0.942089 0.939266
0.090378 0.942089 0.939266
0.090378 0.942089 0.939266
0.944135 0.958327 0.878494
0.944135 0.958327 0.878494
0.928632 0.031891 0.946687
0.090378 0.942089 0.939266
0.090378 0.942089 0.939266
0.090378 0.942089 0.939266
0.090378 0.942089 0.939266
0.090378 0.942089 0.939266
0.090378 0.942089 0.939266
0.090378 0.942089 0.939266
0.944135 0.958327 0.878494
0.944135 0.958327 0.878494
0.090378 0.942089 0.939266
0.090378 0.942089 0.939266
0.090378 0.942089 0.939266
0.090378 0.942089 0.939266
0.090378 0.942089 0.939266
0.090378 0.942089 0.939266
0.090378 0.942089 0.939266
0.090378 0.942089 0.939266
0.944135 0.958327 0.878494
0.422457 0.808681 0.940808
0.476067 0.806279 0.940082
0.556431 0.802846 0.939287
0.730697 0.792673 0.923031
0.914202 0.753556 0.915034
0.978734 0.499631 0.953125
0.928632 0.031891 0.946687
0.928632 0.031891 0.946687
0.928632 0.031891 0.946687
0.404062 0.820860 0.940429
0.455948 0.818613 0.939794
0.539598 0.815465 0.939089
0.721756 0.806316 0.924989
0.909222 0.772161 0.906508
0.972467 0.537363 0.950105
0.928632 0.031891 0.946687
0.928632 0.031891 0.946687
0.928632 0.031891 0.946687
0.373376 0.838217 0.940015
0.427533 0.836176 0.939445
0.511460 0.833388 0.938921
0.706508 0.825806 0.929528
0.902774 0.798225 0.893730
0.961800 0.592219 0.945170
0.928632 0.031891 0.946687
0.928632 0.031891 0.946687
0.928632 0.031891 0.946687
0.263296 0.880493 0.939608
0.328259 0.878706 0.939080
0.418678 0.876557 0.938840
0.648450 0.873078 0.941031
0.893611 0.858168 0.873465
0.936603 0.725751 0.926051
0.928632 0.031891 0.946687
0.928632 0.031891 0.946687
0.928632 0.031891 0.946687
0.089330 0.940334 0.939328
0.089168 0.940062 0.939337
0.088905 0.939621 0.939354
0.374643 0.936414 0.940030
0.862254 0.940234 0.871850
0.932260 0.910127 0.871160
0.985475 0.312741 0.956915
0.928632 0.031891 0.946687
0.928632 0.031891 0.946687
0.090378 0.942089 0.939266
0.090378 0.942089 0.939266
0.090378 0.942089 0.939266
0.090378 0.942089 0.939266
0.117725 0.941590 0.939074
0.944135 0.958327 0.878494
0.944135 0.958327 0.878494
0.928632 0.031891 0.946687
0.928632 0.031891 0.946687
0.090378 0.942089 0.939266
0.090378 0.942089 0.939266
0.090378 0.942089 0.939266
0.090378 0.942089 0.939266
0.090378 0.942089 0.939266
0.090378 0.942089 0.939266
0.944135 0.958327 0.878494
0.944135 0.958327 0.878494
0.928632 0.031891 0.946687
0.090378 0.942089 0.939266
0.090378 0.942089 0.939266
0.090378 0.942089 0.939266
0.090378 0.942089 0.939266
0.090378 0.942089 0.939266
0.090378 0.942089 0.939266
0.090378 0.942089 0.939266
0.944135 0.958327 0.878494
0.944135 0.958327 0.878494
0.090378 0.942089 0.939266
0.090378 0.942089 0.939266
0.090378 0.942089 0.939266
0.090378 0.942089 0.939266
0.090378 0.942089 0.939266
0.090378 0.942089 0.939266
0.090378 0.942089 0.939266
0.090378 0.942089 0.939266
0.944135 0.958327 0.878494
0.852405 0.949228 0.873079
0.864085 0.950318 0.872999
0.880175 0.951908 0.873876
0.916401 0.955537 0.876380
0.944135 0.958327 0.878494
0.944135 0.958327 0.878494
0.932959 0.913289 0.871376
0.928632 0.031891 0.946687
0.928632 0.031891 0.946687
0.847306 0.948820 0.873840
0.859557 0.949875 0.872789
0.876347 0.951528 0.873654
0.914077 0.955304 0.876203
0.944135 0.958327 0.878494
0.944135 0.958327 0.878494
0.934235 0.918908 0.871856
0.928632 0.031891 0.946687
0.928632 0.031891 0.946687
0.838649 0.948234 0.876044
0.851951 0.949190 0.873129
0.869947 0.950895 0.873301
0.910206 0.954914 0.875908
0.944135 0.958327 0.878494
0.944135 0.958327 0.878494
0.936149 0.927020 0.872768
0.928632 0.031891 0.946687
0.928632 0.031891 0.946687
0.805537 0.947142 0.891420
0.823574 0.947527 0.882019
0.846870 0.948788 0.873925
0.896436 0.953531 0.874912
0.944135 0.958327 0.878494
0.944135 0.958327 0.878494
0.940902 0.945929 0.875935
0.928632 0.031891 0.946687
0.928632 0.031891 0.946687
0.620202 0.946780 0.946780
0.657505 0.948227 0.948227
0.712154 0.948773 0.940268
0.830179 0.947789 0.879122
0.939551 0.957866 0.878144
0.944135 0.958327 0.878494
0.944135 0.958327 0.878494
0.928632 0.031891 0.946687
0.928632 0.031891 0.946687
0.090378 0.942089 0.939266
0.090378 0.942089 0.939266
0.090378 0.942089 0.939266
0.090378 0.942089 0.939266
0.753201 0.947790 0.921605
0.944135 0.958327 0.878494
0.944135 0.958327 0.878494
0.932700 0.744204 0.919041
0.928632 0.031891 0.946687
0.090378 0.942089 0.939266
0.090378 0.942089 0.939266
0.090378 0.942089 0.939266
0.090378 0.942089 0.939266
0.090378 0.942089 0.939266
0.234119 0.940251 0.938901
0.944135 0.958327 0.878494
0.944135 0.958327 0.878494
0.928632 0.031891 0.946687
0.090378 0.942089 0.939266
0.090378 0.942089 0.939266
0.090378 0.942089 0.939266
0.090378 0.942089 0.939266
0.090378 0.942089 0.939266
0.090378 0.942089 0.939266
0.090378 0.942089 0.939266
0.944135 0.958327 0.878494
0.944135 0.958327 0.878494
0.090378 0.942089 0.939266
0.090378 0.942089 0.939266
0.090378 0.942089 0.939266
0.090378 0.942089 0.939266
0.090378 0.942089 0.939266
0.090378 0.942089 0.939266
0.090378 0.942089 0.939266
0.090378 0.942089 0.939266
0.944135 0.958327 0.878494
