pipelines/.agents/skills/broll-ingest/luts/buildloop-FINAL.cube
# buildloop-cinema v4 — 2383-style toe/shoulder + teal shadows + lime neutral-highlights
LUT_3D_SIZE 5
0.003874 0.027394 0.052594
0.158336 0.033406 0.058606
0.448909 0.044223 0.067893
0.727805 0.047893 0.067235
0.861616 0.045833 0.062767
0.024473 0.209750 0.069396
0.187977 0.215115 0.066624
0.514886 0.218052 0.047524
0.836756 0.212828 0.020197
0.977017 0.210066 0.010146
0.025712 0.545210 0.002778
0.223327 0.544246 0.000000
0.559161 0.542841 0.000000
0.855727 0.541599 0.000000
0.983490 0.541064 0.000000
0.024398 0.838659 0.000000
0.222395 0.835513 0.004924
0.557803 0.828639 0.045923
0.830740 0.828056 0.096418
0.941277 0.830096 0.117785
0.048010 0.952780 0.030985
0.251296 0.945477 0.061404
0.576447 0.940119 0.118695
0.839064 0.944993 0.154055
0.949141 0.949141 0.159541
0.006089 0.029609 0.215859
0.160551 0.035620 0.221871
0.452871 0.045960 0.230260
0.738574 0.047110 0.234212
0.875105 0.043901 0.233420
0.025259 0.211824 0.232938
0.191157 0.216524 0.234222
0.522273 0.217371 0.225694
0.843868 0.211323 0.208409
0.981300 0.209042 0.201895
0.026902 0.544822 0.196798
0.223266 0.543969 0.194712
0.558884 0.542564 0.193305
0.855451 0.541322 0.192063
0.982641 0.540830 0.192128
0.024868 0.837932 0.192891
0.224809 0.834012 0.202335
0.559570 0.827895 0.237123
0.830774 0.828943 0.277226
0.941010 0.831648 0.293532
0.055424 0.950092 0.224852
0.258045 0.943562 0.249621
0.580370 0.940453 0.294213
0.841323 0.947074 0.318521
0.951356 0.951356 0.322806
0.009906 0.033426 0.497221
0.164617 0.039379 0.502959
0.462237 0.047787 0.513948
0.758316 0.044354 0.532582
0.899114 0.039336 0.539001
0.025253 0.214935 0.522164
0.196181 0.218034 0.533891
0.534000 0.215425 0.544201
0.852284 0.209221 0.539215
0.984639 0.208153 0.535201
0.027736 0.544308 0.532301
0.222793 0.543492 0.531252
0.558407 0.542087 0.529847
0.854531 0.540866 0.528907
0.978933 0.540955 0.529935
0.028520 0.835831 0.530656
0.230814 0.831433 0.536519
0.563656 0.827410 0.555811
0.832005 0.831296 0.577956
0.942035 0.834960 0.586725
0.069904 0.945948 0.549034
0.270484 0.941192 0.562726
0.587160 0.942091 0.587082
0.845140 0.950890 0.599886
0.955173 0.955173 0.604168
0.013279 0.036799 0.745848
0.168835 0.042553 0.750659
0.472340 0.047989 0.773083
0.776633 0.040552 0.808568
0.920007 0.034273 0.821484
0.023807 0.216939 0.788400
0.200460 0.218315 0.811088
0.542868 0.213193 0.835745
0.855613 0.208330 0.833763
0.986163 0.207602 0.830938
0.027625 0.543885 0.829453
0.222371 0.543070 0.828638
0.557985 0.541665 0.827233
0.852245 0.540848 0.825953
0.973959 0.541867 0.824624
0.034589 0.833551 0.824175
0.237957 0.829478 0.822843
0.568280 0.827897 0.825702
0.825828 0.833317 0.790435
0.920402 0.840871 0.787620
0.084037 0.943058 0.824055
0.281865 0.940201 0.827893
0.592649 0.944539 0.838522
0.849835 0.946294 0.788692
0.941269 0.955232 0.794049
0.014731 0.038240 0.853000
0.170818 0.043882 0.857283
0.477022 0.047640 0.888137
0.784561 0.038574 0.931249
0.928632 0.031891 0.946687
0.022804 0.217541 0.906772
0.202229 0.218129 0.934266
0.546158 0.212188 0.963546
0.856556 0.208053 0.961007
0.986431 0.207415 0.958822
0.027443 0.543703 0.957683
0.222189 0.542888 0.956868
0.557803 0.541483 0.955463
0.850868 0.541045 0.952877
0.971505 0.542540 0.949644
0.037975 0.832553 0.948444
0.241524 0.828798 0.943207
0.570512 0.828382 0.938837
0.827488 0.835677 0.881325
0.921445 0.843800 0.874752
0.090378 0.942089 0.939266
0.286744 0.940109 0.939195
0.594608 0.945833 0.945833
0.852811 0.949263 0.873038
0.944135 0.958327 0.878494
