pipelines/.agents/skills/broll-ingest/luts/buildloop-FINAL-slog3-soft.cube
# buildloop-FINAL-slog3-soft — full conversion + 55% creative
LUT_3D_SIZE 5
0.002131 0.015067 0.028927
0.175600 0.017880 0.031740
0.807364 0.025986 0.036050
0.923889 0.025208 0.034522
0.923889 0.025208 0.034522
0.009209 0.150246 0.035820
0.106649 0.122666 0.035508
0.791532 0.026082 0.036271
0.923889 0.025208 0.034522
0.923889 0.025208 0.034522
0.013886 0.752249 0.000000
0.013947 0.744382 0.000000
0.690396 0.672820 0.007820
0.923889 0.025208 0.034522
0.923889 0.025208 0.034522
0.026406 0.974029 0.017042
0.026406 0.974029 0.017042
0.026406 0.974029 0.017042
0.972028 0.972028 0.087748
0.923889 0.025208 0.034522
0.026406 0.974029 0.017042
0.026406 0.974029 0.017042
0.026406 0.974029 0.017042
0.026406 0.974029 0.017042
0.972028 0.972028 0.087748
0.002733 0.015669 0.139994
0.177711 0.018511 0.142538
0.810851 0.025678 0.145565
0.926545 0.024858 0.120442
0.923889 0.025208 0.034522
0.010101 0.156071 0.143223
0.109711 0.129118 0.142658
0.794847 0.025816 0.141847
0.926394 0.024879 0.116102
0.923889 0.025208 0.034522
0.013826 0.753707 0.079254
0.013886 0.745880 0.078928
0.690659 0.674646 0.086278
0.925157 0.025045 0.078548
0.923889 0.025208 0.034522
0.026406 0.974029 0.017042
0.026406 0.974029 0.017042
0.026406 0.974029 0.017042
0.972028 0.972028 0.087748
0.923889 0.025208 0.034522
0.026406 0.974029 0.017042
0.026406 0.974029 0.017042
0.026406 0.974029 0.017042
0.026406 0.974029 0.017042
0.972028 0.972028 0.087748
0.007366 0.034508 0.660814
0.193636 0.022645 0.662759
0.836429 0.021628 0.691302
0.952075 0.019864 0.687122
0.948704 0.020683 0.610192
0.014010 0.197836 0.672243
0.133044 0.174204 0.672739
0.820270 0.021936 0.689544
0.952024 0.019877 0.685898
0.948634 0.020699 0.608681
0.014735 0.764024 0.684922
0.014286 0.756686 0.684841
0.692273 0.689421 0.683608
0.951614 0.019979 0.676192
0.948083 0.020829 0.596684
0.040237 0.969854 0.584950
0.040233 0.969855 0.584819
0.040202 0.969862 0.583802
0.975702 0.975702 0.601056
0.941617 0.022250 0.462557
0.026406 0.974029 0.017042
0.026406 0.974029 0.017042
0.026406 0.974029 0.017042
0.026406 0.974029 0.017042
0.972028 0.972028 0.087748
0.159763 0.380143 0.980808
0.327965 0.362162 0.979123
0.904291 0.200387 0.978757
0.960748 0.017540 0.970678
0.960748 0.017540 0.970678
0.064334 0.468006 0.977441
0.269168 0.451169 0.976866
0.890988 0.313972 0.976536
0.960748 0.017540 0.970678
0.960748 0.017540 0.970678
0.029957 0.849556 0.969180
0.029040 0.844473 0.969383
0.737205 0.800718 0.943812
0.960748 0.017540 0.970678
0.960748 0.017540 0.970678
0.049708 0.968149 0.966596
0.049708 0.968149 0.966596
0.049708 0.968149 0.966596
0.969274 0.977080 0.933172
0.960748 0.017540 0.970678
0.049708 0.968149 0.966596
0.049708 0.968149 0.966596
0.049708 0.968149 0.966596
0.049708 0.968149 0.966596
0.969274 0.977080 0.933172
0.806011 0.972075 0.930193
0.844886 0.973549 0.930632
0.969274 0.977080 0.933172
0.963127 0.892947 0.929257
0.960748 0.017540 0.970678
0.788455 0.971529 0.931824
0.829996 0.972992 0.930316
0.969274 0.977080 0.933172
0.964882 0.915169 0.930022
0.960748 0.017540 0.970678
0.575040 0.970729 0.970729
0.659144 0.971825 0.967147
0.956957 0.976826 0.932979
0.969274 0.977080 0.933172
0.960748 0.017540 0.970678
0.049708 0.968149 0.966596
0.049708 0.968149 0.966596
0.049708 0.968149 0.966596
0.969274 0.977080 0.933172
0.960748 0.017540 0.970678
0.049708 0.968149 0.966596
0.049708 0.968149 0.966596
0.049708 0.968149 0.966596
0.049708 0.968149 0.966596
0.969274 0.977080 0.933172
