pipelines/.agents/skills/broll-ingest/luts/buildloop-FINAL-soft.cube
# buildloop-FINAL-soft — 55% strength v4 for harsh-light scenes
LUT_3D_SIZE 9
0.002131 0.015067 0.028927
0.087916 0.016216 0.030076
0.199585 0.018373 0.032233
0.327941 0.021162 0.034966
0.471900 0.024323 0.037341
0.613810 0.026236 0.038000
0.737793 0.026341 0.036979
0.839873 0.025772 0.035596
0.923889 0.025208 0.034522
0.006942 0.111444 0.033738
0.092776 0.112582 0.034834
0.204883 0.114635 0.036509
0.334600 0.117101 0.037907
0.483652 0.118982 0.037406
0.633123 0.118990 0.034327
0.762672 0.117810 0.030281
0.868063 0.116566 0.026905
0.953809 0.115687 0.024698
0.013460 0.227863 0.038168
0.102084 0.229022 0.037872
0.215887 0.230813 0.036643
0.350473 0.232278 0.033230
0.508187 0.232429 0.026138
0.665302 0.231085 0.017546
0.797716 0.229555 0.011108
0.902778 0.228556 0.007430
0.987359 0.228036 0.005580
0.011869 0.366287 0.026971
0.108243 0.367320 0.023287
0.227529 0.368227 0.017258
0.369346 0.368375 0.009576
0.530806 0.367665 0.003028
0.683533 0.367063 0.000496
0.809493 0.366764 0.000000
0.910135 0.366578 0.000000
0.992402 0.366469 0.000000
0.014142 0.524865 0.001528
0.114014 0.524619 0.000562
0.235330 0.524335 0.000000
0.375424 0.523984 0.000000
0.532539 0.523563 0.000000
0.682834 0.523169 0.000000
0.808150 0.522879 0.000000
0.908710 0.522694 0.000000
0.990919 0.522585 0.000000
0.014516 0.674148 0.000000
0.113471 0.673969 0.000000
0.234126 0.673700 0.000000
0.374084 0.673349 0.000000
0.530740 0.672711 0.000000
0.678829 0.671934 0.006883
0.800070 0.671740 0.015106
0.896646 0.671905 0.021421
0.976044 0.672126 0.025431
0.013419 0.798762 0.000000
0.112805 0.798269 0.000000
0.234817 0.797032 0.002708
0.376118 0.795123 0.011069
0.531792 0.793251 0.025258
0.676284 0.792575 0.040989
0.794407 0.792931 0.053030
0.889185 0.793552 0.060552
0.967702 0.794053 0.064782
0.018638 0.895871 0.006444
0.119770 0.894395 0.011184
0.242956 0.892218 0.019848
0.383829 0.889880 0.033131
0.537283 0.888357 0.050595
0.679331 0.888516 0.066306
0.796192 0.889604 0.076137
0.890678 0.890677 0.081137
0.969260 0.891418 0.083463
0.026406 0.974029 0.017042
0.127788 0.972303 0.023327
0.250713 0.970012 0.033772
0.390455 0.967910 0.048269
0.542046 0.967065 0.065282
0.682631 0.968052 0.078367
0.798985 0.969746 0.084730
0.893390 0.971156 0.086876
0.972028 0.972028 0.087748
0.002616 0.015552 0.120978
0.088402 0.016702 0.122128
0.200070 0.018859 0.124284
0.328494 0.021632 0.126943
0.472684 0.024732 0.129164
0.615470 0.026356 0.130062
0.740109 0.026210 0.129579
0.842575 0.025478 0.128662
0.926808 0.024822 0.127889
0.007427 0.111929 0.125789
0.093322 0.113053 0.126819
0.205525 0.115084 0.128390
0.335512 0.117467 0.129759
0.485181 0.119103 0.129828
0.635292 0.118825 0.127741
0.765327 0.117442 0.124536
0.870931 0.116088 0.121759
0.956751 0.115156 0.119917
0.013670 0.228326 0.130127
0.102627 0.229463 0.130044
0.216600 0.231146 0.129367
0.351579 0.232412 0.126894
0.509828 0.232304 0.121120
0.667142 0.230786 0.113870
0.799374 0.229220 0.108389
0.904126 0.228257 0.105274
0.988444 0.227784 0.103728
0.011822 0.366677 0.121814
0.108422 0.367592 0.118732
0.228007 0.368329 0.113625
0.370022 0.368309 0.107088
0.531235 0.367556 0.101654
0.683677 0.366995 0.099403
0.809485 0.366703 0.098741
0.910073 0.366517 0.098536
0.992342 0.366408 0.098427
0.014436 0.524776 0.100291
0.114171 0.524548 0.099456
0.235338 0.524274 0.098796
0.375363 0.523924 0.098406
0.532478 0.523502 0.097984
0.682773 0.523108 0.097591
0.808089 0.522819 0.097301
0.908625 0.522634 0.097138
0.990795 0.522525 0.097104
0.014455 0.674088 0.097881
0.113410 0.673909 0.097702
0.234065 0.673639 0.097432
0.373987 0.673288 0.097120
0.530619 0.672579 0.099316
0.678495 0.671856 0.106433
0.799503 0.671766 0.114240
0.895921 0.672017 0.120154
0.975230 0.672292 0.123887
0.013440 0.798634 0.097311
0.113074 0.798030 0.098546
0.235294 0.796708 0.102369
0.376638 0.794806 0.110429
0.532149 0.793068 0.123726
0.676407 0.792588 0.138249
0.794381 0.793101 0.149250
0.889100 0.793819 0.156066
0.967602 0.794372 0.159872
0.019707 0.895375 0.106011
0.120918 0.893892 0.110537
0.244107 0.891761 0.118685
0.384838 0.889563 0.131016
0.538012 0.888279 0.147034
0.679818 0.888680 0.161238
0.796590 0.889926 0.169940
0.891081 0.891081 0.174235
0.969668 0.891860 0.176181
0.027977 0.973430 0.116059
0.129349 0.971748 0.121930
0.252164 0.969569 0.131608
0.391657 0.967669 0.144912
0.542899 0.967108 0.160321
0.683242 0.968347 0.171873
0.799484 0.970186 0.177205
0.893875 0.971642 0.178928
0.972513 0.972513 0.179799
0.003349 0.016285 0.231222
0.089135 0.017434 0.232372
0.200803 0.019591 0.234529
0.329371 0.022330 0.237029
0.474079 0.025278 0.239143
0.618140 0.026440 0.240791
0.743716 0.025911 0.241317
0.846726 0.024938 0.241192
0.931308 0.024146 0.240881
0.008159 0.112654 0.236000
0.094189 0.113754 0.236916
0.206529 0.115753 0.238336
0.336970 0.117967 0.239975
0.487548 0.119206 0.241250
0.638621 0.118491 0.240811
0.769317 0.116814 0.238943
0.875182 0.115311 0.237078
0.961078 0.114311 0.235779
0.013892 0.229003 0.240616
0.103391 0.230090 0.240994
0.217636 0.231588 0.241322
0.353253 0.232542 0.240370
0.512250 0.232054 0.236632
0.669766 0.230307 0.231315
0.801627 0.228728 0.227125
0.905840 0.227853 0.224725
0.989715 0.227473 0.223542
0.011739 0.367188 0.237116
0.108682 0.367926 0.234924
0.228702 0.368418 0.231130
0.370970 0.368175 0.226122
0.531803 0.367402 0.221901
0.683807 0.366901 0.220067
0.809418 0.366611 0.219555
0.909982 0.366426 0.219370
0.992250 0.366317 0.219261
0.014796 0.524652 0.220739
0.114315 0.524454 0.220108
0.235296 0.524183 0.219592
0.375272 0.523832 0.219240
0.532386 0.523410 0.218818
0.682681 0.523016 0.218424
0.807998 0.522727 0.218135
0.908457 0.522542 0.218029
0.990453 0.522457 0.218170
0.014364 0.673996 0.218714
0.113319 0.673817 0.218536
0.233974 0.673547 0.218266
0.373810 0.673194 0.218036
0.530462 0.672380 0.220829
0.678013 0.671772 0.227541
0.798678 0.671856 0.234555
0.894870 0.672242 0.239783
0.974053 0.672601 0.243059
0.013677 0.798363 0.218590
0.113651 0.797621 0.220034
0.236145 0.796207 0.223784
0.377520 0.794351 0.231152
0.532764 0.792842 0.242918
0.676667 0.792668 0.255540
0.794426 0.793419 0.264974
0.889067 0.794278 0.270750
0.967556 0.794906 0.273943
0.021487 0.894616 0.227155
0.122791 0.893143 0.231249
0.245950 0.891108 0.238490
0.386432 0.889143 0.249277
0.539162 0.888231 0.263083
0.680603 0.888993 0.275081
0.797254 0.890467 0.282187
0.891732 0.891732 0.285538
0.970332 0.892557 0.286980
0.030483 0.972551 0.236169
0.131810 0.970951 0.241344
0.254425 0.968959 0.249792
0.393509 0.967379 0.261268
0.544204 0.967249 0.274317
0.684178 0.968856 0.283710
0.800228 0.970891 0.287687
0.894608 0.972375 0.289172
0.973246 0.973246 0.290043
0.004301 0.017237 0.357662
0.090087 0.018387 0.358811
0.201767 0.020540 0.360955
0.330584 0.023220 0.363182
0.476227 0.025842 0.365659
0.621862 0.026369 0.368889
0.748555 0.025342 0.371025
0.852281 0.024064 0.372001
0.937271 0.023106 0.372340
0.009105 0.113573 0.362302
0.095389 0.114648 0.363083
0.207917 0.116587 0.364464
0.338984 0.118505 0.367105
0.490698 0.119188 0.370476
0.643011 0.117911 0.372378
0.774432 0.115882 0.372310
0.880527 0.114214 0.371605
0.966448 0.113150 0.370972
0.014010 0.229829 0.368263
0.104279 0.230823 0.369467
0.218906 0.232048 0.371351
0.355418 0.232583 0.372497
0.515278 0.231627 0.371398
0.672876 0.229654 0.368343
0.804079 0.228140 0.365495
0.907459 0.227445 0.363739
0.990714 0.227217 0.362835
0.011622 0.367718 0.371622
0.109009 0.368231 0.370514
0.229565 0.368426 0.368224
0.372075 0.367959 0.364773
0.532405 0.367223 0.361476
0.683884 0.366781 0.360124
0.809299 0.366492 0.359760
0.909863 0.366307 0.359575
0.992131 0.366198 0.359466
0.015099 0.524514 0.360599
0.114405 0.524334 0.360154
0.235179 0.524064 0.359795
0.375153 0.523713 0.359445
0.532267 0.523291 0.359023
0.682562 0.522898 0.358629
0.807834 0.522608 0.358374
0.908043 0.522452 0.358464
0.989701 0.522432 0.358811
0.014244 0.673877 0.358919
0.113200 0.673698 0.358740
0.233855 0.673429 0.358471
0.373659 0.673013 0.358546
0.530320 0.672139 0.361467
0.677442 0.671737 0.367159
0.797678 0.672071 0.372887
0.893597 0.672640 0.377107
0.972630 0.673111 0.379739
0.014347 0.797895 0.359328
0.114706 0.797023 0.360748
0.237486 0.795550 0.364024
0.378838 0.793815 0.370121
0.533695 0.792649 0.379626
0.677134 0.792887 0.389694
0.794633 0.793938 0.397136
0.889196 0.794969 0.401634
0.967684 0.795685 0.404091
0.024097 0.893630 0.366841
0.125467 0.892205 0.370201
0.248524 0.890337 0.376065
0.388622 0.888710 0.384712
0.540736 0.888298 0.395651
0.681702 0.889516 0.404960
0.798205 0.891255 0.410236
0.892635 0.892635 0.412602
0.971267 0.893500 0.413552
0.033963 0.971465 0.374193
0.135181 0.970000 0.378362
0.257473 0.968283 0.385122
0.395964 0.967140 0.394224
0.545909 0.967569 0.404377
0.685353 0.969622 0.411331
0.801180 0.971843 0.414128
0.895560 0.973327 0.415611
0.974198 0.974198 0.416483
0.005448 0.018384 0.498472
0.091234 0.019534 0.499621
0.203039 0.021658 0.501627
0.332147 0.024269 0.503540
0.479230 0.026283 0.507671
0.626629 0.026011 0.513552
0.754574 0.024395 0.517920
0.859125 0.022773 0.520287
0.944513 0.021635 0.521451
0.010240 0.114648 0.502817
0.096937 0.115701 0.503453
0.209694 0.117488 0.505574
0.341530 0.118964 0.510239
0.494548 0.118938 0.516748
0.648316 0.117006 0.521624
0.780396 0.114612 0.523694
0.886598 0.112806 0.524266
0.972438 0.111705 0.524329
0.013889 0.230714 0.512190
0.105181 0.231556 0.514680
0.220400 0.232419 0.518640
0.357976 0.232441 0.522427
0.518700 0.230984 0.524311
0.676116 0.228869 0.523434
0.806256 0.227572 0.521568
0.908558 0.227158 0.520109
0.991551 0.226984 0.519361
0.011489 0.368155 0.524261
0.109406 0.368413 0.524272
0.230558 0.368304 0.523370
0.373221 0.367680 0.520989
0.532900 0.367039 0.518331
0.683838 0.366638 0.517443
0.809156 0.366349 0.517153
0.909720 0.366163 0.516968
0.991988 0.366054 0.516859
0.015255 0.524369 0.517766
0.114377 0.524190 0.517461
0.235036 0.523921 0.517189
0.375009 0.523570 0.516838
0.532124 0.523148 0.516416
0.682419 0.522754 0.516022
0.807492 0.522476 0.515899
0.907141 0.522441 0.516151
0.988413 0.522525 0.516464
0.014101 0.673733 0.516312
0.113056 0.673555 0.516134
0.233658 0.673285 0.515905
0.373669 0.672727 0.516235
0.530269 0.671905 0.518357
0.676823 0.671816 0.522109
0.796613 0.672485 0.526078
0.892232 0.673281 0.528964
0.971110 0.673885 0.530774
0.015686 0.797207 0.516861
0.116423 0.796246 0.517865
0.239448 0.794788 0.520085
0.380678 0.793276 0.524199
0.535011 0.792576 0.530696
0.677888 0.793319 0.537681
0.795103 0.794713 0.542876
0.889605 0.795926 0.546005
0.968119 0.796728 0.547699
0.027650 0.892478 0.521982
0.129025 0.891158 0.524253
0.251864 0.889545 0.528250
0.391409 0.888369 0.534215
0.542724 0.888569 0.541840
0.683116 0.890303 0.548294
0.799382 0.892309 0.551879
0.893776 0.893776 0.553490
0.972414 0.894648 0.554361
0.038447 0.970271 0.526969
0.139458 0.969004 0.529826
0.261266 0.967656 0.534499
0.398952 0.967063 0.540843
0.547938 0.968150 0.547895
0.686641 0.970680 0.552611
0.802327 0.972989 0.554937
0.896707 0.974474 0.556421
0.975345 0.975345 0.557292
0.006518 0.019454 0.633565
0.092318 0.020600 0.634697
0.204340 0.022674 0.636468
0.333846 0.025132 0.638602
0.482349 0.026441 0.645426
0.631258 0.025408 0.654329
0.760357 0.023268 0.660887
0.865538 0.021359 0.664592
0.951201 0.020081 0.666513
0.011294 0.115622 0.637516
0.098423 0.116637 0.638416
0.211400 0.118189 0.642142
0.343966 0.119187 0.649334
0.498225 0.118481 0.659117
0.653190 0.115982 0.666808
0.785666 0.113322 0.670703
0.891794 0.111455 0.672259
0.977445 0.110369 0.672813
0.013520 0.231404 0.652113
0.105854 0.232072 0.656030
0.221771 0.232575 0.661992
0.360280 0.232133 0.668217
0.521622 0.230294 0.672486
0.678583 0.228196 0.672906
0.807472 0.227247 0.671196
0.909296 0.226947 0.669897
0.992119 0.226798 0.669312
0.011404 0.368376 0.672237
0.109803 0.368423 0.673019
0.231452 0.368096 0.672865
0.374113 0.367445 0.670635
0.533120 0.366899 0.668611
0.683706 0.366504 0.667998
0.809022 0.366215 0.667709
0.909586 0.366030 0.667523
0.991854 0.365921 0.667414
0.015270 0.524235 0.668209
0.114247 0.524056 0.668013
0.234902 0.523787 0.667744
0.374876 0.523436 0.667393
0.531990 0.523014 0.666971
0.682249 0.522620 0.666605
0.806865 0.522430 0.666521
0.905981 0.522557 0.666506
0.986916 0.522757 0.666549
0.013968 0.673600 0.666868
0.112923 0.673421 0.666689
0.233439 0.673133 0.666559
0.373890 0.672436 0.666515
0.530364 0.671770 0.667098
0.676193 0.672038 0.667437
0.793874 0.673296 0.667081
0.888759 0.674445 0.669060
0.967954 0.675116 0.671081
0.017439 0.796494 0.666634
0.118450 0.795510 0.666928
0.241603 0.794137 0.667778
0.382630 0.792900 0.669712
0.536422 0.792670 0.673256
0.679365 0.792236 0.665867
0.791218 0.794719 0.666075
0.884610 0.796935 0.672904
0.964358 0.798018 0.677925
0.031330 0.891475 0.668627
0.132634 0.890292 0.669739
0.255175 0.888962 0.671874
0.394117 0.888236 0.675354
0.544629 0.889002 0.680165
0.687331 0.888401 0.673758
0.798915 0.891376 0.675436
0.889744 0.893604 0.676523
0.969191 0.895286 0.682354
0.042864 0.969298 0.671169
0.143608 0.968245 0.672764
0.264870 0.967269 0.675527
0.401717 0.967199 0.679517
0.549749 0.968870 0.684203
0.690691 0.969358 0.680806
0.803372 0.972298 0.682913
0.895569 0.974291 0.684463
0.972890 0.975488 0.685448
0.007303 0.020239 0.747716
0.093180 0.021367 0.748765
0.205359 0.023404 0.750362
0.335275 0.025640 0.753410
0.484787 0.026394 0.762696
0.634734 0.024806 0.774039
0.764648 0.022304 0.782212
0.870200 0.020211 0.786875
0.956004 0.018850 0.789316
0.012033 0.116314 0.751485
0.099487 0.117264 0.753125
0.212658 0.118600 0.758373
0.345764 0.119216 0.767717
0.500965 0.118011 0.780000
0.656677 0.115135 0.789692
0.789302 0.112338 0.794743
0.895267 0.110475 0.796842
0.980707 0.109431 0.797628
0.013094 0.231816 0.771120
0.106296 0.232341 0.776156
0.222753 0.232573 0.783598
0.361906 0.231808 0.791501
0.523577 0.229756 0.797160
0.680023 0.227776 0.797969
0.808087 0.227081 0.796070
0.909704 0.226812 0.794969
0.992390 0.226681 0.794516
0.011384 0.368434 0.796813
0.110129 0.368348 0.797942
0.232105 0.367911 0.797923
0.374651 0.367291 0.795584
0.533190 0.366800 0.793991
0.683607 0.366406 0.793505
0.808924 0.366117 0.793216
0.909488 0.365931 0.793030
0.991756 0.365822 0.792921
0.015194 0.524137 0.793699
0.114149 0.523958 0.793520
0.234804 0.523689 0.793251
0.374777 0.523338 0.792901
0.531892 0.522916 0.792478
0.682059 0.522523 0.792178
0.806235 0.522466 0.791774
0.904978 0.522733 0.791324
0.985677 0.523027 0.791043
0.013869 0.673501 0.792375
0.112796 0.673323 0.792217
0.233457 0.672968 0.792023
0.374193 0.672231 0.791237
0.530535 0.671737 0.790284
0.675893 0.672342 0.787294
0.792890 0.674007 0.783973
0.887547 0.675320 0.785492
0.966779 0.676020 0.787744
0.019024 0.795953 0.790796
0.120187 0.794983 0.790406
0.243376 0.793713 0.790064
0.384199 0.792711 0.790261
0.537554 0.792843 0.791636
0.680559 0.792925 0.775594
0.791705 0.795824 0.772239
0.881063 0.798333 0.771023
0.956221 0.799979 0.770691
0.034232 0.890800 0.790060
0.135439 0.889738 0.790268
0.257704 0.888637 0.791012
0.396148 0.888254 0.792744
0.546036 0.889427 0.795739
0.688846 0.889323 0.782266
0.799206 0.891385 0.769825
0.887381 0.894275 0.770131
0.962205 0.896069 0.770834
0.046220 0.968682 0.790730
0.146722 0.967800 0.791407
0.267526 0.967111 0.792841
0.403700 0.967425 0.795304
0.550957 0.969496 0.798687
0.691843 0.970330 0.790991
0.804909 0.970462 0.771281
0.892870 0.973525 0.772922
0.967698 0.975378 0.774227
0.007807 0.020741 0.841107
0.093765 0.021852 0.842077
0.206041 0.023866 0.843568
0.336257 0.025905 0.847636
0.486401 0.026290 0.858675
0.637010 0.024351 0.871632
0.767399 0.021630 0.880836
0.873147 0.019434 0.886084
0.959013 0.018030 0.888831
0.012453 0.116735 0.845055
0.100150 0.117632 0.847277
0.213458 0.118813 0.853628
0.346912 0.119173 0.864453
0.502726 0.117653 0.878345
0.658857 0.114558 0.889254
0.791513 0.111701 0.894935
0.897322 0.109862 0.897285
0.982595 0.108862 0.898152
0.012756 0.232035 0.868249
0.106567 0.232462 0.874017
0.223370 0.232520 0.882396
0.362913 0.231561 0.891290
0.524740 0.229407 0.897637
0.680773 0.227553 0.898406
0.808427 0.226984 0.896402
0.909902 0.226733 0.895437
0.992493 0.226616 0.895073
0.011398 0.368430 0.897252
0.110359 0.368271 0.898490
0.232527 0.367787 0.898345
0.374937 0.367200 0.895968
0.533198 0.366737 0.894623
0.683544 0.366343 0.894191
0.808861 0.366054 0.893902
0.909425 0.365868 0.893717
0.991693 0.365759 0.893608
0.015131 0.524074 0.894386
0.114086 0.523895 0.894207
0.234741 0.523625 0.893938
0.374715 0.523275 0.893587
0.531829 0.522853 0.893165
0.681890 0.522472 0.892874
0.805769 0.522526 0.892073
0.904280 0.522889 0.891249
0.984835 0.523249 0.890711
0.013807 0.673439 0.893061
0.112686 0.673260 0.892940
0.233563 0.672844 0.892531
0.374453 0.672109 0.891084
0.530694 0.671748 0.888994
0.675914 0.672567 0.884898
0.793311 0.674304 0.881330
0.886908 0.675934 0.879553
0.966173 0.676639 0.882093
0.020169 0.795606 0.890212
0.121409 0.794659 0.889323
0.244595 0.793470 0.888151
0.385261 0.792632 0.887196
0.538317 0.793002 0.887216
0.680870 0.793951 0.874157
0.792242 0.796628 0.860037
0.881465 0.799276 0.857970
0.956563 0.800984 0.857276
0.036174 0.890399 0.887575
0.137299 0.889423 0.887190
0.259361 0.888477 0.887050
0.397461 0.888318 0.887717
0.546933 0.889742 0.889689
0.689808 0.889965 0.871597
0.800137 0.892340 0.855516
0.888248 0.895304 0.855617
0.962984 0.897125 0.856049
0.048411 0.968335 0.887034
0.148737 0.967568 0.887139
0.269221 0.967065 0.887770
0.404939 0.967624 0.889367
0.551655 0.969937 0.892145
0.692583 0.970968 0.881735
0.805939 0.971485 0.856774
0.893849 0.974578 0.858261
0.968667 0.976446 0.859658
0.008102 0.021032 0.919150
0.094120 0.022134 0.920075
0.206450 0.024135 0.921506
0.336854 0.026037 0.926353
0.487362 0.026202 0.938475
0.638361 0.024059 0.952387
0.769009 0.021216 0.962187
0.874856 0.018965 0.967763
0.960748 0.017540 0.970678
0.012678 0.116972 0.923349
0.100530 0.117833 0.925946
0.213923 0.118918 0.932986
0.347581 0.119125 0.944708
0.503759 0.117422 0.959538
0.660112 0.114208 0.971127
0.792763 0.111328 0.977131
0.898462 0.109514 0.979587
0.983624 0.108544 0.980475
0.012542 0.232148 0.948725
0.106720 0.232514 0.954929
0.223726 0.232471 0.963846
0.363491 0.231403 0.973283
0.525387 0.229203 0.979950
0.681148 0.227443 0.980580
0.808606 0.226929 0.978554
0.909993 0.226691 0.977673
0.992537 0.226578 0.977352
0.011418 0.368413 0.979553
0.110504 0.368216 0.980809
0.232778 0.367715 0.980506
0.375082 0.367150 0.978152
0.533189 0.366699 0.976942
0.683507 0.366306 0.976532
0.808824 0.366017 0.976242
0.909388 0.365831 0.976057
0.991656 0.365723 0.975948
0.015094 0.524037 0.976726
0.114048 0.523858 0.976547
0.234704 0.523588 0.976277
0.374677 0.523238 0.975927
0.531792 0.522816 0.975505
0.681769 0.522451 0.975176
0.805477 0.522575 0.974082
0.903855 0.522999 0.973008
0.984328 0.523397 0.972304
0.013768 0.673402 0.975402
0.112611 0.673223 0.975308
0.233660 0.672767 0.974690
0.374630 0.672044 0.972793
0.530805 0.671768 0.969987
0.675984 0.672695 0.965824
0.793816 0.674404 0.962749
0.887838 0.675979 0.960978
0.965845 0.677021 0.960444
0.020886 0.795404 0.971644
0.122164 0.794476 0.970443
0.245338 0.793339 0.968764
0.385904 0.792601 0.967125
0.538782 0.793110 0.966360
0.680910 0.794547 0.957528
0.792618 0.797122 0.934729
0.881796 0.799839 0.932242
0.956795 0.801590 0.931114
0.037341 0.890177 0.967846
0.138410 0.889254 0.967112
0.260343 0.888402 0.966460
0.398233 0.888374 0.966529
0.547455 0.889943 0.967958
0.688692 0.891310 0.956844
0.800705 0.892928 0.929235
0.888773 0.895917 0.928961
0.963509 0.897753 0.929393
0.049708 0.968149 0.966596
0.149924 0.967452 0.966374
0.270209 0.967060 0.966557
0.405651 0.967760 0.967694
0.552034 0.970208 0.970208
0.693018 0.971348 0.958204
0.806546 0.972095 0.930171
0.894454 0.975212 0.931756
0.969274 0.977080 0.933172
