pipelines/.agents/skills/broll-ingest/luts/buildloop-FINAL-slog3.cube
# buildloop-FINAL-slog3 — S-Log3/S-Gamut3.Cine -> Rec709 -> v4
LUT_3D_SIZE 5
0.003874 0.027394 0.052594
0.135291 0.032509 0.057709
0.786921 0.047247 0.065546
0.861616 0.045833 0.062767
0.861616 0.045833 0.062767
0.016743 0.134761 0.065128
0.078556 0.111330 0.064560
0.774290 0.047422 0.065947
0.861616 0.045833 0.062767
0.861616 0.045833 0.062767
0.025248 0.794876 0.000000
0.025358 0.787127 0.000000
0.735038 0.711246 0.014219
0.861616 0.045833 0.062767
0.861616 0.045833 0.062767
0.048010 0.952780 0.030985
0.048010 0.952780 0.030985
0.048010 0.952780 0.030985
0.949141 0.949141 0.159541
0.861616 0.045833 0.062767
0.048010 0.952780 0.030985
0.048010 0.952780 0.030985
0.048010 0.952780 0.030985
0.048010 0.952780 0.030985
0.949141 0.949141 0.159541
0.004969 0.028489 0.133298
0.137815 0.033656 0.138218
0.792899 0.046687 0.146031
0.866445 0.045197 0.124182
0.861616 0.045833 0.062767
0.018365 0.140604 0.142865
0.082235 0.117520 0.142137
0.779945 0.046938 0.143026
0.866170 0.045235 0.120694
0.861616 0.045833 0.062767
0.025138 0.796260 0.058905
0.025248 0.788569 0.058685
0.735032 0.713141 0.074999
0.863921 0.045537 0.092146
0.861616 0.045833 0.062767
0.048010 0.952780 0.030985
0.048010 0.952780 0.030985
0.048010 0.952780 0.030985
0.949141 0.949141 0.159541
0.861616 0.045833 0.062767
0.048010 0.952780 0.030985
0.048010 0.952780 0.030985
0.048010 0.952780 0.030985
0.048010 0.952780 0.030985
0.949141 0.949141 0.159541
0.013393 0.045621 0.667993
0.156780 0.041173 0.671605
0.836585 0.039323 0.724090
0.912863 0.036117 0.722124
0.906734 0.037605 0.639361
0.025473 0.183047 0.689714
0.110610 0.161494 0.690692
0.823275 0.039884 0.721836
0.912770 0.036140 0.720851
0.906608 0.037635 0.637687
0.026791 0.805245 0.720167
0.025975 0.798324 0.720095
0.734208 0.729022 0.718452
0.912026 0.036325 0.710699
0.905606 0.037870 0.624349
0.073158 0.945189 0.615150
0.073151 0.945190 0.615003
0.073094 0.945203 0.613860
0.955822 0.955822 0.652009
0.893850 0.040454 0.470935
0.048010 0.952780 0.030985
0.048010 0.952780 0.030985
0.048010 0.952780 0.030985
0.048010 0.952780 0.030985
0.949141 0.949141 0.159541
0.145043 0.375765 0.965106
0.322163 0.355311 0.962042
0.933777 0.180751 0.961377
0.928632 0.031891 0.946687
0.928632 0.031891 0.946687
0.063635 0.477413 0.958983
0.259072 0.457105 0.957938
0.924999 0.301000 0.957339
0.928632 0.031891 0.946687
0.928632 0.031891 0.946687
0.054467 0.875428 0.943964
0.052800 0.871719 0.944332
0.781499 0.837190 0.897840
0.928632 0.031891 0.946687
0.928632 0.031891 0.946687
0.090378 0.942089 0.939266
0.090378 0.942089 0.939266
0.090378 0.942089 0.939266
0.944135 0.958327 0.878494
0.928632 0.031891 0.946687
0.090378 0.942089 0.939266
0.090378 0.942089 0.939266
0.090378 0.942089 0.939266
0.090378 0.942089 0.939266
0.944135 0.958327 0.878494
0.852405 0.949228 0.873079
0.880175 0.951908 0.873876
0.944135 0.958327 0.878494
0.932959 0.913289 0.871376
0.928632 0.031891 0.946687
0.838649 0.948234 0.876044
0.869947 0.950895 0.873301
0.944135 0.958327 0.878494
0.936149 0.927020 0.872768
0.928632 0.031891 0.946687
0.620202 0.946780 0.946780
0.712154 0.948773 0.940268
0.939551 0.957866 0.878144
0.944135 0.958327 0.878494
0.928632 0.031891 0.946687
0.090378 0.942089 0.939266
0.090378 0.942089 0.939266
0.090378 0.942089 0.939266
0.944135 0.958327 0.878494
0.928632 0.031891 0.946687
0.090378 0.942089 0.939266
0.090378 0.942089 0.939266
0.090378 0.942089 0.939266
0.090378 0.942089 0.939266
0.944135 0.958327 0.878494
